; generated by Slic3r 1.36.2-prusa3d-win64 on 2017-12-15 at 16:33:07

; 

; external perimeters extrusion width = 0.45mm
; perimeters extrusion width = 0.45mm
; infill extrusion width = 0.45mm
; solid infill extrusion width = 0.45mm
; top infill extrusion width = 0.40mm

M107
M80 ; turn on PSU
M140 S50
M104 S200 ; start E heating
M17; enable motors
G28 X Y ; Z ; Home
M190 S50
M109 S200
G91
G1 E5 F200
G90
; Filament gcode

G21 ; set units to millimeters
G90 ; use absolute coordinates
M82 ; use absolute distances for extrusion
G92 E0
G1 E-2.00000 F3600.00000
G92 E0
G1 Z0.200 F5400.000
G1 X178.801 Y135.159 F5400.000
G1 E2.00000 F3600.00000
G1 F1200
G1 X179.818 Y134.071 E2.04561
G1 X182.377 Y132.231 E2.14211
G1 X183.608 Y131.677 E2.18347
G1 X184.870 Y131.487 E2.22252
G1 X195.055 Y131.486 E2.53441
G1 X196.151 Y131.614 E2.56819
G1 X197.190 Y131.987 E2.60198
G1 X200.050 Y133.962 E2.70840
G1 X200.735 Y134.600 E2.73707
G1 X201.333 Y135.348 E2.76639
G1 X201.794 Y136.138 E2.79439
G1 X202.196 Y137.164 E2.82815
G1 X202.395 Y138.062 E2.85631
G1 X202.463 Y138.904 E2.88217
G1 X202.463 Y151.081 E3.25504
G1 X202.304 Y152.424 E3.29645
G1 X201.918 Y153.596 E3.33424
G1 X201.186 Y154.858 E3.37890
G1 X200.132 Y155.971 E3.42583
G1 X197.549 Y157.814 E3.52299
G1 X196.878 Y158.154 E3.54604
G1 X196.161 Y158.384 E3.56909
G1 X195.103 Y158.514 E3.60172
G1 X184.842 Y158.513 E3.91593
G1 X183.875 Y158.393 E3.94576
G1 X182.957 Y158.082 E3.97542
G1 X182.267 Y157.697 E3.99962
G1 X180.291 Y156.292 E4.07386
G1 X179.283 Y155.420 E4.11467
G1 X178.760 Y154.785 E4.13986
G1 X178.311 Y154.069 E4.16574
G1 X177.966 Y153.316 E4.19110
G1 X177.705 Y152.468 E4.21827
G1 X177.537 Y151.068 E4.26145
G1 X177.537 Y138.886 E4.63445
G1 X177.698 Y137.564 E4.67524
G1 X178.082 Y136.404 E4.71266
G1 X178.771 Y135.211 E4.75483
G1 X179.122 Y135.415 F5400.000
G1 F1200
G1 X180.098 Y134.368 E4.79866
G1 X182.599 Y132.572 E4.89295
G1 X183.761 Y132.056 E4.93188
G1 X184.887 Y131.893 E4.96672
G1 X195.055 Y131.893 E5.27805
G1 X196.073 Y132.013 E5.30943
G1 X197.035 Y132.365 E5.34080
G1 X199.811 Y134.292 E5.44427
G1 X200.449 Y134.890 E5.47106
G1 X201.009 Y135.596 E5.49862
G1 X201.524 Y136.521 E5.53105
G1 X201.819 Y137.322 E5.55719
G1 X201.996 Y138.146 E5.58301
G1 X202.056 Y138.920 E5.60678
G1 X202.056 Y151.078 E5.97904
G1 X201.904 Y152.348 E6.01821
G1 X201.535 Y153.453 E6.05389
G1 X200.851 Y154.627 E6.09548
G1 X199.859 Y155.669 E6.13955
G1 X197.343 Y157.463 E6.23415
G1 X196.714 Y157.781 E6.25573
G1 X196.038 Y157.995 E6.27746
G1 X195.092 Y158.107 E6.30663
G1 X184.851 Y158.106 E6.62018
G1 X183.953 Y157.993 E6.64793
G1 X183.096 Y157.698 E6.67567
G1 X182.474 Y157.346 E6.69756
G1 X180.358 Y155.837 E6.77713
G1 X179.579 Y155.140 E6.80913
G1 X179.089 Y154.545 E6.83274
G1 X178.665 Y153.868 E6.85719
G1 X178.343 Y153.162 E6.88096
G1 X178.097 Y152.355 E6.90679
G1 X177.944 Y151.057 E6.94680
G1 X177.944 Y138.896 E7.31916
G1 X178.098 Y137.640 E7.35792
G1 X178.465 Y136.547 E7.39323
G1 X179.092 Y135.467 E7.43146
G1 F4320
G1 X180.098 Y134.368 E6.25178
G1 F4320
G1 X180.837 Y133.837 E5.53146
G1 E5.43146 F3600.00000
G92 E0
G1 X185.588 Y137.075 F5400.000
G1 E2.00000 F3600.00000
G1 F1200
G1 X194.458 Y137.075 E2.27161
G1 X194.458 Y152.925 E2.75694
G1 X185.588 Y152.925 E3.02855
G1 X185.588 Y137.135 E3.51204
G1 X185.520 Y136.681 F5400.000
G1 X184.560 Y138.323 F5400.000
G1 F1200
G1 X184.766 Y138.571 E3.52191
G1 X184.849 Y138.782 E3.52886
G1 X184.878 Y139.007 E3.53581
G1 X184.817 Y139.324 E3.54567
G1 X184.641 Y139.602 E3.55576
G1 X184.374 Y139.795 E3.56585
G1 X184.062 Y139.876 E3.57571
G1 X183.836 Y139.861 E3.58266
G1 X183.620 Y139.791 E3.58961
G1 X183.359 Y139.602 E3.59948
G1 X183.183 Y139.324 E3.60956
G1 X183.121 Y139.000 E3.61965
G1 X183.183 Y138.676 E3.62974
G1 X183.359 Y138.398 E3.63982
G1 X183.626 Y138.205 E3.64991
G1 X183.945 Y138.123 E3.66000
G1 X184.272 Y138.164 E3.67009
G1 X184.508 Y138.294 E3.67834
G1 X184.862 Y138.210 F5400.000
G1 F4320
G1 X184.766 Y138.571 E3.37864
G1 F4320
G1 X184.849 Y138.782 E3.19894
G1 F4320
G1 X184.878 Y139.007 E3.01922
G1 F4320
G1 X184.817 Y139.324 E2.76419
G1 F4320
G1 X184.641 Y139.602 E2.50339
G1 F4320
G1 X184.374 Y139.795 E2.24259
G1 F4320
G1 X184.062 Y139.876 E1.98754
G1 F4320
G1 X183.836 Y139.861 E1.80784
G1 F4320
G1 X183.800 Y139.850 E1.77834
G1 E1.67834 F3600.00000
G92 E0
G1 X195.121 Y139.000 F5400.000
G1 E2.00000 F3600.00000
G1 F1200
G1 X195.183 Y138.676 E2.01009
G1 X195.359 Y138.398 E2.02017
G1 X195.626 Y138.205 E2.03026
G1 X195.938 Y138.124 E2.04013
G1 X196.164 Y138.139 E2.04708
G1 X196.380 Y138.209 E2.05403
G1 X196.641 Y138.398 E2.06389
G1 X196.817 Y138.676 E2.07398
G1 X196.879 Y139.000 E2.08407
G1 X196.817 Y139.324 E2.09415
G1 X196.641 Y139.602 E2.10424
G1 X196.374 Y139.795 E2.11433
G1 X196.062 Y139.876 E2.12419
G1 X195.836 Y139.861 E2.13114
G1 X195.620 Y139.791 E2.13809
G1 X195.359 Y139.602 E2.14796
G1 X195.183 Y139.324 E2.15805
G1 X195.132 Y139.059 E2.16630
G1 X194.836 Y138.835 F5400.000
G1 F4320
G1 X195.183 Y138.676 E1.86083
G1 F4320
G1 X195.359 Y138.398 E1.60003
G1 F4320
G1 X195.626 Y138.205 E1.33923
G1 F4320
G1 X195.938 Y138.124 E1.08418
G1 F4320
G1 X196.164 Y138.139 E0.90448
G1 F4320
G1 X196.380 Y138.209 E0.72477
G1 F4320
G1 X196.641 Y138.398 E0.46973
G1 F4320
G1 X196.778 Y138.615 E0.26630
G1 E0.16630 F3600.00000
G92 E0
G1 X195.945 Y150.123 F5400.000
G1 E2.00000 F3600.00000
G1 F1200
G1 X196.264 Y150.163 E2.00986
G1 X196.470 Y150.260 E2.01681
G1 X196.645 Y150.404 E2.02377
G1 X196.817 Y150.676 E2.03363
G1 X196.879 Y151.000 E2.04372
G1 X196.817 Y151.324 E2.05380
G1 X196.641 Y151.602 E2.06389
G1 X196.374 Y151.795 E2.07398
G1 X196.055 Y151.877 E2.08407
G1 X195.728 Y151.836 E2.09415
G1 X195.440 Y151.677 E2.10424
G1 X195.234 Y151.429 E2.11411
G1 X195.151 Y151.218 E2.12106
G1 X195.122 Y150.993 E2.12801
G1 X195.183 Y150.676 E2.13787
G1 X195.359 Y150.398 E2.14796
G1 X195.626 Y150.205 E2.15805
G1 X195.887 Y150.138 E2.16630
G1 X196.088 Y149.834 F5400.000
G1 F4320
G1 X196.264 Y150.163 E1.86658
G1 F4320
G1 X196.470 Y150.260 E1.68688
G1 F4320
G1 X196.645 Y150.404 E1.50718
G1 F4320
G1 X196.817 Y150.676 E1.25214
G1 F4320
G1 X196.879 Y151.000 E0.99133
G1 F4320
G1 X196.817 Y151.324 E0.73053
G1 F4320
G1 X196.641 Y151.602 E0.46973
G1 F4320
G1 X196.433 Y151.753 E0.26630
G1 E0.16630 F3600.00000
G92 E0
G1 X184.879 Y151.000 F5400.000
G1 E2.00000 F3600.00000
G1 F1200
G1 X184.817 Y151.324 E2.01009
G1 X184.641 Y151.602 E2.02017
G1 X184.374 Y151.795 E2.03026
G1 X184.062 Y151.876 E2.04013
G1 X183.836 Y151.861 E2.04708
G1 X183.620 Y151.791 E2.05403
G1 X183.359 Y151.602 E2.06389
G1 X183.183 Y151.324 E2.07398
G1 X183.121 Y151.000 E2.08407
G1 X183.183 Y150.676 E2.09415
G1 X183.359 Y150.398 E2.10424
G1 X183.626 Y150.205 E2.11433
G1 X183.938 Y150.124 E2.12419
G1 X184.164 Y150.139 E2.13114
G1 X184.380 Y150.209 E2.13809
G1 X184.641 Y150.398 E2.14796
G1 X184.817 Y150.676 E2.15805
G1 X184.868 Y150.941 E2.16630
G1 X185.164 Y151.165 F5400.000
G1 X185.175 Y150.024 F5400.000
G1 F1200
G1 X185.175 Y139.976 E2.47394
G1 X184.607 Y140.289 E2.49380
G1 X184.440 Y140.355 E2.49928
G1 X184.089 Y140.422 E2.51021
G1 X183.911 Y140.422 E2.51568
G1 X183.560 Y140.355 E2.52662
G1 X183.393 Y140.289 E2.53210
G1 X183.092 Y140.098 E2.54303
G1 X182.848 Y139.837 E2.55397
G1 X182.675 Y139.524 E2.56490
G1 X182.588 Y139.183 E2.57569
G1 X182.575 Y139.000 E2.58132
G1 X182.620 Y138.646 E2.59225
G1 X182.675 Y138.476 E2.59773
G1 X182.752 Y138.314 E2.60320
G1 X182.958 Y138.029 E2.61399
G1 X183.092 Y137.902 E2.61962
G1 X183.393 Y137.711 E2.63055
G1 X183.560 Y137.645 E2.63603
G1 X183.911 Y137.578 E2.64696
G1 X184.089 Y137.578 E2.65244
G1 X184.440 Y137.645 E2.66337
G1 X184.607 Y137.711 E2.66885
G1 X185.175 Y138.024 E2.68871
G1 X185.175 Y136.525 E2.73460
G1 X194.825 Y136.525 E3.03008
G1 X194.825 Y138.024 E3.07596
G1 X195.393 Y137.711 E3.09583
G1 X195.560 Y137.645 E3.10131
G1 X195.911 Y137.578 E3.11224
G1 X196.089 Y137.578 E3.11772
G1 X196.267 Y137.601 E3.12320
G1 X196.607 Y137.711 E3.13413
G1 X196.908 Y137.902 E3.14506
G1 X197.038 Y138.025 E3.15054
G1 X197.248 Y138.314 E3.16148
G1 X197.325 Y138.476 E3.16695
G1 X197.413 Y138.821 E3.17789
G1 X197.413 Y139.179 E3.18882
G1 X197.380 Y139.354 E3.19430
G1 X197.250 Y139.682 E3.20508
G1 X197.152 Y139.838 E3.21072
G1 X196.908 Y140.098 E3.22164
G1 X196.607 Y140.289 E3.23258
G1 X196.440 Y140.355 E3.23806
G1 X196.267 Y140.399 E3.24353
G1 X195.911 Y140.422 E3.25447
G1 X195.560 Y140.355 E3.26540
G1 X195.393 Y140.289 E3.27088
G1 X194.825 Y139.976 E3.29074
G1 X194.825 Y150.024 E3.59838
G1 X195.393 Y149.711 E3.61825
G1 X195.560 Y149.645 E3.62372
G1 X195.911 Y149.578 E3.63466
G1 X196.267 Y149.601 E3.64559
G1 X196.440 Y149.645 E3.65107
G1 X196.607 Y149.711 E3.65655
G1 X196.908 Y149.902 E3.66748
G1 X197.152 Y150.163 E3.67841
G1 X197.325 Y150.476 E3.68935
G1 X197.412 Y150.817 E3.70013
G1 X197.425 Y151.000 E3.70577
G1 X197.380 Y151.354 E3.71669
G1 X197.325 Y151.524 E3.72217
G1 X197.248 Y151.686 E3.72765
G1 X197.042 Y151.971 E3.73844
G1 X196.908 Y152.098 E3.74407
G1 X196.607 Y152.289 E3.75499
G1 X196.440 Y152.355 E3.76047
G1 X196.089 Y152.422 E3.77141
G1 X195.911 Y152.422 E3.77688
G1 X195.560 Y152.355 E3.78782
G1 X195.393 Y152.289 E3.79330
G1 X194.825 Y151.976 E3.81316
G1 X194.825 Y153.475 E3.85904
G1 X185.175 Y153.475 E4.15453
G1 X185.175 Y151.976 E4.20041
G1 X184.607 Y152.289 E4.22027
G1 X184.267 Y152.399 E4.23121
G1 X183.911 Y152.422 E4.24214
G1 X183.560 Y152.355 E4.25307
G1 X183.237 Y152.203 E4.26401
G1 X183.092 Y152.098 E4.26949
G1 X182.848 Y151.837 E4.28042
G1 X182.752 Y151.686 E4.28590
G1 X182.622 Y151.359 E4.29669
G1 X182.575 Y151.000 E4.30776
G1 X182.620 Y150.645 E4.31871
G1 X182.752 Y150.314 E4.32963
G1 X182.848 Y150.163 E4.33511
G1 X183.092 Y149.902 E4.34604
G1 X183.393 Y149.711 E4.35698
G1 X183.560 Y149.645 E4.36246
G1 X183.911 Y149.578 E4.37339
G1 X184.267 Y149.601 E4.38432
G1 X184.607 Y149.711 E4.39526
G1 X185.122 Y149.995 E4.41328
G1 X185.571 Y150.081 F5400.000
G1 X185.101 Y150.215 F5400.000
G1 F1200
G1 X185.195 Y150.565 E4.42312
G1 F1200
G1 X185.234 Y150.972 E4.43210
G1 X185.215 Y151.232 E4.43783
G1 F1200
G1 X185.181 Y151.509 E4.44541
G1 X185.101 Y151.785 E4.45324
G1 X184.846 Y151.819 F5400.000
G1 F1200
G1 X185.384 Y151.400 E4.46064
G1 X184.846 Y151.819 F5400.000
G1 F1200
G1 X184.491 Y152.044 E4.46323
G1 X184.215 Y152.125 E4.46501
G1 X184.077 Y152.149 E4.46587
G1 X183.928 Y152.145 E4.46679
G1 X183.784 Y152.131 E4.46768
G1 X183.646 Y152.091 E4.46856
G1 X183.486 Y152.030 E4.46962
G1 X183.159 Y151.790 E4.47211
G1 X182.928 Y151.425 E4.47478
G1 X182.864 Y151.143 E4.47655
G1 X182.848 Y150.987 E4.47752
G1 X182.928 Y150.575 E4.48010
G1 X183.159 Y150.210 E4.48276
G1 X183.387 Y150.033 E4.48454
G1 X183.521 Y149.952 E4.48550
G1 X183.923 Y149.851 E4.48806
G1 X184.216 Y149.869 E4.48986
G1 X184.514 Y149.970 E4.49180
G1 F1200
G1 X184.846 Y150.181 E4.49608
G1 X185.384 Y150.600 E4.50349
G1 F4320
G1 X184.846 Y150.181 E3.96405
G1 F4320
G1 X184.514 Y149.970 E3.65214
G1 E2.50349 F3600.00000
G92 E0
G1 X185.379 Y153.200 F5400.000
G1 E2.00000 F3600.00000
G1 F1200
G1 X194.621 Y153.200 E2.06117
G1 X194.900 Y151.786 F5400.000
G1 F1200
G1 X194.812 Y151.324 E2.07159
G1 F1200
G1 X194.790 Y150.962 E2.07721
G1 F1200
G1 X194.827 Y150.569 E2.08564
G1 F1200
G1 X194.929 Y150.199 E2.09537
G1 X194.662 Y150.564 F5400.000
G1 F1200
G1 X195.154 Y150.181 E2.10214
G1 X195.498 Y149.963 E2.10657
G1 F1200
G1 X195.646 Y149.911 E2.10751
G1 X195.940 Y149.849 E2.10930
G1 X196.330 Y149.898 E2.11165
G1 X196.617 Y150.028 E2.11353
G1 X196.857 Y150.232 E2.11541
G1 X197.072 Y150.575 E2.11783
G1 X197.152 Y150.987 E2.12033
G1 X197.136 Y151.143 E2.12127
G1 X197.072 Y151.425 E2.12299
G1 X196.926 Y151.673 E2.12471
G1 X196.831 Y151.798 E2.12565
G1 X196.491 Y152.044 E2.12815
G1 X196.085 Y152.149 E2.13066
G1 X195.928 Y152.143 E2.13159
G1 X195.644 Y152.097 E2.13331
G1 X195.247 Y151.887 E2.13599
G1 F1200
G1 X195.093 Y151.759 E2.13812
G1 F1200
G1 X194.939 Y151.632 E2.14142
G1 F1200
G1 X194.662 Y151.363 E2.14975
G1 F4320
G1 X194.939 Y151.632 E1.84398
G1 E0.14975 F3600.00000
G92 E0
G1 X195.486 Y140.030 F5400.000
G1 E2.00000 F3600.00000
G1 F1200
G1 X195.784 Y140.131 E2.00194
G1 X196.077 Y140.149 E2.00375
G1 X196.479 Y140.048 E2.00630
G1 X196.613 Y139.967 E2.00726
G1 X196.841 Y139.790 E2.00904
G1 X197.072 Y139.425 E2.01170
G1 X197.152 Y139.013 E2.01428
G1 X197.136 Y138.857 E2.01525
G1 X197.072 Y138.575 E2.01702
G1 X196.841 Y138.210 E2.01969
G1 X196.514 Y137.970 E2.02218
G1 X196.354 Y137.909 E2.02324
G1 X196.216 Y137.869 E2.02412
G1 X196.072 Y137.855 E2.02501
G1 X195.923 Y137.851 E2.02593
G1 X195.785 Y137.875 E2.02679
G1 X195.509 Y137.956 E2.02857
G1 X195.154 Y138.181 E2.03116
G1 F1200
G1 X194.662 Y138.564 E2.03793
G1 X194.827 Y138.569 F5400.000
G1 F1200
G1 X194.789 Y138.976 E2.04665
G1 F1200
G1 X194.808 Y139.227 E2.05050
G1 F1200
G1 X194.840 Y139.495 E2.05625
G1 F1200
G1 X194.929 Y139.801 E2.06433
G1 X194.662 Y139.436 F5400.000
G1 F1200
G1 X195.154 Y139.819 E2.07110
G1 X195.486 Y140.030 E2.07539
G1 X194.827 Y138.569 F5400.000
G1 F1200
G1 X194.929 Y138.199 E2.08512
G1 X194.621 Y136.800 F5400.000
G1 F1200
G1 X185.379 Y136.800 E2.14629
G1 X185.127 Y138.229 F5400.000
G1 F1200
G1 X185.168 Y138.448 E2.15250
G1 F1200
G1 X185.215 Y138.710 E2.15837
G1 X185.233 Y138.995 E2.16466
G1 X185.214 Y139.239 E2.17006
G1 F1200
G1 X185.181 Y139.509 E2.17746
G1 X185.102 Y139.785 E2.18527
G1 X184.674 Y139.928 F5400.000
G1 F1200
G1 X184.846 Y139.819 E2.18730
G1 X185.384 Y139.400 E2.19410
G1 X185.384 Y138.682 F5400.000
G1 F1200
G1 X184.984 Y138.304 E2.20597
G1 F1200
G1 X184.830 Y138.177 E2.20927
G1 F1200
G1 X184.729 Y138.097 E2.21064
G1 X184.368 Y137.908 E2.21497
G1 F1200
G1 X183.940 Y137.849 E2.21754
G1 X183.785 Y137.875 E2.21848
G1 X183.509 Y137.956 E2.22020
G1 X183.271 Y138.117 E2.22192
G1 X183.151 Y138.220 E2.22286
G1 X182.928 Y138.575 E2.22536
G1 X182.848 Y138.987 E2.22787
G1 X182.865 Y139.148 E2.22883
G1 X182.928 Y139.425 E2.23052
G1 X183.074 Y139.673 E2.23224
G1 X183.169 Y139.798 E2.23318
G1 X183.510 Y140.042 E2.23568
G1 X183.780 Y140.130 E2.23738
G1 X184.077 Y140.149 E2.23916
G1 X184.479 Y140.048 E2.24163
G1 X184.674 Y139.928 E2.24300
M106 S255
G1 F4320
G1 X184.479 Y140.048 E2.06171
G1 F4320
G1 X184.077 Y140.149 E1.73364
G1 F4320
G1 X183.780 Y140.130 E1.49774
G1 F4320
G1 X183.510 Y140.042 E1.27275
G1 F4320
G1 X183.169 Y139.798 E0.94078
G1 F4320
G1 X183.074 Y139.673 E0.81651
G1 F4320
G1 X182.928 Y139.425 E0.58838
G1 F4320
G1 X182.865 Y139.148 E0.36373
G1 F4320
G1 X182.862 Y139.122 E0.34300
G1 E0.24300 F3600.00000
G92 E0
G1 Z0.350 F5400.000
M104 S185 ; set temperature
G1 X185.576 Y137.075 F5400.000
G1 E2.00000 F3600.00000
G1 F744
G1 X194.446 Y137.075 E2.21128
G1 X194.446 Y152.925 E2.58881
G1 X185.576 Y152.925 E2.80009
G1 X185.576 Y137.135 E3.17618
G1 X185.508 Y136.681 F5400.000
G1 X184.560 Y138.323 F5400.000
G1 F720
G1 X184.770 Y138.577 E3.18403
G1 X184.872 Y138.890 E3.19188
G1 X184.852 Y139.211 E3.19955
G1 X184.768 Y139.422 E3.20496
G1 X184.635 Y139.606 E3.21036
G1 X184.374 Y139.795 E3.21804
G1 X184.055 Y139.877 E3.22588
G1 X183.728 Y139.836 E3.23373
G1 X183.440 Y139.677 E3.24158
G1 X183.230 Y139.423 E3.24943
G1 X183.128 Y139.110 E3.25727
G1 X183.148 Y138.789 E3.26495
G1 X183.232 Y138.578 E3.27035
G1 X183.365 Y138.394 E3.27576
G1 X183.626 Y138.205 E3.28343
G1 X183.945 Y138.123 E3.29128
G1 X184.272 Y138.164 E3.29912
G1 X184.508 Y138.294 E3.30554
G1 X184.869 Y138.208 F5400.000
G1 F4320
G1 X184.770 Y138.577 E3.00001
G1 F4320
G1 X184.872 Y138.890 E2.73921
G1 F4320
G1 X184.852 Y139.211 E2.48418
G1 F4320
G1 X184.768 Y139.422 E2.30448
G1 F4320
G1 X184.635 Y139.606 E2.12484
G1 F4320
G1 X184.374 Y139.795 E1.86981
G1 F4320
G1 X184.055 Y139.877 E1.60899
G1 F4320
G1 X183.800 Y139.845 E1.40554
G1 E1.30554 F3600.00000
G92 E0
G1 X183.945 Y150.123 F5400.000
G1 E2.00000 F3600.00000
G1 F720
G1 X184.272 Y150.164 E2.00785
G1 X184.560 Y150.323 E2.01569
G1 X184.770 Y150.577 E2.02354
G1 X184.872 Y150.890 E2.03139
G1 X184.852 Y151.211 E2.03906
G1 X184.768 Y151.422 E2.04447
G1 X184.635 Y151.606 E2.04987
G1 X184.374 Y151.795 E2.05755
G1 X184.055 Y151.877 E2.06539
