; generated by Slic3r 1.36.2-prusa3d-win64 on 2017-12-29 at 16:53:37

; 

; external perimeters extrusion width = 0.45mm
; perimeters extrusion width = 0.45mm
; infill extrusion width = 0.45mm
; solid infill extrusion width = 0.45mm
; top infill extrusion width = 0.40mm

M107
M80 ; turn on PSU
M140 S50
M104 S200 ; start E heating
M17; enable motors
G28 X Y ; Z ; Home
M190 S50
M109 S200
G91
G1 E5 F200
G90
; Filament gcode

G21 ; set units to millimeters
G90 ; use absolute coordinates
M82 ; use absolute distances for extrusion
G92 E0
G1 E-2.00000 F3600.00000
G92 E0
G1 Z0.200 F5400.000
G1 X179.275 Y134.589 F5400.000
G1 E2.00000 F3600.00000
G1 F1200
G1 X180.492 Y133.571 E2.04859
G1 X181.407 Y133.080 E2.08039
G1 X184.551 Y131.836 E2.18391
G1 X185.671 Y131.686 E2.21852
G1 X194.672 Y131.686 E2.49413
G1 X195.604 Y131.778 E2.52280
G1 X196.505 Y132.051 E2.55164
G1 X198.953 Y133.251 E2.63511
G1 X199.886 Y133.837 E2.66884
G1 X200.657 Y134.517 E2.70032
G1 X201.283 Y135.277 E2.73048
G1 X201.778 Y136.105 E2.76000
G1 X202.195 Y137.159 E2.79471
G1 X202.395 Y138.062 E2.82304
G1 X202.463 Y138.904 E2.84890
G1 X202.462 Y151.152 E3.22393
G1 X202.245 Y152.666 E3.27078
G1 X201.653 Y154.135 E3.31927
G1 X200.721 Y155.415 E3.36773
G1 X199.495 Y156.438 E3.41665
G1 X196.575 Y157.920 E3.51690
G1 X195.915 Y158.149 E3.53829
G1 X195.229 Y158.281 E3.55968
G1 X185.188 Y158.282 E3.86714
G1 X184.033 Y157.999 E3.90357
G1 X180.768 Y156.596 E4.01236
G1 X179.667 Y155.794 E4.05407
G1 X178.646 Y154.620 E4.10170
G1 X177.958 Y153.296 E4.14740
G1 X177.582 Y151.771 E4.19549
G1 X177.541 Y138.767 E4.59368
G1 X177.762 Y137.306 E4.63892
G1 X178.347 Y135.865 E4.68654
G1 X179.240 Y134.638 E4.73300
G1 X179.568 Y134.879 F5400.000
G1 F1200
G1 X180.744 Y133.892 E4.78002
G1 X181.580 Y133.448 E4.80900
G1 X184.689 Y132.221 E4.91133
G1 X185.690 Y132.093 E4.94223
G1 X194.672 Y132.093 E5.21727
G1 X195.532 Y132.179 E5.24375
G1 X196.364 Y132.433 E5.27038
G1 X198.763 Y133.611 E5.35221
G1 X199.650 Y134.169 E5.38431
G1 X200.371 Y134.807 E5.41378
G1 X200.962 Y135.527 E5.44230
G1 X201.422 Y136.303 E5.46992
G1 X201.817 Y137.317 E5.50324
G1 X201.996 Y138.146 E5.52922
G1 X202.056 Y138.920 E5.55299
G1 X202.055 Y151.145 E5.92731
G1 X201.848 Y152.575 E5.97153
G1 X201.277 Y153.972 E6.01775
G1 X200.408 Y155.153 E6.06267
G1 X199.256 Y156.108 E6.10848
G1 X196.414 Y157.546 E6.20601
G1 X195.150 Y157.881 E6.24604
G1 X185.233 Y157.877 E6.54971
G1 X184.163 Y157.613 E6.58344
G1 X180.934 Y156.222 E6.69110
G1 X179.776 Y155.338 E6.73569
G1 X178.972 Y154.374 E6.77416
G1 X178.333 Y153.138 E6.81676
G1 X177.983 Y151.694 E6.86224
G1 X177.948 Y138.793 E7.25728
G1 X178.158 Y137.404 E7.30030
G1 X178.723 Y136.028 E7.34583
G1 X179.532 Y134.927 E7.38767
G1 F4320
G1 X180.744 Y133.892 E6.12599
G1 F4320
G1 X181.456 Y133.514 E5.48767
G1 E5.38767 F3600.00000
G92 E0
G1 X186.222 Y137.075 F5400.000
G1 E2.00000 F3600.00000
G1 F1200
G1 X194.190 Y137.075 E2.24399
G1 X194.190 Y152.925 E2.72931
G1 X186.222 Y152.925 E2.97330
G1 X186.222 Y137.135 E3.45679
G1 X186.160 Y136.680 F5400.000
G1 X185.815 Y138.632 F5400.000
G1 F1200
G1 X185.815 Y139.368 E3.47932
G1 X185.275 Y139.368 E3.49586
G1 X185.308 Y138.835 E3.51222
G1 X185.242 Y138.632 E3.51875
G1 X185.755 Y138.632 E3.53444
G1 X184.897 Y138.887 F5400.000
G1 F1200
G1 X184.876 Y139.225 E3.54481
G1 X184.735 Y139.525 E3.55496
G1 X184.575 Y139.695 E3.56211
G1 X184.378 Y139.820 E3.56925
G1 X184.057 Y139.902 E3.57940
G1 X183.721 Y139.860 E3.58978
G1 X183.424 Y139.697 E3.60015
G1 X183.208 Y139.436 E3.61052
G1 X183.103 Y139.113 E3.62090
G1 X183.124 Y138.775 E3.63127
G1 X183.265 Y138.475 E3.64142
G1 X183.425 Y138.305 E3.64857
G1 X183.622 Y138.180 E3.65571
G1 X183.943 Y138.098 E3.66586
G1 X184.279 Y138.140 E3.67623
G1 X184.576 Y138.303 E3.68661
G1 X184.792 Y138.564 E3.69698
G1 X184.878 Y138.830 E3.70552
G1 X185.209 Y139.018 F5400.000
G1 F4320
G1 X184.876 Y139.225 E3.39265
G1 F4320
G1 X184.735 Y139.525 E3.13019
G1 F4320
G1 X184.575 Y139.695 E2.94552
G1 F4320
G1 X184.378 Y139.820 E2.76086
G1 F4320
G1 X184.057 Y139.902 E2.49840
G1 F4320
G1 X183.721 Y139.860 E2.23018
G1 F4320
G1 X183.424 Y139.697 E1.96196
G1 F4320
G1 X183.298 Y139.544 E1.80552
G1 E1.70552 F3600.00000
G92 E0
G1 X195.103 Y139.113 F5400.000
G1 E2.00000 F3600.00000
G1 F1200
G1 X195.124 Y138.775 E2.01037
G1 X195.265 Y138.475 E2.02053
G1 X195.425 Y138.305 E2.02767
G1 X195.622 Y138.180 E2.03481
G1 X195.943 Y138.098 E2.04496
G1 X196.279 Y138.140 E2.05534
G1 X196.576 Y138.303 E2.06571
G1 X196.792 Y138.564 E2.07608
G1 X196.897 Y138.887 E2.08646
G1 X196.876 Y139.225 E2.09683
G1 X196.735 Y139.525 E2.10698
G1 X196.575 Y139.695 E2.11413
G1 X196.378 Y139.820 E2.12127
G1 X196.057 Y139.902 E2.13142
G1 X195.721 Y139.860 E2.14179
G1 X195.424 Y139.697 E2.15217
G1 X195.208 Y139.436 E2.16254
G1 X195.122 Y139.170 E2.17108
G1 X194.791 Y138.982 F5400.000
G1 F4320
G1 X195.124 Y138.775 E1.85821
G1 F4320
G1 X195.265 Y138.475 E1.59576
G1 F4320
G1 X195.425 Y138.305 E1.41109
G1 F4320
G1 X195.622 Y138.180 E1.22642
G1 F4320
G1 X195.943 Y138.098 E0.96396
G1 F4320
G1 X196.279 Y138.140 E0.69574
G1 F4320
G1 X196.576 Y138.303 E0.42752
G1 F4320
G1 X196.702 Y138.456 E0.27108
G1 E0.17108 F3600.00000
G92 E0
G1 X195.943 Y150.098 F5400.000
G1 E2.00000 F3600.00000
G1 F1200
G1 X196.279 Y150.140 E2.01037
G1 X196.576 Y150.303 E2.02075
G1 X196.792 Y150.564 E2.03112
G1 X196.897 Y150.887 E2.04150
G1 X196.876 Y151.225 E2.05187
G1 X196.735 Y151.525 E2.06202
G1 X196.575 Y151.695 E2.06916
G1 X196.378 Y151.820 E2.07631
G1 X196.057 Y151.902 E2.08646
G1 X195.721 Y151.860 E2.09683
G1 X195.424 Y151.697 E2.10721
G1 X195.208 Y151.436 E2.11758
G1 X195.103 Y151.113 E2.12796
G1 X195.124 Y150.775 E2.13833
G1 X195.265 Y150.475 E2.14848
G1 X195.425 Y150.305 E2.15562
G1 X195.622 Y150.180 E2.16277
G1 X195.885 Y150.113 E2.17108
G1 X196.100 Y149.797 F5400.000
G1 F4320
G1 X196.279 Y150.140 E1.85821
G1 F4320
G1 X196.576 Y150.303 E1.58999
G1 F4320
G1 X196.792 Y150.564 E1.32176
G1 F4320
G1 X196.897 Y150.887 E1.05354
G1 F4320
G1 X196.876 Y151.225 E0.78532
G1 F4320
G1 X196.735 Y151.525 E0.52288
G1 F4320
G1 X196.575 Y151.695 E0.33820
G1 F4320
G1 X196.503 Y151.740 E0.27108
G1 E0.17108 F3600.00000
G92 E0
G1 X185.815 Y150.632 F5400.000
G1 E2.00000 F3600.00000
G1 F1200
G1 X185.815 Y151.368 E2.02253
G1 X185.250 Y151.368 E2.03984
G1 X185.302 Y151.164 E2.04627
G1 X185.302 Y150.815 E2.05696
G1 X185.242 Y150.632 E2.06286
G1 X185.755 Y150.632 E2.07855
G1 X184.792 Y150.564 F5400.000
G1 F1200
G1 X184.895 Y150.880 E2.08870
G1 X184.895 Y151.113 E2.09585
G1 X184.837 Y151.339 E2.10299
G1 X184.659 Y151.619 E2.11314
G1 X184.385 Y151.818 E2.12351
G1 X184.057 Y151.902 E2.13389
G1 X183.721 Y151.860 E2.14426
G1 X183.424 Y151.697 E2.15464
G1 X183.208 Y151.436 E2.16501
G1 X183.103 Y151.113 E2.17539
G1 X183.124 Y150.775 E2.18576
G1 X183.265 Y150.475 E2.19591
G1 X183.425 Y150.305 E2.20305
G1 X183.622 Y150.180 E2.21020
G1 X183.943 Y150.098 E2.22035
G1 X184.279 Y150.140 E2.23072
G1 X184.576 Y150.303 E2.24110
G1 X184.754 Y150.518 E2.24963
G1 X185.124 Y150.571 F5400.000
G1 X185.142 Y150.149 F5400.000
G1 F1200
G1 X185.213 Y150.225 E2.25283
G1 X185.970 Y150.225 E2.27599
G1 X185.970 Y139.775 E2.59597
G1 X185.213 Y139.775 E2.61914
G1 X184.903 Y140.101 E2.63294
G1 X184.763 Y140.203 E2.63822
G1 X184.607 Y140.289 E2.64370
G1 X184.267 Y140.399 E2.65463
G1 X184.089 Y140.422 E2.66011
G1 X183.733 Y140.399 E2.67103
G1 X183.555 Y140.353 E2.67667
G1 X183.237 Y140.203 E2.68745
G1 X183.092 Y140.098 E2.69293
G1 X182.848 Y139.837 E2.70386
G1 X182.675 Y139.524 E2.71480
G1 X182.588 Y139.183 E2.72558
G1 X182.575 Y139.000 E2.73122
G1 X182.620 Y138.646 E2.74214
G1 X182.750 Y138.318 E2.75293
G1 X182.962 Y138.025 E2.76401
G1 X183.237 Y137.797 E2.77494
G1 X183.560 Y137.645 E2.78588
G1 X183.733 Y137.601 E2.79135
G1 X184.089 Y137.578 E2.80229
G1 X184.440 Y137.645 E2.81322
G1 X184.763 Y137.797 E2.82416
G1 X184.903 Y137.899 E2.82944
G1 X185.213 Y138.225 E2.84323
G1 X185.970 Y138.225 E2.86640
G1 X185.970 Y136.725 E2.91233
G1 X194.442 Y136.725 E3.17174
G1 X194.442 Y138.653 E3.23077
G1 X194.962 Y138.025 E3.25574
G1 X195.092 Y137.902 E3.26122
G1 X195.393 Y137.711 E3.27215
G1 X195.733 Y137.601 E3.28309
G1 X196.089 Y137.578 E3.29402
G1 X196.440 Y137.645 E3.30495
G1 X196.763 Y137.797 E3.31589
G1 X197.038 Y138.025 E3.32682
G1 X197.246 Y138.310 E3.33761
G1 X197.325 Y138.476 E3.34324
G1 X197.413 Y138.821 E3.35417
G1 X197.413 Y139.179 E3.36510
G1 X197.325 Y139.524 E3.37603
G1 X197.152 Y139.838 E3.38698
G1 X196.908 Y140.098 E3.39790
G1 X196.607 Y140.289 E3.40884
G1 X196.440 Y140.355 E3.41431
G1 X196.089 Y140.422 E3.42525
G1 X195.733 Y140.399 E3.43618
G1 X195.393 Y140.289 E3.44712
G1 X195.092 Y140.098 E3.45805
G1 X194.962 Y139.975 E3.46353
G1 X194.442 Y139.347 E3.48849
G1 X194.442 Y150.653 E3.83469
G1 X194.962 Y150.025 E3.85965
G1 X195.092 Y149.902 E3.86513
G1 X195.393 Y149.711 E3.87606
G1 X195.560 Y149.645 E3.88154
G1 X195.911 Y149.578 E3.89248
G1 X196.267 Y149.601 E3.90341
G1 X196.607 Y149.711 E3.91434
G1 X196.908 Y149.902 E3.92528
G1 X197.149 Y150.159 E3.93606
G1 X197.325 Y150.476 E3.94714
G1 X197.413 Y150.821 E3.95808
G1 X197.414 Y151.174 E3.96886
G1 X197.380 Y151.355 E3.97450
G1 X197.250 Y151.682 E3.98527
G1 X197.038 Y151.975 E3.99635
G1 X196.763 Y152.203 E4.00729
G1 X196.440 Y152.355 E4.01822
G1 X196.089 Y152.422 E4.02916
G1 X195.733 Y152.399 E4.04009
G1 X195.393 Y152.289 E4.05102
G1 X195.092 Y152.098 E4.06196
G1 X194.962 Y151.975 E4.06744
G1 X194.442 Y151.347 E4.09240
G1 X194.442 Y153.275 E4.15144
G1 X185.970 Y153.275 E4.41084
G1 X185.970 Y151.775 E4.45677
G1 X185.213 Y151.775 E4.47994
G1 X184.903 Y152.101 E4.49374
G1 X184.607 Y152.289 E4.50448
G1 X184.267 Y152.399 E4.51541
G1 X183.911 Y152.422 E4.52634
G1 X183.560 Y152.355 E4.53728
G1 X183.393 Y152.289 E4.54276
G1 X183.092 Y152.098 E4.55369
G1 X182.962 Y151.975 E4.55917
G1 X182.752 Y151.686 E4.57010
G1 X182.620 Y151.354 E4.58103
G1 X182.587 Y151.179 E4.58651
G1 X182.587 Y150.821 E4.59745
G1 X182.675 Y150.476 E4.60838
G1 X182.848 Y150.163 E4.61931
G1 X182.962 Y150.025 E4.62479
G1 X183.092 Y149.902 E4.63027
G1 X183.393 Y149.711 E4.64120
G1 X183.560 Y149.645 E4.64668
G1 X183.911 Y149.578 E4.65762
G1 X184.267 Y149.601 E4.66855
G1 X184.440 Y149.645 E4.67403
G1 X184.763 Y149.797 E4.68496
G1 X184.903 Y149.899 E4.69024
G1 X185.100 Y150.106 E4.69901
G1 X185.114 Y150.250 F5400.000
G1 X185.032 Y150.429 F5400.000
G1 F1200
G1 X184.735 Y150.096 E4.70151
G1 X184.360 Y149.891 E4.70391
G1 X183.927 Y149.836 E4.70636
G1 X183.642 Y149.899 E4.70799
G1 X183.504 Y149.947 E4.70881
G1 X183.264 Y150.099 E4.71041
G1 X183.054 Y150.321 E4.71212
G1 X182.871 Y150.710 E4.71454
G1 X182.843 Y151.000 E4.71617
G1 X182.845 Y151.156 E4.71705
G1 X182.984 Y151.570 E4.71950
G1 X183.257 Y151.898 E4.72189
G1 X183.640 Y152.109 E4.72434
G1 X184.073 Y152.164 E4.72679
G1 X184.487 Y152.059 E4.72919
G1 X184.726 Y151.900 E4.73080
G1 X184.852 Y151.787 E4.73175
G1 X184.969 Y151.637 E4.73282
G1 X185.558 Y151.164 F5400.000
G1 F1200
G1 X185.558 Y150.836 E4.73404
G1 F4320
G1 X185.558 Y151.164 E4.47377
G1 E2.73404 F3600.00000
G92 E0
G1 X194.570 Y151.182 F5400.000
G1 E2.00000 F3600.00000
G1 F1200
G1 X194.826 Y150.678 E2.00783
G1 F1200
G1 X194.971 Y150.449 E2.01045
G1 F1200
G1 X195.054 Y150.321 E2.01106
G1 X195.258 Y150.103 E2.01226
G1 X195.510 Y149.944 E2.01345
G1 X195.927 Y149.836 E2.01518
G1 X196.217 Y149.863 E2.01635
G1 X196.370 Y149.895 E2.01697
G1 X196.751 Y150.109 E2.01872
G1 X197.022 Y150.439 E2.02044
G1 X197.157 Y150.854 E2.02219
G1 X197.129 Y151.291 E2.02394
G1 X196.955 Y151.664 E2.02560
G1 X196.742 Y151.897 E2.02686
G1 X196.496 Y152.053 E2.02803
G1 X196.073 Y152.164 E2.02978
G1 X195.783 Y152.137 E2.03095
G1 X195.630 Y152.105 E2.03158
G1 X195.249 Y151.891 E2.03333
G1 F1200
G1 X194.977 Y151.576 E2.03700
G1 X194.913 Y151.463 E2.03815
G1 F1200
G1 X194.811 Y151.277 E2.04133
G1 F1200
G1 X194.591 Y150.792 E2.05238
G1 F4320
G1 X194.811 Y151.277 E1.63092
G1 E0.05238 F3600.00000
G92 E0
G1 X195.249 Y139.891 F5400.000
G1 E2.00000 F3600.00000
G1 F1200
G1 X195.630 Y140.105 E2.00175
G1 X195.783 Y140.137 E2.00238
G1 X196.073 Y140.164 E2.00355
G1 X196.496 Y140.053 E2.00530
G1 X196.742 Y139.897 E2.00647
G1 X196.955 Y139.664 E2.00773
G1 X197.129 Y139.290 E2.00939
G1 X197.157 Y138.854 E2.01114
G1 X197.019 Y138.435 E2.01291
G1 X196.751 Y138.109 E2.01460
G1 X196.370 Y137.895 E2.01636
G1 X196.217 Y137.863 E2.01698
G1 X195.927 Y137.836 E2.01815
G1 X195.510 Y137.944 E2.01988
G1 X195.258 Y138.103 E2.02107
G1 X195.054 Y138.321 E2.02227
G1 X194.971 Y138.449 E2.02288
G1 F1200
G1 X194.826 Y138.678 E2.02550
G1 F1200
G1 X194.570 Y139.182 E2.03333
G1 X194.811 Y139.277 F5400.000
G1 F1200
G1 X194.913 Y139.463 E2.03651
G1 F1200
G1 X194.977 Y139.576 E2.03766
G1 X195.249 Y139.891 E2.04133
G1 X194.811 Y139.277 F5400.000
G1 F1200
G1 X194.591 Y138.792 E2.05238
G1 F4320
G1 X194.811 Y139.277 E1.63092
G1 E0.05238 F3600.00000
G92 E0
G1 X185.562 Y138.836 F5400.000
G1 E2.00000 F3600.00000
G1 F1200
G1 X185.551 Y139.164 E2.00149
G1 X184.998 Y139.606 F5400.000
G1 F1200
G1 X184.736 Y139.900 E2.00370
G1 X184.474 Y140.063 E2.00543
G1 X184.073 Y140.164 E2.00775
G1 X183.636 Y140.107 E2.01022
G1 X183.257 Y139.898 E2.01265
G1 X182.984 Y139.570 E2.01504
G1 X182.845 Y139.156 E2.01749
G1 X182.843 Y138.999 E2.01837
G1 X182.871 Y138.710 E2.02001
G1 X183.054 Y138.321 E2.02242
G1 X183.264 Y138.099 E2.02413
G1 X183.504 Y137.947 E2.02573
G1 X183.642 Y137.899 E2.02655
G1 X183.927 Y137.836 E2.02818
G1 X184.360 Y137.891 E2.03063
G1 X184.735 Y138.096 E2.03303
G1 X185.032 Y138.429 E2.03553
M106 S255
G1 F4320
G1 X184.735 Y138.096 E1.68224
G1 F4320
G1 X184.360 Y137.891 E1.34444
G1 F4320
G1 X183.927 Y137.836 E0.99854
G1 F4320
G1 X183.642 Y137.899 E0.76793
G1 F4320
G1 X183.504 Y137.947 E0.65243
G1 F4320
G1 X183.264 Y138.099 E0.42711
G1 F4320
G1 X183.054 Y138.321 E0.18538
G1 F4320
G1 X183.027 Y138.378 E0.13553
G1 E0.03553 F3600.00000
G92 E0
G1 Z0.400 F5400.000
M104 S185 ; set temperature
G1 X194.176 Y137.075 F5400.000
G1 E2.00000 F3600.00000
G1 F720
G1 X194.176 Y138.974 E2.05815
G1 X194.155 Y139.000 E2.05918
G1 X194.176 Y139.026 E2.06020
G1 X194.176 Y150.974 E2.42606
G1 X194.155 Y151.000 E2.42709
G1 X194.176 Y151.026 E2.42811
G1 X194.176 Y152.925 E2.48626
G1 X186.208 Y152.925 E2.73025
G1 X186.208 Y137.075 E3.21558
G1 X194.116 Y137.075 E3.45773
G1 X194.549 Y136.931 F5400.000
G1 F4320
G1 X194.176 Y138.974 E1.95341
G1 F4320
G1 X194.155 Y139.000 E1.92695
G1 F4320
G1 X194.176 Y139.026 E1.90049
G1 F4320
G1 X194.176 Y139.459 E1.55773
G1 E1.45773 F3600.00000
G92 E0
G1 X185.801 Y138.632 F5400.000
G1 E2.00000 F3600.00000
G1 F720
G1 X185.801 Y139.368 E2.02253
G1 X185.250 Y139.368 E2.03941
G1 X185.302 Y139.165 E2.04583
G1 X185.302 Y138.820 E2.05637
G1 X185.242 Y138.632 E2.06243
G1 X185.741 Y138.632 E2.07772
G1 X184.792 Y138.565 F5400.000
G1 F720
G1 X184.895 Y138.884 E2.08798
G1 X184.895 Y139.113 E2.09500
G1 X184.837 Y139.339 E2.10214
G1 X184.659 Y139.619 E2.11229
G1 X184.385 Y139.818 E2.12266
G1 X184.057 Y139.902 E2.13304
G1 X183.721 Y139.860 E2.14341
G1 X183.424 Y139.697 E2.15378
G1 X183.208 Y139.435 E2.16417
G1 X183.105 Y139.116 E2.17443
G1 X183.105 Y138.887 E2.18145
G1 X183.163 Y138.661 E2.18859
G1 X183.341 Y138.381 E2.19874
G1 X183.615 Y138.182 E2.20912
G1 X183.943 Y138.098 E2.21949
G1 X184.279 Y138.140 E2.22987
G1 X184.576 Y138.303 E2.24024
G1 X184.754 Y138.519 E2.24879
G1 X185.128 Y138.573 F5400.000
G1 F4320
G1 X184.895 Y138.884 E1.93882
G1 F4320
G1 X184.895 Y139.113 E1.75734
G1 F4320
G1 X184.837 Y139.339 E1.57280
G1 F4320
G1 X184.659 Y139.619 E1.31034
G1 F4320
G1 X184.385 Y139.818 E1.04212
G1 F4320
G1 X184.057 Y139.902 E0.77390
G1 F4320
G1 X183.721 Y139.860 E0.50568
G1 F4320
G1 X183.547 Y139.764 E0.34879
G1 E0.24879 F3600.00000
G92 E0
G1 X195.208 Y139.435 F5400.000
G1 E2.00000 F3600.00000
G1 F720
G1 X195.105 Y139.116 E2.01026
G1 X195.105 Y138.887 E2.01728
G1 X195.163 Y138.661 E2.02442
G1 X195.341 Y138.381 E2.03457
G1 X195.615 Y138.182 E2.04495
G1 X195.943 Y138.098 E2.05532
G1 X196.279 Y138.140 E2.06569
G1 X196.576 Y138.303 E2.07607
G1 X196.792 Y138.565 E2.08646
G1 X196.895 Y138.884 E2.09672
G1 X196.895 Y139.113 E2.10374
