; generated by Slic3r 1.36.2-prusa3d-win64 on 2018-01-01 at 16:38:51

; 

; external perimeters extrusion width = 0.45mm
; perimeters extrusion width = 0.45mm
; infill extrusion width = 0.45mm
; solid infill extrusion width = 0.45mm
; top infill extrusion width = 0.40mm

M107
M80 ; turn on PSU
M140 S50
M104 S200 ; start E heating
M17; enable motors
G28 X Y ; Z ; Home
M190 S50
M109 S200
G91
G1 E5 F200
G90
; Filament gcode

G21 ; set units to millimeters
G90 ; use absolute coordinates
M82 ; use absolute distances for extrusion
G92 E0
G1 E-2.00000 F3600.00000
G92 E0
G1 Z0.200 F5400.000
G1 X179.044 Y134.973 F5400.000
G1 E2.00000 F3600.00000
G1 F1200
G1 X179.792 Y134.177 E2.03343
G1 X180.540 Y133.601 E2.06235
G1 X184.318 Y131.649 E2.19255
G1 X185.220 Y131.377 E2.22139
G1 X186.157 Y131.286 E2.25022
G1 X195.975 Y132.294 E2.55242
G1 X196.694 Y132.450 E2.57497
G1 X198.116 Y132.935 E2.62096
G1 X199.434 Y133.584 E2.66597
G1 X200.593 Y134.549 E2.71213
G1 X201.491 Y135.766 E2.75844
G1 X202.058 Y137.106 E2.80297
G1 X202.248 Y137.970 E2.83008
G1 X202.313 Y138.792 E2.85531
G1 X202.314 Y150.921 E3.22670
G1 X202.227 Y151.917 E3.25732
G1 X201.931 Y153.047 E3.29310
G1 X201.558 Y153.878 E3.32099
G1 X201.084 Y154.627 E3.34813
G1 X200.518 Y155.293 E3.37489
G1 X199.796 Y155.926 E3.40428
G1 X198.741 Y156.571 E3.44213
G1 X194.442 Y158.523 E3.58671
G1 X193.551 Y158.704 E3.61455
G1 X192.642 Y158.715 E3.64239
G1 X184.306 Y157.840 E3.89903
G1 X183.263 Y157.596 E3.93183
G1 X180.783 Y156.315 E4.01732
G1 X179.771 Y155.569 E4.05581
G1 X179.199 Y154.981 E4.08092
G1 X178.612 Y154.171 E4.11156
G1 X178.204 Y153.385 E4.13868
G1 X177.942 Y152.660 E4.16226
G1 X177.752 Y151.795 E4.18938
G1 X177.687 Y150.979 E4.21446
G1 X177.686 Y138.834 E4.58632
G1 X177.782 Y137.796 E4.61825
G1 X178.111 Y136.606 E4.65604
G1 X178.505 Y135.772 E4.68428
G1 X179.011 Y135.022 E4.71198
G1 X179.347 Y135.247 F5400.000
G1 F1200
G1 X180.057 Y134.486 E4.74385
G1 X180.759 Y133.944 E4.77100
G1 X184.455 Y132.033 E4.89839
G1 X185.292 Y131.778 E4.92518
G1 X186.157 Y131.693 E4.95182
G1 X195.910 Y132.696 E5.25202
G1 X196.578 Y132.841 E5.27296
G1 X197.941 Y133.304 E5.31703
G1 X199.194 Y133.914 E5.35970
G1 X200.283 Y134.815 E5.40299
G1 X201.132 Y135.958 E5.44659
G1 X201.662 Y137.203 E5.48800
G1 X201.845 Y138.029 E5.51392
G1 X201.906 Y138.803 E5.53769
G1 X201.907 Y150.914 E5.90852
G1 X201.828 Y151.837 E5.93689
G1 X201.556 Y152.887 E5.97011
G1 X201.207 Y153.672 E5.99642
G1 X200.760 Y154.380 E6.02204
G1 X200.226 Y155.008 E6.04729
G1 X199.546 Y155.604 E6.07496
G1 X198.564 Y156.204 E6.11022
G1 X194.346 Y158.126 E6.25214
G1 X193.520 Y158.298 E6.27798
G1 X192.676 Y158.309 E6.30383
G1 X184.362 Y157.436 E6.55981
G1 X183.429 Y157.222 E6.58913
G1 X181.001 Y155.971 E6.67276
G1 X180.068 Y155.289 E6.70813
G1 X179.523 Y154.734 E6.73195
G1 X178.967 Y153.971 E6.76086
G1 X178.580 Y153.229 E6.78648
G1 X178.338 Y152.563 E6.80819
G1 X178.155 Y151.736 E6.83411
G1 X178.094 Y150.967 E6.85773
G1 X178.093 Y138.847 E7.22886
G1 X178.179 Y137.888 E7.25833
G1 X178.476 Y136.790 E7.29315
G1 X178.846 Y135.996 E7.31998
G1 X179.313 Y135.297 E7.34573
G1 F4320
G1 X180.057 Y134.486 E6.47480
G1 F4320
G1 X180.759 Y133.944 E5.77275
G1 F4320
G1 X181.126 Y133.755 E5.44573
G1 E5.34573 F3600.00000
G92 E0
G1 X186.566 Y136.721 F5400.000
G1 E2.00000 F3600.00000
G1 F1200
G1 X194.782 Y137.585 E2.25294
G1 X194.526 Y140.021 E2.32796
G1 X194.028 Y139.969 E2.34329
G1 X192.627 Y153.296 E2.75360
G1 X185.408 Y152.537 E2.97588
G1 X186.808 Y139.210 E3.38618
G1 X186.310 Y139.158 E3.40152
G1 X186.560 Y136.781 E3.47470
G1 X186.581 Y136.322 F5400.000
G1 X185.969 Y138.515 F5400.000
G1 F1200
G1 X185.891 Y139.251 E3.49735
G1 X185.298 Y139.251 E3.51551
G1 X185.368 Y138.883 E3.52698
G1 X185.298 Y138.515 E3.53845
G1 X185.909 Y138.515 E3.55714
G1 X184.920 Y138.703 F5400.000
G1 F1200
G1 X184.954 Y138.883 E3.56273
G1 X184.887 Y139.234 E3.57367
G1 X184.695 Y139.536 E3.58462
G1 X184.406 Y139.746 E3.59557
G1 X184.060 Y139.835 E3.60652
G1 X183.712 Y139.791 E3.61724
G1 X183.490 Y139.686 E3.62477
G1 X183.301 Y139.530 E3.63230
G1 X183.113 Y139.234 E3.64302
G1 X183.046 Y138.883 E3.65397
G1 X183.113 Y138.532 E3.66492
G1 X183.305 Y138.230 E3.67586
G1 X183.594 Y138.020 E3.68681
G1 X183.940 Y137.931 E3.69776
G1 X184.288 Y137.974 E3.70849
G1 X184.510 Y138.079 E3.71601
G1 X184.699 Y138.236 E3.72354
G1 X184.887 Y138.532 E3.73426
G1 X184.909 Y138.645 E3.73778
G1 X185.097 Y138.749 F5400.000
G1 F4320
G1 X184.954 Y138.883 E3.54578
G1 F4320
G1 X184.887 Y139.234 E3.26272
G1 F4320
G1 X184.695 Y139.536 E2.97966
G1 F4320
G1 X184.406 Y139.746 E2.69661
G1 F4320
G1 X184.060 Y139.835 E2.41355
G1 F4320
G1 X183.712 Y139.791 E2.13627
G1 F4320
G1 X183.490 Y139.686 E1.94168
G1 F4320
G1 X183.389 Y139.603 E1.83778
G1 E1.73778 F3600.00000
G92 E0
G1 X193.660 Y150.883 F5400.000
G1 X194.273 Y150.883 F5400.000
G1 X195.046 Y138.883 F5400.000
G1 E2.00000 F3600.00000
G1 F1200
G1 X195.113 Y138.532 E2.01095
G1 X195.305 Y138.230 E2.02190
G1 X195.594 Y138.020 E2.03284
G1 X195.940 Y137.931 E2.04379
G1 X196.288 Y137.974 E2.05452
G1 X196.510 Y138.079 E2.06204
G1 X196.699 Y138.236 E2.06957
G1 X196.887 Y138.532 E2.08029
G1 X196.954 Y138.883 E2.09124
G1 X196.887 Y139.234 E2.10219
G1 X196.695 Y139.536 E2.11314
G1 X196.406 Y139.746 E2.12409
G1 X196.060 Y139.835 E2.13503
G1 X195.712 Y139.791 E2.14576
G1 X195.490 Y139.686 E2.15329
G1 X195.301 Y139.530 E2.16081
G1 X195.113 Y139.234 E2.17154
G1 X195.057 Y138.942 E2.18065
G1 X194.736 Y138.704 F5400.000
G1 F4320
G1 X195.113 Y138.532 E1.85296
G1 F4320
G1 X195.305 Y138.230 E1.56990
G1 F4320
G1 X195.594 Y138.020 E1.28684
G1 F4320
G1 X195.940 Y137.931 E1.00379
G1 F4320
G1 X196.288 Y137.974 E0.72649
G1 F4320
G1 X196.510 Y138.079 E0.53191
G1 F4320
G1 X196.699 Y138.236 E0.33733
G1 F4320
G1 X196.738 Y138.296 E0.28065
G1 E0.18065 F3600.00000
G92 E0
G1 X194.273 Y150.883 F5400.000
G1 X195.940 Y149.931 F5400.000
G1 E2.00000 F3600.00000
G1 F1200
G1 X196.288 Y149.974 E2.01073
G1 X196.510 Y150.079 E2.01825
G1 X196.699 Y150.236 E2.02578
G1 X196.887 Y150.532 E2.03650
G1 X196.954 Y150.883 E2.04745
G1 X196.887 Y151.234 E2.05840
G1 X196.695 Y151.536 E2.06935
G1 X196.406 Y151.746 E2.08029
G1 X196.060 Y151.835 E2.09124
G1 X195.712 Y151.791 E2.10197
G1 X195.490 Y151.686 E2.10949
G1 X195.301 Y151.530 E2.11702
G1 X195.113 Y151.234 E2.12774
G1 X195.046 Y150.883 E2.13869
G1 X195.113 Y150.532 E2.14964
G1 X195.305 Y150.230 E2.16059
G1 X195.594 Y150.020 E2.17154
G1 X195.882 Y149.946 E2.18065
G1 X196.096 Y149.617 F5400.000
G1 X194.702 Y150.515 F5400.000
G1 F1200
G1 X194.632 Y150.883 E2.19212
G1 X194.702 Y151.251 E2.20359
G1 X193.251 Y151.251 E2.24799
G1 X193.329 Y150.515 E2.27065
G1 X194.642 Y150.515 E2.31085
G1 F4320
G1 X194.632 Y150.883 E2.01946
G1 F4320
G1 X194.702 Y151.251 E1.72294
G1 F4320
G1 X193.251 Y151.251 E0.57483
G1 F4320
G1 X193.273 Y151.045 E0.41085
G1 E0.31085 F3600.00000
G92 E0
G1 X194.273 Y150.883 F5400.000
G1 X184.954 Y150.883 F5400.000
G1 E2.00000 F3600.00000
G1 F1200
G1 X184.887 Y151.234 E2.01095
G1 X184.695 Y151.536 E2.02190
G1 X184.406 Y151.746 E2.03284
G1 X184.060 Y151.835 E2.04379
G1 X183.712 Y151.791 E2.05452
G1 X183.490 Y151.686 E2.06204
G1 X183.301 Y151.530 E2.06957
G1 X183.113 Y151.234 E2.08029
G1 X183.046 Y150.883 E2.09124
G1 X183.113 Y150.532 E2.10219
G1 X183.305 Y150.230 E2.11314
G1 X183.594 Y150.020 E2.12409
G1 X183.940 Y149.931 E2.13503
G1 X184.288 Y149.974 E2.14576
G1 X184.510 Y150.079 E2.15329
G1 X184.699 Y150.236 E2.16081
G1 X184.887 Y150.532 E2.17154
G1 X184.943 Y150.824 E2.18065
G1 X185.264 Y151.062 F5400.000
G1 X185.334 Y150.453 F5400.000
G1 F1200
G1 X185.370 Y150.491 E2.18226
G1 X186.470 Y140.029 E2.50436
G1 X185.972 Y139.977 E2.51969
G1 X186.006 Y139.658 E2.52952
G1 X185.024 Y139.658 E2.55958
G1 X184.811 Y139.866 E2.56871
G1 X184.689 Y139.955 E2.57332
G1 X184.387 Y140.097 E2.58354
G1 X184.239 Y140.135 E2.58822
G1 X184.087 Y140.154 E2.59290
G1 X183.761 Y140.133 E2.60289
G1 X183.458 Y140.035 E2.61267
G1 X183.188 Y139.864 E2.62244
G1 X182.968 Y139.629 E2.63230
G1 X182.887 Y139.502 E2.63691
G1 X182.765 Y139.197 E2.64697
G1 X182.726 Y138.890 E2.65645
G1 X182.767 Y138.566 E2.66644
G1 X182.887 Y138.263 E2.67643
G1 X182.965 Y138.140 E2.68090
G1 X183.188 Y137.902 E2.69089
G1 X183.458 Y137.731 E2.70066
G1 X183.761 Y137.632 E2.71044
G1 X184.080 Y137.612 E2.72021
G1 X184.393 Y137.672 E2.72998
G1 X184.689 Y137.811 E2.73997
G1 X184.811 Y137.899 E2.74459
G1 X185.024 Y138.108 E2.75372
G1 X186.168 Y138.108 E2.78876
G1 X186.353 Y136.347 E2.84297
G1 X195.068 Y137.263 E3.11128
G1 X194.996 Y137.947 E3.13235
G1 X195.611 Y137.669 E3.15302
G1 X195.913 Y137.612 E3.16242
G1 X196.239 Y137.632 E3.17241
G1 X196.549 Y137.733 E3.18240
G1 X196.807 Y137.897 E3.19175
G1 X197.030 Y138.134 E3.20174
G1 X197.184 Y138.414 E3.21152
G1 X197.264 Y138.726 E3.22138
G1 X197.275 Y138.883 E3.22620
G1 X197.265 Y139.035 E3.23087
G1 X197.182 Y139.358 E3.24108
G1 X197.120 Y139.490 E3.24555
G1 X196.924 Y139.760 E3.25576
G1 X196.818 Y139.860 E3.26022
G1 X196.536 Y140.039 E3.27044
G1 X196.400 Y140.092 E3.27490
G1 X196.073 Y140.155 E3.28511
G1 X195.927 Y140.155 E3.28958
G1 X195.607 Y140.094 E3.29957
G1 X195.311 Y139.955 E3.30956
G1 X194.823 Y139.600 E3.32806
G1 X194.687 Y140.893 E3.36788
G1 X194.189 Y140.841 E3.38321
G1 X193.215 Y150.108 E3.66853
G1 X194.976 Y150.108 E3.72247
G1 X195.184 Y149.904 E3.73138
G1 X195.464 Y149.727 E3.74152
G1 X195.600 Y149.673 E3.74599
G1 X195.927 Y149.611 E3.75620
G1 X196.073 Y149.611 E3.76066
G1 X196.393 Y149.672 E3.77066
G1 X196.682 Y149.808 E3.78043
G1 X196.928 Y150.011 E3.79020
G1 X197.116 Y150.269 E3.79997
G1 X197.233 Y150.566 E3.80974
G1 X197.273 Y150.883 E3.81952
G1 X197.233 Y151.199 E3.82929
G1 X197.116 Y151.496 E3.83906
G1 X196.928 Y151.754 E3.84883
G1 X196.677 Y151.962 E3.85883
G1 X196.549 Y152.033 E3.86329
G1 X196.239 Y152.133 E3.87328
G1 X195.913 Y152.154 E3.88327
G1 X195.768 Y152.136 E3.88774
G1 X195.458 Y152.035 E3.89773
G1 X195.184 Y151.861 E3.90765
G1 X194.976 Y151.658 E3.91657
G1 X193.052 Y151.658 E3.97549
G1 X192.840 Y153.670 E4.03744
G1 X185.121 Y152.859 E4.27509
G1 X185.260 Y151.540 E4.31571
G1 X184.689 Y151.955 E4.33734
G1 X184.387 Y152.097 E4.34755
G1 X184.246 Y152.133 E4.35201
G1 X183.913 Y152.154 E4.36222
G1 X183.768 Y152.136 E4.36669
G1 X183.458 Y152.035 E4.37668
G1 X183.188 Y151.864 E4.38645
G1 X182.965 Y151.626 E4.39644
G1 X182.887 Y151.503 E4.40091
G1 X182.767 Y151.199 E4.41090
G1 X182.726 Y150.880 E4.42076
G1 X182.736 Y150.723 E4.42558
G1 X182.764 Y150.573 E4.43026
G1 X182.887 Y150.263 E4.44047
G1 X182.965 Y150.140 E4.44493
G1 X183.188 Y149.902 E4.45492
G1 X183.464 Y149.727 E4.46492
G1 X183.600 Y149.673 E4.46938
G1 X183.927 Y149.611 E4.47959
G1 X184.073 Y149.611 E4.48406
G1 X184.400 Y149.673 E4.49427
G1 X184.536 Y149.727 E4.49873
G1 X184.812 Y149.902 E4.50874
G1 X185.293 Y150.409 E4.53015
G1 X185.320 Y150.504 F5400.000
G1 X185.261 Y150.672 F5400.000
G1 F1200
G1 X185.267 Y150.903 E4.53316
G1 X185.204 Y151.329 E4.53876
G1 X185.032 Y151.427 F5400.000
G1 F1200
G1 X185.363 Y151.018 E4.54056
G1 F4320
G1 X185.032 Y151.427 E4.12416
G1 E2.54056 F3600.00000
G92 E0
G1 X193.660 Y150.883 F5400.000
G1 X193.495 Y150.883 F5400.000
G1 E2.00000 F3600.00000
G1 F1200
G1 X194.260 Y150.883 E2.01618
G1 F4320
G1 X193.495 Y150.883 E1.41044
G1 E0.01618 F3600.00000
G92 E0
G1 X194.968 Y139.427 F5400.000
G1 E2.00000 F3600.00000
G1 F1200
G1 X194.862 Y139.307 E2.00041
G1 X194.853 Y139.079 E2.00100
M106 S255
G1 F4320
G1 X194.862 Y139.307 E1.82026
G1 F4320
G1 X194.968 Y139.427 E1.69376
G1 E0.00100 F3600.00000
G92 E0
G1 Z0.400 F5400.000
M104 S185 ; set temperature
G1 X194.771 Y137.584 F5400.000
G1 E2.00000 F3600.00000
G1 F720
G1 X194.515 Y140.020 E2.07502
G1 X194.017 Y139.968 E2.09035
G1 X192.617 Y153.295 E2.50066
G1 X185.397 Y152.536 E2.72294
G1 X186.798 Y139.209 E3.13324
G1 X186.300 Y139.157 E3.14857
G1 X186.556 Y136.720 E3.22359
G1 X194.712 Y137.578 E3.47470
G1 X195.171 Y137.587 F5400.000
G1 F4320
G1 X194.519 Y139.970 E1.57470
G1 E1.47470 F3600.00000
G92 E0
G1 X194.273 Y150.883 F5400.000
G1 X193.650 Y150.883 F5400.000
G1 X185.958 Y138.515 F5400.000
G1 E2.00000 F3600.00000
G1 F720
G1 X185.881 Y139.251 E2.02266
G1 X185.298 Y139.251 E2.04049
G1 X185.368 Y138.883 E2.05196
G1 X185.298 Y138.515 E2.06343
G1 X185.898 Y138.515 E2.08179
G1 X184.919 Y138.702 F5400.000
G1 F720
G1 X184.954 Y138.883 E2.08744
G1 X184.887 Y139.234 E2.09839
G1 X184.695 Y139.536 E2.10934
G1 X184.406 Y139.746 E2.12029
G1 X184.060 Y139.835 E2.13124
G1 X183.712 Y139.791 E2.14196
G1 X183.490 Y139.686 E2.14949
G1 X183.301 Y139.530 E2.15701
G1 X183.113 Y139.234 E2.16774
G1 X183.046 Y138.883 E2.17869
G1 X183.113 Y138.532 E2.18963
G1 X183.305 Y138.230 E2.20058
G1 X183.594 Y138.020 E2.21153
G1 X183.940 Y137.931 E2.22248
G1 X184.288 Y137.974 E2.23320
G1 X184.510 Y138.079 E2.24073
G1 X184.699 Y138.236 E2.24826
G1 X184.887 Y138.532 E2.25898
G1 X184.908 Y138.643 E2.26244
G1 X185.098 Y138.747 F5400.000
G1 F4320
G1 X184.954 Y138.883 E2.06887
G1 F4320
G1 X184.887 Y139.234 E1.78581
G1 F4320
G1 X184.695 Y139.536 E1.50275
G1 F4320
G1 X184.406 Y139.746 E1.21970
G1 F4320
G1 X184.060 Y139.835 E0.93664
G1 F4320
G1 X183.712 Y139.791 E0.65935
G1 F4320
G1 X183.490 Y139.686 E0.46477
G1 F4320
G1 X183.390 Y139.604 E0.36244
G1 E0.26244 F3600.00000
G92 E0
G1 X193.650 Y150.883 F5400.000
G1 X183.940 Y149.931 F5400.000
G1 E2.00000 F3600.00000
G1 F720
G1 X184.288 Y149.974 E2.01072
G1 X184.510 Y150.079 E2.01825
G1 X184.699 Y150.236 E2.02578
G1 X184.887 Y150.532 E2.03650
G1 X184.954 Y150.883 E2.04745
G1 X184.887 Y151.234 E2.05840
G1 X184.695 Y151.536 E2.06935
G1 X184.406 Y151.746 E2.08029
G1 X184.060 Y151.835 E2.09124
G1 X183.712 Y151.791 E2.10197
G1 X183.490 Y151.686 E2.10949
G1 X183.301 Y151.530 E2.11702
G1 X183.113 Y151.234 E2.12774
G1 X183.046 Y150.883 E2.13869
G1 X183.113 Y150.532 E2.14964
G1 X183.305 Y150.230 E2.16059
G1 X183.594 Y150.020 E2.17154
G1 X183.882 Y149.946 E2.18065
G1 X184.096 Y149.617 F5400.000
G1 F4320
G1 X184.288 Y149.974 E1.85872
G1 F4320
G1 X184.510 Y150.079 E1.66413
G1 F4320
G1 X184.699 Y150.236 E1.46955
G1 F4320
G1 X184.887 Y150.532 E1.19225
G1 F4320
G1 X184.954 Y150.883 E0.90920
G1 F4320
G1 X184.887 Y151.234 E0.62614
G1 F4320
G1 X184.695 Y151.536 E0.34308
G1 F4320
G1 X184.632 Y151.582 E0.28065
G1 E0.18065 F3600.00000
G92 E0
G1 X193.650 Y150.883 F5400.000
G1 X193.241 Y151.251 F5400.000
G1 E2.00000 F3600.00000
G1 F720
G1 X193.318 Y150.515 E2.02266
G1 X194.702 Y150.515 E2.06502
G1 X194.632 Y150.883 E2.07649
G1 X194.702 Y151.251 E2.08795
G1 X193.301 Y151.251 E2.13085
G1 X195.046 Y150.883 F5400.000
G1 F720
G1 X195.113 Y150.532 E2.14179
G1 X195.305 Y150.230 E2.15274
G1 X195.594 Y150.020 E2.16369
G1 X195.940 Y149.931 E2.17464
G1 X196.288 Y149.974 E2.18536
G1 X196.510 Y150.079 E2.19289
G1 X196.699 Y150.236 E2.20042
G1 X196.887 Y150.532 E2.21114
G1 X196.954 Y150.883 E2.22209
G1 X196.887 Y151.234 E2.23304
G1 X196.695 Y151.536 E2.24398
G1 X196.406 Y151.746 E2.25493
G1 X196.060 Y151.835 E2.26588
G1 X195.712 Y151.791 E2.27661
G1 X195.490 Y151.686 E2.28413
G1 X195.301 Y151.530 E2.29166
G1 X195.113 Y151.234 E2.30238
G1 X195.057 Y150.942 E2.31149
G1 X194.736 Y150.704 F5400.000
G1 F4320
G1 X195.113 Y150.532 E1.98381
G1 F4320
G1 X195.305 Y150.230 E1.70074
G1 F4320
G1 X195.594 Y150.020 E1.41769
G1 F4320
G1 X195.940 Y149.931 E1.13463
G1 F4320
G1 X196.288 Y149.974 E0.85734
G1 F4320
G1 X196.510 Y150.079 E0.66276
G1 F4320
G1 X196.699 Y150.236 E0.46818
G1 F4320
G1 X196.738 Y150.296 E0.41149
G1 E0.31149 F3600.00000
G92 E0
G1 X194.273 Y150.883 F5400.000
G1 X196.060 Y139.835 F5400.000
G1 E2.00000 F3600.00000
G1 F720
G1 X195.712 Y139.791 E2.01072
G1 X195.490 Y139.686 E2.01825
G1 X195.301 Y139.530 E2.02578
G1 X195.113 Y139.234 E2.03650
G1 X195.046 Y138.883 E2.04745
G1 X195.113 Y138.532 E2.05840
G1 X195.305 Y138.230 E2.06935
G1 X195.594 Y138.020 E2.08029
G1 X195.940 Y137.931 E2.09124
G1 X196.288 Y137.974 E2.10197
G1 X196.510 Y138.079 E2.10949
G1 X196.699 Y138.236 E2.11702
G1 X196.887 Y138.532 E2.12774
G1 X196.954 Y138.883 E2.13869
G1 X196.887 Y139.234 E2.14964
G1 X196.695 Y139.536 E2.16059
G1 X196.406 Y139.746 E2.17154
