; generated by Slic3r 1.36.2-prusa3d-win64 on 2018-02-13 at 16:59:45

; 

; external perimeters extrusion width = 0.45mm
; perimeters extrusion width = 0.45mm
; infill extrusion width = 0.45mm
; solid infill extrusion width = 0.45mm
; top infill extrusion width = 0.25mm
; support material extrusion width = 0.40mm

M107
M80 ; turn on PSU
M140 S60
M104 S200 ; start E heating
M17; enable motors
G28 X Y ; Z ; Home
M190 S60
M109 S200
G91
G1 E5 F200
G90
; Filament gcode

G21 ; set units to millimeters
G90 ; use absolute coordinates
M82 ; use absolute distances for extrusion
G92 E0
G1 E-2.00000 F3600.00000
G92 E0
G1 Z0.200 F5400.000
G1 X140.503 Y120.475 F5400.000
G1 E2.00000 F3600.00000
G1 F1200
G1 X140.874 Y119.447 E2.03346
G1 X146.425 Y109.920 E2.37106
G1 X147.499 Y108.319 E2.43010
G1 X148.668 Y106.830 E2.48807
G1 X150.207 Y105.153 E2.55778
G1 X151.840 Y103.660 E2.62553
G1 X153.324 Y102.495 E2.68331
G1 X154.956 Y101.402 E2.74344
G1 X164.194 Y96.009 E3.07099
G1 X165.069 Y95.618 E3.10032
G1 X165.805 Y95.437 E3.12353
G1 X166.560 Y95.373 E3.14674
G1 X213.419 Y95.373 E4.58154
G1 X214.551 Y95.509 E4.61648
G1 X215.625 Y95.911 E4.65158
G1 X224.909 Y101.318 E4.98057
G1 X226.819 Y102.603 E5.05105
G1 X228.304 Y103.778 E5.10901
G1 X229.731 Y105.093 E5.16845
G1 X231.330 Y106.827 E5.24067
G1 X232.502 Y108.320 E5.29879
G1 X233.590 Y109.942 E5.35858
G1 X238.991 Y119.194 E5.68663
G1 X239.368 Y120.028 E5.71464
G1 X239.560 Y120.784 E5.73851
G1 X239.627 Y121.560 E5.76239
G1 X239.627 Y168.435 E7.19768
G1 X239.498 Y169.520 E7.23114
G1 X239.126 Y170.553 E7.26476
G1 X233.575 Y180.080 E7.60237
G1 X232.504 Y181.677 E7.66125
G1 X231.332 Y183.170 E7.71937
G1 X229.793 Y184.848 E7.78910
G1 X228.160 Y186.340 E7.85683
G1 X226.676 Y187.505 E7.91461
G1 X225.044 Y188.598 E7.97474
G1 X215.796 Y193.996 E8.30262
G1 X214.864 Y194.404 E8.33377
G1 X214.158 Y194.569 E8.35599
G1 X213.434 Y194.627 E8.37821
G1 X166.560 Y194.627 E9.81350
G1 X165.475 Y194.497 E9.84696
G1 X164.447 Y194.126 E9.88041
G1 X154.920 Y188.575 E10.21802
G1 X153.319 Y187.501 E10.27706
G1 X151.830 Y186.332 E10.33502
G1 X150.153 Y184.793 E10.40474
G1 X148.660 Y183.160 E10.47249
G1 X147.495 Y181.676 E10.53027
G1 X146.402 Y180.044 E10.59039
G1 X141.004 Y170.796 E10.91828
G1 X140.596 Y169.864 E10.94942
G1 X140.431 Y169.158 E10.97164
G1 X140.373 Y168.434 E10.99386
G1 X140.373 Y121.560 E12.42916
G1 X140.496 Y120.534 E12.46078
G1 X140.897 Y120.582 F5400.000
G1 F1200
G1 X141.243 Y119.620 E12.49207
G1 X146.765 Y110.143 E12.82794
G1 X147.826 Y108.561 E12.88628
G1 X148.984 Y107.087 E12.94366
G1 X150.488 Y105.447 E13.01180
G1 X152.092 Y103.979 E13.07838
G1 X153.561 Y102.826 E13.13557
G1 X155.174 Y101.745 E13.19501
G1 X164.398 Y96.362 E13.52204
G1 X165.202 Y96.003 E13.54899
G1 X165.876 Y95.837 E13.57025
G1 X166.568 Y95.780 E13.59150
G1 X213.418 Y95.780 E15.02606
G1 X214.466 Y95.907 E15.05838
G1 X215.453 Y96.280 E15.09070
G1 X224.712 Y101.674 E15.41879
G1 X226.568 Y102.923 E15.48728
G1 X228.041 Y104.089 E15.54482
G1 X229.457 Y105.394 E15.60376
G1 X231.011 Y107.080 E15.67398
G1 X232.174 Y108.561 E15.73166
G1 X233.249 Y110.165 E15.79078
G1 X238.636 Y119.394 E16.11796
G1 X238.985 Y120.168 E16.14396
G1 X239.159 Y120.856 E16.16570
G1 X239.220 Y121.563 E16.18743
G1 X239.220 Y168.434 E17.62262
G1 X239.101 Y169.431 E17.65336
G1 X238.757 Y170.380 E17.68426
G1 X233.238 Y179.852 E18.01997
G1 X232.173 Y181.440 E18.07848
G1 X231.016 Y182.913 E18.13585
G1 X229.508 Y184.557 E18.20416
G1 X227.908 Y186.021 E18.27056
G1 X226.439 Y187.174 E18.32776
G1 X224.826 Y188.255 E18.38720
G1 X215.597 Y193.641 E18.71438
G1 X214.739 Y194.016 E18.74307
G1 X213.432 Y194.220 E18.78357
G1 X166.566 Y194.220 E20.21860
G1 X165.569 Y194.101 E20.24934
G1 X164.620 Y193.757 E20.28024
G1 X155.143 Y188.235 E20.61611
G1 X153.561 Y187.174 E20.67445
G1 X152.087 Y186.016 E20.73183
G1 X150.444 Y184.508 E20.80013
G1 X148.979 Y182.908 E20.86655
G1 X147.826 Y181.439 E20.92374
G1 X146.745 Y179.826 E20.98318
G1 X141.359 Y170.597 E21.31037
G1 X140.984 Y169.739 E21.33905
G1 X140.780 Y168.432 E21.37956
G1 X140.780 Y121.566 E22.81459
G1 X140.890 Y120.642 E22.84308
G1 F4320
G1 X141.243 Y119.620 E21.98755
G1 F4320
G1 X141.907 Y118.481 E20.94308
G1 E20.84308 F3600.00000
G92 E0
G1 X178.752 Y138.404 F5400.000
G1 E2.00000 F3600.00000
G1 F1200
G1 X178.752 Y122.813 E2.41648
G1 X179.466 Y122.813 E2.43555
G1 X179.466 Y138.243 E2.84773
G1 X180.181 Y138.243 E2.86681
G1 X180.181 Y122.813 E3.27899
G1 X180.895 Y122.813 E3.29807
G1 X180.895 Y138.243 E3.71025
G1 X181.609 Y138.243 E3.72933
G1 X181.609 Y122.813 E4.14151
G1 X182.323 Y122.813 E4.16059
G1 X182.323 Y137.973 E4.56554
G1 X182.661 Y137.661 E4.57782
G1 X183.037 Y137.253 E4.59264
G1 X183.037 Y122.813 E4.97838
G1 X183.751 Y122.813 E4.99746
G1 X183.751 Y136.472 E5.36233
G1 X184.466 Y135.566 E5.39315
G1 X184.466 Y122.813 E5.73382
G1 X185.180 Y122.813 E5.75290
G1 X185.180 Y134.542 E6.06621
G1 X185.516 Y134.039 E6.08239
G1 X185.894 Y133.364 E6.10304
G1 X185.894 Y122.813 E6.38489
G1 X186.608 Y122.813 E6.40396
G1 X186.608 Y131.959 E6.64827
G1 X186.914 Y131.295 E6.66778
G1 X187.322 Y130.188 E6.69929
G1 X187.322 Y122.813 E6.89632
G1 X188.036 Y122.813 E6.91539
G1 X188.036 Y128.331 E7.06279
G1 F4320
G1 X188.036 Y125.931 E5.16279
G1 E5.06279 F3600.00000
G92 E0
G1 X191.607 Y122.652 F5400.000
G1 E2.00000 F3600.00000
G1 F1200
G1 X191.607 Y124.155 E2.04016
G1 X191.653 Y125.326 E2.07146
G1 X191.834 Y126.856 E2.11261
G1 X192.135 Y128.367 E2.15377
G1 X192.321 Y129.029 E2.17212
G1 X192.321 Y122.813 E2.33816
G1 X193.035 Y122.813 E2.35724
G1 X193.035 Y131.158 E2.58015
G1 X193.750 Y132.727 E2.62621
G1 X193.750 Y122.813 E2.89105
G1 X194.464 Y122.813 E2.91013
G1 X194.464 Y134.003 E3.20904
G1 X195.178 Y135.077 E3.24350
G1 X195.178 Y122.813 E3.57111
G1 X195.892 Y122.813 E3.59019
G1 X195.892 Y136.020 E3.94298
G1 X196.294 Y136.529 E3.96031
G1 X196.606 Y136.868 E3.97261
G1 X196.606 Y122.813 E4.34804
G1 X197.320 Y122.813 E4.36712
G1 X197.320 Y137.640 E4.76319
G1 X197.970 Y138.243 E4.78686
G1 X198.035 Y138.243 E4.78860
G1 X198.035 Y122.813 E5.20078
G1 X198.749 Y122.813 E5.21986
G1 X198.749 Y138.243 E5.63204
G1 X199.463 Y138.243 E5.65112
G1 X199.463 Y122.813 E6.06330
G1 X200.177 Y122.813 E6.08238
G1 X200.177 Y138.243 E6.49456
G1 X200.891 Y138.243 E6.51364
G1 X200.891 Y122.813 E6.92582
G1 X201.605 Y122.813 E6.94489
G1 X201.605 Y138.404 E7.36137
G1 F4320
G1 X201.605 Y136.004 E5.46137
G1 E5.36137 F3600.00000
G92 E0
G1 X193.750 Y138.404 F5400.000
G1 E2.00000 F3600.00000
G1 F1200
G1 X193.750 Y137.980 E2.01133
G1 F4320
G1 X193.750 Y138.404 E1.67555
G1 E0.01133 F3600.00000
G92 E0
G1 X186.608 Y138.093 F5400.000
G1 E2.00000 F3600.00000
G1 F1200
G1 X186.608 Y137.526 E2.01515
G1 F4320
G1 X186.608 Y138.093 E1.56628
G1 E0.01515 F3600.00000
G92 E0
G1 X209.488 Y187.538 F5400.000
G1 E2.00000 F3600.00000
G1 F1200
G1 X212.938 Y187.538 E2.10564
G1 X212.938 Y189.288 E2.15922
G1 X209.488 Y189.288 E2.26486
G1 X209.488 Y187.598 E2.31661
G1 X209.345 Y187.165 F5400.000
G1 F4320
G1 X211.888 Y187.556 E0.41661
G1 E0.31661 F3600.00000
G92 E0
G1 X232.538 Y167.938 F5400.000
G1 E2.00000 F3600.00000
G1 F1200
G1 X232.538 Y164.488 E2.10564
G1 X234.288 Y164.488 E2.15922
G1 X234.288 Y167.938 E2.26486
G1 X232.598 Y167.938 E2.31661
G1 X232.165 Y168.082 F5400.000
G1 X232.171 Y167.888 F5400.000
G1 F1200
G1 X231.979 Y169.502 E2.36640
G1 X231.657 Y171.121 E2.41695
G1 X231.209 Y172.710 E2.46750
G1 X230.638 Y174.259 E2.51805
G1 X229.947 Y175.758 E2.56860
G1 X229.140 Y177.199 E2.61915
G1 X228.223 Y178.571 E2.66970
G1 X227.201 Y179.868 E2.72025
G1 X226.080 Y181.080 E2.77080
G1 X224.868 Y182.201 E2.82135
G1 X223.571 Y183.223 E2.87190
G1 X222.199 Y184.140 E2.92245
G1 X220.758 Y184.947 E2.97300
G1 X219.259 Y185.638 E3.02355
G1 X217.710 Y186.209 E3.07410
G1 X216.121 Y186.657 E3.12465
G1 X214.502 Y186.979 E3.17520
G1 X212.863 Y187.174 E3.22575
G1 X211.213 Y187.238 E3.27630
G1 X209.564 Y187.174 E3.32685
G1 X207.924 Y186.979 E3.37740
G1 X206.305 Y186.657 E3.42795
G1 X204.716 Y186.209 E3.47850
G1 X203.167 Y185.638 E3.52905
G1 X201.668 Y184.947 E3.57960
G1 X200.228 Y184.140 E3.63015
G1 X198.855 Y183.223 E3.68070
G1 X197.558 Y182.201 E3.73125
G1 X196.346 Y181.080 E3.78180
G1 X195.205 Y179.842 E3.83335
G1 X194.203 Y178.571 E3.88290
G1 X193.286 Y177.199 E3.93344
G1 X192.480 Y175.758 E3.98400
G1 X191.788 Y174.259 E4.03455
G1 X191.217 Y172.710 E4.08509
G1 X190.769 Y171.121 E4.13564
G1 X190.447 Y169.502 E4.18620
G1 X190.253 Y167.863 E4.23674
G1 X190.188 Y166.213 E4.28730
G1 X190.253 Y164.564 E4.33784
G1 X190.447 Y162.924 E4.38839
G1 X190.769 Y161.305 E4.43895
G1 X191.217 Y159.716 E4.48950
G1 X191.788 Y158.167 E4.54005
G1 X192.480 Y156.668 E4.59060
G1 X193.305 Y155.200 E4.64215
G1 X194.203 Y153.855 E4.69169
G1 X195.226 Y152.558 E4.74224
G1 X196.346 Y151.346 E4.79279
G1 X197.558 Y150.226 E4.84334
G1 X198.855 Y149.203 E4.89389
G1 X200.228 Y148.286 E4.94444
G1 X201.668 Y147.480 E4.99499
G1 X203.167 Y146.788 E5.04554
G1 X204.716 Y146.217 E5.09609
G1 X206.305 Y145.769 E5.14664
G1 X207.924 Y145.447 E5.19719
G1 X209.564 Y145.253 E5.24775
G1 X211.180 Y145.189 E5.29729
G1 X212.863 Y145.253 E5.34884
G1 X214.502 Y145.447 E5.39939
G1 X216.121 Y145.769 E5.44994
G1 X217.710 Y146.217 E5.50049
G1 X219.259 Y146.788 E5.55104
G1 X220.758 Y147.480 E5.60159
G1 X222.199 Y148.286 E5.65214
G1 X223.571 Y149.203 E5.70269
G1 X224.842 Y150.205 E5.75224
G1 X226.080 Y151.346 E5.80378
G1 X227.201 Y152.558 E5.85434
G1 X228.223 Y153.855 E5.90489
G1 X229.140 Y155.228 E5.95544
G1 X229.947 Y156.668 E6.00599
G1 X230.638 Y158.167 E6.05654
G1 X231.209 Y159.716 E6.10709
G1 X231.657 Y161.305 E6.15764
G1 X231.979 Y162.924 E6.20819
G1 X232.174 Y164.564 E6.25874
G1 X232.238 Y166.213 E6.30929
G1 X232.175 Y167.828 E6.35877
G1 X232.500 Y168.114 F5400.000
G1 F4320
G1 X231.979 Y169.502 E5.02416
G1 F4320
G1 X231.840 Y170.203 E4.45877
G1 E4.35877 F3600.00000
G92 E0
G1 X200.125 Y148.055 F5400.000
G1 E2.00000 F3600.00000
G1 F1200
G1 X198.708 Y149.002 E2.05216
G1 X197.396 Y150.036 E2.10331
G1 X196.170 Y151.170 E2.15446
G1 X195.036 Y152.396 E2.20561
G1 X194.002 Y153.708 E2.25676
G1 X193.055 Y155.125 E2.30892
G1 X191.275 Y153.019 E2.39335
G1 X191.275 Y146.275 E2.59984
G1 X198.019 Y146.275 E2.80633
G1 X200.079 Y148.016 E2.88893
G1 X200.425 Y148.319 F5400.000
G1 F4320
G1 X198.708 Y149.002 E1.55272
G1 F4320
G1 X198.149 Y149.442 E0.98893
G1 E0.88893 F3600.00000
G92 E0
G1 X198.019 Y143.725 F5400.000
G1 E2.00000 F3600.00000
G1 F1200
G1 X191.275 Y143.725 E2.20649
G1 X191.275 Y136.981 E2.41298
G1 X193.055 Y134.875 E2.49741
G1 X194.002 Y136.292 E2.54957
G1 X195.036 Y137.604 E2.60072
G1 X196.170 Y138.830 E2.65187
G1 X197.396 Y139.964 E2.70302
G1 X198.708 Y140.998 E2.75417
G1 X200.125 Y141.945 E2.80633
G1 X198.064 Y143.686 E2.88893
G1 X197.986 Y144.124 F5400.000
G1 F4320
G1 X195.664 Y143.700 E0.98893
G1 E0.88893 F3600.00000
G92 E0
G1 X188.725 Y143.686 F5400.000
G1 E2.00000 F3600.00000
G1 F1200
G1 X188.725 Y143.725 E2.00119
G1 X181.981 Y143.725 E2.20768
G1 X179.875 Y141.945 E2.29211
G1 X181.292 Y140.998 E2.34427
G1 X182.604 Y139.964 E2.39542
G1 X183.830 Y138.830 E2.44657
G1 X184.964 Y137.604 E2.49772
G1 X185.998 Y136.292 E2.54887
G1 X186.945 Y134.875 E2.60103
G1 X188.725 Y136.981 E2.68546
G1 X188.725 Y143.626 E2.88893
G1 X188.760 Y143.703 F5400.000
G1 F4320
G1 X188.725 Y143.725 E2.81076
G1 F4320
G1 X186.424 Y143.725 E0.98893
G1 E0.88893 F3600.00000
G92 E0
G1 X190.868 Y144.132 F5400.000
G1 E2.00000 F3600.00000
G1 F1200
G1 X198.168 Y144.132 E2.22352
G1 X200.377 Y142.264 E2.31211
G1 X201.483 Y142.883 E2.35092
G1 X203.011 Y143.588 E2.40245
G1 X204.590 Y144.170 E2.45397
G1 X206.210 Y144.627 E2.50550
G1 X207.580 Y144.900 E2.54829
G1 X207.580 Y145.100 E2.55443
G1 X206.210 Y145.373 E2.59721
G1 X204.590 Y145.830 E2.64874
G1 X203.011 Y146.412 E2.70027
G1 X201.483 Y147.117 E2.75180
G1 X200.377 Y147.736 E2.79060
G1 X198.168 Y145.868 E2.87920
G1 X190.868 Y145.868 E3.10272
G1 X190.868 Y153.168 E3.32623
G1 X192.737 Y155.379 E3.41489
G1 X192.117 Y156.483 E3.45366
G1 X191.412 Y158.011 E3.50520
G1 X190.830 Y159.590 E3.55673
G1 X190.373 Y161.210 E3.60826
G1 X190.100 Y162.580 E3.65105
G1 X189.900 Y162.580 E3.65718
G1 X189.627 Y161.210 E3.69997
G1 X189.170 Y159.590 E3.75150
G1 X188.588 Y158.011 E3.80303
G1 X187.883 Y156.483 E3.85456
G1 X187.264 Y155.377 E3.89336
G1 X189.132 Y153.168 E3.98196
G1 X189.132 Y145.868 E4.20547
G1 X181.832 Y145.868 E4.42899
G1 X179.623 Y147.736 E4.51759
G1 X178.517 Y147.117 E4.55639
G1 X176.989 Y146.412 E4.60792
G1 X175.410 Y145.830 E4.65945
G1 X173.790 Y145.373 E4.71098
G1 X172.420 Y145.100 E4.75376
G1 X172.420 Y144.900 E4.75990
G1 X173.790 Y144.627 E4.80269
G1 X175.410 Y144.170 E4.85422
G1 X176.989 Y143.588 E4.90575
G1 X178.517 Y142.883 E4.95728
G1 X179.623 Y142.264 E4.99608
G1 X181.832 Y144.132 E5.08467
G1 X189.132 Y144.132 E5.30819
G1 X189.132 Y136.832 E5.53171
G1 X187.264 Y134.622 E5.62033
G1 X187.883 Y133.517 E5.65912
G1 X188.588 Y131.989 E5.71065
G1 X189.170 Y130.410 E5.76218
G1 X189.627 Y128.790 E5.81371
G1 X189.900 Y127.420 E5.85650
G1 X190.100 Y127.420 E5.86263
G1 X190.366 Y128.757 E5.90438
G1 X190.829 Y130.409 E5.95693
G1 X191.412 Y131.989 E6.00848
G1 X192.117 Y133.517 E6.06001
G1 X192.736 Y134.623 E6.09881
G1 X190.868 Y136.832 E6.18740
G1 X190.868 Y144.072 E6.40908
G1 F4320
G1 X193.268 Y144.092 E4.50908
G1 E4.40908 F3600.00000
G92 E0
G1 X188.725 Y146.275 F5400.000
G1 E2.00000 F3600.00000
G1 F1200
G1 X188.725 Y153.019 E2.20649
G1 X186.945 Y155.125 E2.29092
G1 X185.998 Y153.708 E2.34308
G1 X184.964 Y152.396 E2.39423
G1 X183.830 Y151.170 E2.44538
G1 X182.604 Y150.036 E2.49653
G1 X181.292 Y149.002 E2.54768
G1 X179.875 Y148.055 E2.59984
G1 X181.981 Y146.275 E2.68428
G1 X188.665 Y146.275 E2.88893
G1 X189.124 Y146.249 F5400.000
G1 F4320
G1 X188.686 Y148.675 E0.98893
G1 E0.88893 F3600.00000
G92 E0
G1 X183.654 Y151.346 F5400.000
G1 E2.00000 F3600.00000
G1 F1200
G1 X184.795 Y152.584 E2.05155
G1 X185.797 Y153.855 E2.10110
G1 X186.714 Y155.228 E2.15165
G1 X187.520 Y156.668 E2.20220
G1 X188.212 Y158.167 E2.25275
G1 X188.783 Y159.716 E2.30330
G1 X189.231 Y161.305 E2.35385
G1 X189.553 Y162.924 E2.40440
G1 X189.747 Y164.564 E2.45495
G1 X189.812 Y166.213 E2.50550
G1 X189.743 Y167.895 E2.55705
G1 X189.553 Y169.502 E2.60659
G1 X189.231 Y171.121 E2.65715
G1 X188.783 Y172.710 E2.70770
G1 X188.212 Y174.259 E2.75824
G1 X187.520 Y175.759 E2.80880
G1 X186.695 Y177.226 E2.86035
G1 X185.797 Y178.571 E2.90989
G1 X184.774 Y179.868 E2.96044
G1 X183.654 Y181.080 E3.01099
G1 X182.442 Y182.201 E3.06154
G1 X181.145 Y183.223 E3.11209
G1 X179.772 Y184.140 E3.16264
G1 X178.332 Y184.947 E3.21319
G1 X176.833 Y185.638 E3.26374
G1 X175.284 Y186.209 E3.31429
G1 X173.695 Y186.657 E3.36484
G1 X172.076 Y186.979 E3.41539
G1 X170.436 Y187.174 E3.46594
G1 X168.787 Y187.238 E3.51649
G1 X167.137 Y187.174 E3.56704
G1 X165.498 Y186.979 E3.61759
G1 X163.879 Y186.657 E3.66814
G1 X162.290 Y186.209 E3.71869
G1 X160.741 Y185.638 E3.76924
G1 X159.242 Y184.947 E3.81979
G1 X157.801 Y184.140 E3.87034
G1 X156.429 Y183.223 E3.92089
G1 X155.132 Y182.201 E3.97144
G1 X153.920 Y181.080 E4.02199
G1 X152.799 Y179.868 E4.07254
G1 X151.777 Y178.571 E4.12310
G1 X150.844 Y177.170 E4.17464
G1 X150.053 Y175.758 E4.22419
G1 X149.362 Y174.259 E4.27474
G1 X148.791 Y172.710 E4.32529
G1 X148.343 Y171.121 E4.37584
G1 X148.020 Y169.502 E4.42639
G1 X147.826 Y167.863 E4.47694
G1 X147.762 Y166.213 E4.52749
G1 X147.826 Y164.564 E4.57804
G1 X148.020 Y162.924 E4.62859
G1 X148.343 Y161.305 E4.67914
G1 X148.791 Y159.716 E4.72969
G1 X149.362 Y158.167 E4.78024
G1 X150.053 Y156.668 E4.83079
G1 X150.860 Y155.228 E4.88134
G1 X151.777 Y153.855 E4.93189
G1 X152.799 Y152.558 E4.98244
G1 X153.920 Y151.346 E5.03299
G1 X155.132 Y150.226 E5.08354
G1 X156.429 Y149.203 E5.13409
G1 X157.801 Y148.286 E5.18464
G1 X159.242 Y147.480 E5.23519
G1 X160.741 Y146.788 E5.28574
G1 X162.290 Y146.217 E5.33629
G1 X163.879 Y145.769 E5.38684
G1 X165.498 Y145.447 E5.43739
G1 X167.137 Y145.253 E5.48794
G1 X168.754 Y145.189 E5.53749
G1 X170.436 Y145.253 E5.58903
G1 X172.076 Y145.447 E5.63959
G1 X173.695 Y145.769 E5.69014
G1 X175.284 Y146.217 E5.74069
