; generated by Slic3r 1.36.2-prusa3d-win64 on 2017-11-27 at 16:52:47

; 

; external perimeters extrusion width = 0.45mm
; perimeters extrusion width = 0.45mm
; infill extrusion width = 0.45mm
; solid infill extrusion width = 0.45mm
; top infill extrusion width = 0.40mm

M107
M80 ; turn on PSU
M140 S50
M104 S200 ; start E heating
M17; enable motors
G28 X Y ; Z ; Home
M190 S50
M109 S200
G91
G1 E5 F200
G90
; Filament gcode

G21 ; set units to millimeters
G90 ; use absolute coordinates
M82 ; use absolute distances for extrusion
G92 E0
G1 E-2.00000 F3600.00000
G92 E0
G1 Z0.200 F5400.000
G1 X114.198 Y82.225 F5400.000
G1 E2.00000 F3600.00000
G1 F1200
G1 X116.416 Y79.368 E2.11074
G1 X118.898 Y76.554 E2.22563
G1 X121.551 Y73.901 E2.34053
G1 X124.259 Y71.510 E2.45113
G1 X127.462 Y69.025 E2.57528
G1 X130.455 Y66.994 E2.68602
G1 X133.680 Y65.087 E2.80074
G1 X137.028 Y63.381 E2.91581
G1 X140.341 Y61.944 E3.02639
G1 X144.058 Y60.600 E3.14741
G1 X147.625 Y59.565 E3.26114
G1 X151.298 Y58.744 E3.37636
G1 X155.009 Y58.157 E3.49142
G1 X158.853 Y57.798 E3.60963
G1 X162.490 Y57.686 E3.72104
G1 X217.505 Y57.686 E5.40561
G1 X221.402 Y57.815 E5.52500
G1 X224.997 Y58.158 E5.63558
G1 X228.559 Y58.719 E5.74599
G1 X232.365 Y59.562 E5.86535
G1 X235.979 Y60.612 E5.98058
G1 X239.525 Y61.888 E6.09597
G1 X243.100 Y63.443 E6.21534
G1 X246.447 Y65.159 E6.33053
G1 X249.551 Y66.998 E6.44097
G1 X252.534 Y69.022 E6.55138
G1 X255.619 Y71.406 E6.67075
G1 X258.446 Y73.898 E6.78614
G1 X261.107 Y76.559 E6.90136
G1 X263.680 Y79.488 E7.02073
G1 X265.888 Y82.338 E7.13114
G1 X267.817 Y85.173 E7.23615
G1 X269.843 Y88.557 E7.35692
G1 X271.619 Y92.028 E7.47630
G1 X273.130 Y95.522 E7.59285
G1 X274.430 Y99.157 E7.71106
G1 X275.435 Y102.625 E7.82163
G1 X276.224 Y106.144 E7.93205
G1 X276.842 Y109.999 E8.05158
G1 X277.198 Y113.783 E8.16796
G1 X277.314 Y117.490 E8.28153
G1 X277.314 Y172.570 E9.96809
G1 X277.196 Y176.256 E10.08101
G1 X276.843 Y179.992 E10.19591
G1 X276.256 Y183.703 E10.31096
G1 X275.469 Y187.233 E10.42170
G1 X274.339 Y191.123 E10.54571
G1 X273.112 Y194.525 E10.65646
G1 X271.612 Y197.988 E10.77201
G1 X269.915 Y201.316 E10.88641
G1 X268.005 Y204.546 E11.00131
G1 X265.894 Y207.654 E11.11636
G1 X263.679 Y210.513 E11.22710
G1 X261.110 Y213.438 E11.34630
G1 X258.554 Y215.997 E11.45705
G1 X255.512 Y218.680 E11.58122
G1 X252.653 Y220.894 E11.69196
G1 X249.545 Y223.006 E11.80702
G1 X246.315 Y224.916 E11.92191
G1 X242.967 Y226.622 E12.03697
G1 X239.518 Y228.114 E12.15204
G1 X235.988 Y229.385 E12.26692
G1 X232.380 Y230.434 E12.38198
G1 X228.809 Y231.234 E12.49405
G1 X224.856 Y231.858 E12.61657
G1 X221.255 Y232.196 E12.72731
G1 X217.564 Y232.314 E12.84038
G1 X162.489 Y232.314 E14.52678
G1 X158.803 Y232.200 E14.63970
G1 X154.858 Y231.822 E14.76106
G1 X151.286 Y231.254 E14.87180
G1 X147.624 Y230.435 E14.98669
G1 X144.021 Y229.388 E15.10159
G1 X140.622 Y228.167 E15.21216
G1 X137.012 Y226.612 E15.33252
G1 X133.684 Y224.915 E15.44692
G1 X130.454 Y223.005 E15.56182
G1 X127.346 Y220.893 E15.67687
G1 X124.487 Y218.679 E15.78761
G1 X121.562 Y216.110 E15.90681
G1 X119.003 Y213.554 E16.01756
G1 X116.320 Y210.512 E16.14174
G1 X114.106 Y207.653 E16.25248
G1 X111.994 Y204.545 E16.36753
G1 X110.084 Y201.315 E16.48243
G1 X108.378 Y197.967 E16.59749
G1 X106.886 Y194.518 E16.71255
G1 X105.615 Y190.988 E16.82744
G1 X104.566 Y187.380 E16.94249
G1 X103.766 Y183.808 E17.05457
G1 X103.142 Y179.856 E17.17709
G1 X102.804 Y176.255 E17.28782
G1 X102.686 Y172.570 E17.40073
G1 X102.686 Y117.489 E19.08730
G1 X102.800 Y113.803 E19.20021
G1 X103.178 Y109.858 E19.32157
G1 X103.746 Y106.286 E19.43231
G1 X104.564 Y102.630 E19.54704
G1 X105.612 Y99.021 E19.66210
G1 X106.833 Y95.622 E19.77267
G1 X108.388 Y92.012 E19.89304
G1 X110.082 Y88.689 E20.00727
G1 X111.921 Y85.574 E20.11801
G1 X114.164 Y82.274 E20.24019
G1 X114.500 Y82.502 F5400.000
G1 F1200
G1 X116.727 Y79.631 E20.35146
G1 X119.195 Y76.832 E20.46573
G1 X121.830 Y74.197 E20.57985
G1 X124.528 Y71.816 E20.69001
G1 X127.689 Y69.363 E20.81251
G1 X130.669 Y67.340 E20.92282
G1 X133.877 Y65.443 E21.03693
G1 X137.202 Y63.748 E21.15121
G1 X140.503 Y62.318 E21.26136
G1 X144.183 Y60.987 E21.38119
G1 X147.728 Y59.959 E21.49419
G1 X151.375 Y59.144 E21.60862
G1 X155.056 Y58.561 E21.72274
G1 X158.870 Y58.205 E21.84003
G1 X162.491 Y58.093 E21.95097
G1 X217.505 Y58.093 E23.63549
G1 X221.361 Y58.220 E23.75362
G1 X224.942 Y58.561 E23.86377
G1 X228.495 Y59.121 E23.97392
G1 X232.265 Y59.957 E24.09215
G1 X235.854 Y60.999 E24.20659
G1 X239.375 Y62.267 E24.32118
G1 X242.912 Y63.804 E24.43926
G1 X246.240 Y65.510 E24.55376
G1 X249.333 Y67.342 E24.66384
G1 X252.305 Y69.359 E24.77383
G1 X255.361 Y71.721 E24.89207
G1 X258.164 Y74.192 E25.00650
G1 X260.811 Y76.838 E25.12109
G1 X263.360 Y79.741 E25.23940
G1 X265.559 Y82.578 E25.34932
G1 X267.481 Y85.402 E25.45390
G1 X269.493 Y88.765 E25.57388
G1 X271.252 Y92.202 E25.69213
G1 X272.751 Y95.671 E25.80784
G1 X274.040 Y99.275 E25.92502
G1 X275.041 Y102.728 E26.03511
G1 X275.827 Y106.233 E26.14510
G1 X276.438 Y110.051 E26.26350
G1 X276.792 Y113.808 E26.37904
G1 X276.907 Y117.491 E26.49189
G1 X276.907 Y172.562 E28.17815
G1 X276.790 Y176.232 E28.29057
G1 X276.439 Y179.942 E28.40469
G1 X275.856 Y183.628 E28.51896
G1 X275.072 Y187.144 E28.62927
G1 X273.957 Y190.982 E28.75163
G1 X272.733 Y194.375 E28.86210
G1 X271.241 Y197.819 E28.97701
G1 X269.558 Y201.121 E29.09049
G1 X267.661 Y204.329 E29.20461
G1 X265.563 Y207.416 E29.31888
G1 X263.357 Y210.264 E29.42918
G1 X260.812 Y213.160 E29.54726
G1 X258.266 Y215.710 E29.65757
G1 X255.259 Y218.360 E29.78031
G1 X252.417 Y220.562 E29.89040
G1 X249.331 Y222.660 E30.00467
G1 X246.118 Y224.560 E30.11895
G1 X242.793 Y226.254 E30.23322
G1 X239.368 Y227.736 E30.34750
G1 X235.861 Y228.998 E30.46162
G1 X232.277 Y230.040 E30.57589
G1 X228.722 Y230.837 E30.68746
G1 X224.815 Y231.453 E30.80856
G1 X221.229 Y231.790 E30.91887
G1 X217.561 Y231.907 E31.03124
G1 X162.490 Y231.907 E32.71751
G1 X158.825 Y231.793 E32.82976
G1 X154.917 Y231.419 E32.94997
G1 X151.367 Y230.855 E33.06006
G1 X147.725 Y230.040 E33.17433
G1 X144.146 Y229.001 E33.28845
G1 X140.760 Y227.784 E33.39859
G1 X137.181 Y226.241 E33.51794
G1 X133.879 Y224.558 E33.63143
G1 X130.671 Y222.661 E33.74555
G1 X127.584 Y220.563 E33.85982
G1 X124.736 Y218.357 E33.97012
G1 X121.840 Y215.812 E34.08820
G1 X119.290 Y213.266 E34.19851
G1 X116.640 Y210.259 E34.32125
G1 X114.438 Y207.417 E34.43134
G1 X112.337 Y204.326 E34.54577
G1 X110.440 Y201.118 E34.65988
G1 X108.746 Y197.793 E34.77416
G1 X107.264 Y194.368 E34.88844
G1 X106.002 Y190.861 E35.00255
G1 X104.960 Y187.277 E35.11683
G1 X104.163 Y183.722 E35.22840
G1 X103.547 Y179.815 E35.34950
G1 X103.210 Y176.229 E35.45980
G1 X103.093 Y172.561 E35.57218
G1 X103.093 Y117.490 E37.25844
G1 X103.207 Y113.825 E37.37070
G1 X103.581 Y109.917 E37.49091
G1 X104.145 Y106.367 E37.60100
G1 X104.958 Y102.730 E37.71511
G1 X105.999 Y99.146 E37.82939
G1 X107.216 Y95.760 E37.93953
G1 X108.759 Y92.181 E38.05888
G1 X110.439 Y88.884 E38.17221
G1 X112.271 Y85.782 E38.28252
G1 X114.466 Y82.552 E38.40207
G1 F4320
G1 X115.935 Y80.654 E36.50207
G1 E36.40207 F3600.00000
G92 E0
G1 X123.843 Y89.826 F5400.000
G1 E2.00000 F3600.00000
G1 F1200
G1 X125.673 Y87.466 E2.09144
G1 X127.794 Y85.061 E2.18962
G1 X130.061 Y82.794 E2.28780
G1 X132.466 Y80.673 E2.38598
G1 X135.000 Y78.708 E2.48416
G1 X137.652 Y76.906 E2.58234
G1 X140.411 Y75.274 E2.68052
G1 X143.268 Y73.818 E2.77870
G1 X146.211 Y72.545 E2.87688
G1 X149.228 Y71.458 E2.97505
G1 X152.307 Y70.564 E3.07323
G1 X155.436 Y69.864 E3.17141
G1 X158.603 Y69.363 E3.26959
G1 X161.795 Y69.061 E3.36777
G1 X164.984 Y68.961 E3.46545
G1 X215.016 Y68.961 E4.99745
G1 X218.205 Y69.061 E5.09513
G1 X221.397 Y69.363 E5.19331
G1 X224.564 Y69.864 E5.29149
G1 X227.693 Y70.564 E5.38966
G1 X230.772 Y71.458 E5.48785
G1 X233.789 Y72.545 E5.58602
G1 X236.732 Y73.818 E5.68420
G1 X239.589 Y75.274 E5.78238
G1 X242.348 Y76.906 E5.88056
G1 X245.000 Y78.708 E5.97874
G1 X247.534 Y80.673 E6.07692
G1 X249.939 Y82.794 E6.17510
G1 X252.206 Y85.061 E6.27328
G1 X254.327 Y87.466 E6.37146
G1 X256.292 Y90.000 E6.46964
G1 X258.094 Y92.652 E6.56782
G1 X259.726 Y95.411 E6.66599
G1 X261.182 Y98.268 E6.76417
G1 X262.455 Y101.211 E6.86235
G1 X263.542 Y104.228 E6.96053
G1 X264.436 Y107.307 E7.05871
G1 X265.136 Y110.436 E7.15689
G1 X265.637 Y113.603 E7.25507
G1 X265.939 Y116.795 E7.35325
G1 X266.039 Y119.984 E7.45093
G1 X266.039 Y170.018 E8.98297
G1 X265.923 Y173.371 E9.08571
G1 X265.637 Y176.397 E9.17877
G1 X265.136 Y179.564 E9.27695
G1 X264.436 Y182.693 E9.37513
G1 X263.542 Y185.772 E9.47331
G1 X262.455 Y188.789 E9.57149
G1 X261.182 Y191.732 E9.66967
G1 X259.726 Y194.589 E9.76785
G1 X258.093 Y197.350 E9.86609
G1 X256.171 Y200.157 E9.97026
G1 X254.327 Y202.534 E10.06238
G1 X252.206 Y204.939 E10.16056
G1 X249.939 Y207.206 E10.25873
G1 X247.534 Y209.327 E10.35692
G1 X245.000 Y211.292 E10.45509
G1 X242.348 Y213.094 E10.55327
G1 X239.589 Y214.726 E10.65145
G1 X236.732 Y216.182 E10.74963
G1 X233.789 Y217.455 E10.84781
G1 X230.772 Y218.542 E10.94599
G1 X227.693 Y219.436 E11.04417
G1 X224.564 Y220.136 E11.14235
G1 X221.397 Y220.637 E11.24053
G1 X218.205 Y220.939 E11.33871
G1 X215.016 Y221.039 E11.43639
G1 X164.984 Y221.039 E12.96838
G1 X161.795 Y220.939 E13.06606
G1 X158.603 Y220.637 E13.16424
G1 X155.436 Y220.136 E13.26242
G1 X152.307 Y219.436 E13.36060
G1 X149.228 Y218.542 E13.45878
G1 X146.211 Y217.455 E13.55696
G1 X143.422 Y216.248 E13.65003
G1 X140.413 Y214.727 E13.75326
G1 X137.652 Y213.094 E13.85148
G1 X135.000 Y211.292 E13.94967
G1 X132.466 Y209.327 E14.04784
G1 X130.061 Y207.206 E14.14603
G1 X127.794 Y204.939 E14.24420
G1 X125.673 Y202.534 E14.34238
G1 X123.708 Y200.000 E14.44056
G1 X121.906 Y197.348 E14.53874
G1 X120.274 Y194.589 E14.63692
G1 X118.818 Y191.732 E14.73510
G1 X117.545 Y188.789 E14.83328
G1 X116.458 Y185.771 E14.93151
G1 X115.527 Y182.530 E15.03474
G1 X114.864 Y179.564 E15.12781
G1 X114.363 Y176.397 E15.22599
G1 X114.061 Y173.205 E15.32417
G1 X113.961 Y170.016 E15.42185
G1 X113.961 Y119.984 E16.95384
G1 X114.061 Y116.795 E17.05152
G1 X114.363 Y113.603 E17.14970
G1 X114.864 Y110.436 E17.24788
G1 X115.564 Y107.307 E17.34606
G1 X116.458 Y104.228 E17.44424
G1 X117.545 Y101.211 E17.54242
G1 X118.818 Y98.268 E17.64060
G1 X120.274 Y95.411 E17.73878
G1 X121.906 Y92.652 E17.83695
G1 X123.806 Y89.873 E17.94003
G1 X124.128 Y90.123 F5400.000
G1 F1200
G1 X125.987 Y87.726 E18.03291
G1 X128.091 Y85.340 E18.13031
G1 X130.340 Y83.091 E18.22770
G1 X132.726 Y80.987 E18.32510
G1 X135.239 Y79.037 E18.42250
G1 X137.870 Y77.250 E18.51989
G1 X140.608 Y75.631 E18.61729
G1 X143.442 Y74.186 E18.71468
G1 X146.361 Y72.923 E18.81208
G1 X149.354 Y71.846 E18.90947
G1 X152.408 Y70.958 E19.00687
G1 X155.512 Y70.264 E19.10427
G1 X158.654 Y69.767 E19.20166
G1 X161.821 Y69.468 E19.29906
G1 X164.990 Y69.368 E19.39615
G1 X215.010 Y69.368 E20.92775
G1 X218.179 Y69.468 E21.02484
G1 X221.346 Y69.767 E21.12224
G1 X224.488 Y70.264 E21.21964
G1 X227.592 Y70.958 E21.31703
G1 X230.646 Y71.846 E21.41443
G1 X233.639 Y72.923 E21.51182
G1 X236.558 Y74.186 E21.60922
G1 X239.392 Y75.631 E21.70662
G1 X242.130 Y77.250 E21.80401
G1 X244.761 Y79.037 E21.90141
G1 X247.274 Y80.987 E21.99880
G1 X249.660 Y83.091 E22.09620
G1 X251.909 Y85.340 E22.19359
G1 X254.013 Y87.726 E22.29099
G1 X255.963 Y90.239 E22.38839
G1 X257.750 Y92.870 E22.48579
G1 X259.369 Y95.608 E22.58318
G1 X260.814 Y98.442 E22.68057
G1 X262.077 Y101.361 E22.77797
G1 X263.154 Y104.354 E22.87537
G1 X264.042 Y107.408 E22.97276
G1 X264.736 Y110.512 E23.07016
G1 X265.233 Y113.654 E23.16755
G1 X265.532 Y116.821 E23.26495
G1 X265.632 Y119.990 E23.36204
G1 X265.632 Y170.011 E24.89368
G1 X265.517 Y173.345 E24.99582
G1 X265.233 Y176.346 E25.08813
G1 X264.736 Y179.488 E25.18552
G1 X264.042 Y182.592 E25.28292
G1 X263.154 Y185.646 E25.38031
G1 X262.077 Y188.639 E25.47771
G1 X260.814 Y191.558 E25.57511
G1 X259.369 Y194.392 E25.67250
G1 X257.750 Y197.131 E25.76993
G1 X255.842 Y199.917 E25.87332
G1 X254.013 Y202.274 E25.96468
G1 X251.909 Y204.660 E26.06207
G1 X249.660 Y206.909 E26.15947
G1 X247.274 Y209.013 E26.25686
G1 X244.761 Y210.963 E26.35426
G1 X242.130 Y212.750 E26.45166
G1 X239.392 Y214.369 E26.54905
G1 X236.558 Y215.814 E26.64645
G1 X233.639 Y217.077 E26.74384
G1 X230.646 Y218.154 E26.84124
G1 X227.592 Y219.042 E26.93863
G1 X224.488 Y219.736 E27.03603
G1 X221.346 Y220.233 E27.13343
G1 X218.179 Y220.532 E27.23082
G1 X215.010 Y220.632 E27.32791
G1 X164.990 Y220.632 E28.85952
G1 X161.821 Y220.532 E28.95661
G1 X158.654 Y220.233 E29.05401
G1 X155.512 Y219.736 E29.15140
G1 X152.408 Y219.042 E29.24880
G1 X149.354 Y218.154 E29.34619
G1 X146.361 Y217.077 E29.44359
G1 X143.594 Y215.880 E29.53589
G1 X140.608 Y214.370 E29.63834
G1 X137.870 Y212.750 E29.73577
G1 X135.239 Y210.963 E29.83316
G1 X132.726 Y209.013 E29.93056
G1 X130.340 Y206.909 E30.02796
G1 X128.091 Y204.660 E30.12535
G1 X125.987 Y202.274 E30.22275
G1 X124.037 Y199.761 E30.32014
G1 X122.250 Y197.130 E30.41754
G1 X120.631 Y194.392 E30.51493
G1 X119.186 Y191.558 E30.61233
G1 X117.923 Y188.639 E30.70973
G1 X116.845 Y185.645 E30.80715
G1 X115.922 Y182.429 E30.90960
G1 X115.264 Y179.488 E31.00190
G1 X114.767 Y176.346 E31.09930
G1 X114.468 Y173.179 E31.19670
G1 X114.368 Y170.010 E31.29379
G1 X114.368 Y119.990 E32.82539
G1 X114.468 Y116.821 E32.92248
G1 X114.767 Y113.654 E33.01988
G1 X115.264 Y110.512 E33.11727
G1 X115.958 Y107.408 E33.21467
G1 X116.846 Y104.354 E33.31207
G1 X117.923 Y101.361 E33.40946
G1 X119.186 Y98.442 E33.50686
G1 X120.631 Y95.608 E33.60425
G1 X122.250 Y92.870 E33.70165
G1 X124.091 Y90.170 E33.80171
G1 X124.413 Y90.420 F5400.000
G1 F1200
G1 X126.301 Y87.985 E33.89604
G1 X128.388 Y85.618 E33.99266
G1 X130.618 Y83.388 E34.08927
G1 X132.985 Y81.301 E34.18588
G1 X135.478 Y79.367 E34.28249
G1 X138.088 Y77.594 E34.37911
G1 X140.804 Y75.987 E34.47572
G1 X143.615 Y74.555 E34.57233
G1 X146.511 Y73.302 E34.66894
G1 X149.480 Y72.233 E34.76555
G1 X152.510 Y71.353 E34.86217
G1 X155.589 Y70.664 E34.95878
G1 X158.705 Y70.171 E35.05539
G1 X161.846 Y69.874 E35.15201
G1 X164.996 Y69.775 E35.24851
G1 X215.004 Y69.775 E36.77972
G1 X218.154 Y69.874 E36.87623
G1 X221.295 Y70.171 E36.97284
G1 X224.411 Y70.664 E37.06945
G1 X227.490 Y71.353 E37.16606
G1 X230.520 Y72.233 E37.26268
G1 X233.489 Y73.302 E37.35929
G1 X236.385 Y74.555 E37.45590
G1 X239.196 Y75.987 E37.55251
G1 X241.912 Y77.594 E37.64912
G1 X244.522 Y79.367 E37.74574
G1 X247.015 Y81.301 E37.84235
G1 X249.382 Y83.388 E37.93897
G1 X251.612 Y85.618 E38.03557
G1 X253.699 Y87.985 E38.13219
G1 X255.633 Y90.478 E38.22880
G1 X257.406 Y93.088 E38.32541
G1 X259.013 Y95.804 E38.42202
G1 X260.445 Y98.615 E38.51864
G1 X261.698 Y101.511 E38.61525
G1 X262.767 Y104.480 E38.71186
G1 X263.647 Y107.510 E38.80848
G1 X264.336 Y110.589 E38.90509
G1 X264.829 Y113.705 E39.00170
G1 X265.126 Y116.846 E39.09831
G1 X265.225 Y119.996 E39.19482
G1 X265.225 Y170.004 E40.72604
G1 X265.110 Y173.319 E40.82760
G1 X264.829 Y176.295 E40.91914
G1 X264.336 Y179.411 E41.01575
G1 X263.647 Y182.490 E41.11236
G1 X262.767 Y185.520 E41.20897
G1 X261.698 Y188.489 E41.30558
G1 X260.445 Y191.385 E41.40220
G1 X259.013 Y194.196 E41.49881
G1 X257.406 Y196.912 E41.59543
G1 X255.513 Y199.677 E41.69804
G1 X253.699 Y202.015 E41.78864
G1 X251.612 Y204.382 E41.88525
G1 X249.382 Y206.612 E41.98186
G1 X247.015 Y208.699 E42.07847
G1 X244.522 Y210.633 E42.17509
G1 X241.912 Y212.406 E42.27170
G1 X239.196 Y214.013 E42.36831
G1 X236.385 Y215.445 E42.46492
G1 X233.489 Y216.698 E42.56154
G1 X230.520 Y217.767 E42.65815
G1 X227.490 Y218.647 E42.75476
G1 X224.411 Y219.336 E42.85137
G1 X221.295 Y219.829 E42.94798
G1 X218.154 Y220.126 E43.04460
G1 X215.004 Y220.225 E43.14110
G1 X164.996 Y220.225 E44.67231
G1 X161.846 Y220.126 E44.76882
G1 X158.705 Y219.829 E44.86543
G1 X155.589 Y219.336 E44.96204
G1 X152.510 Y218.647 E45.05866
G1 X149.480 Y217.767 E45.15527
G1 X146.511 Y216.698 E45.25188
G1 X143.767 Y215.511 E45.34342
G1 X140.804 Y214.013 E45.44509
G1 X138.088 Y212.406 E45.54171
G1 X135.478 Y210.633 E45.63832
G1 X132.985 Y208.699 E45.73493
G1 X130.618 Y206.612 E45.83155
