; generated by Slic3r 1.36.2-prusa3d-win64 on 2018-02-12 at 17:01:45

; 

; external perimeters extrusion width = 0.45mm
; perimeters extrusion width = 0.45mm
; infill extrusion width = 0.45mm
; solid infill extrusion width = 0.45mm
; top infill extrusion width = 0.25mm
; support material extrusion width = 0.40mm

M107
M80 ; turn on PSU
M140 S60
M104 S200 ; start E heating
M17; enable motors
G28 X Y ; Z ; Home
M190 S60
M109 S200
G91
G1 E5 F200
G90
; Filament gcode

G21 ; set units to millimeters
G90 ; use absolute coordinates
M82 ; use absolute distances for extrusion
G92 E0
G1 E-2.00000 F3600.00000
G92 E0
G1 Z0.200 F5400.000
G1 X147.603 Y108.181 F5400.000
G1 E2.00000 F3600.00000
G1 F1200
G1 X148.778 Y106.696 E2.05797
G1 X150.060 Y105.304 E2.11591
G1 X151.698 Y103.777 E2.18449
G1 X153.462 Y102.399 E2.25305
G1 X155.038 Y101.350 E2.31101
G1 X156.683 Y100.425 E2.36880
G1 X158.717 Y99.475 E2.43753
G1 X160.822 Y98.710 E2.50610
G1 X162.644 Y98.200 E2.56405
G1 X164.506 Y97.826 E2.62219
G1 X166.702 Y97.555 E2.68993
G1 X168.749 Y97.473 E2.75269
G1 X211.219 Y97.473 E4.05309
G1 X213.279 Y97.554 E4.11621
G1 X215.330 Y97.797 E4.17948
G1 X217.357 Y98.200 E4.24274
G1 X219.361 Y98.766 E4.30651
G1 X221.284 Y99.476 E4.36928
G1 X223.175 Y100.349 E4.43304
G1 X224.981 Y101.362 E4.49647
G1 X226.819 Y102.603 E4.56438
G1 X228.328 Y103.799 E4.62334
G1 X229.951 Y105.316 E4.69136
G1 X231.223 Y106.698 E4.74886
G1 X232.388 Y108.169 E4.80631
G1 X233.548 Y109.879 E4.86958
G1 X234.650 Y111.822 E4.93798
G1 X235.512 Y113.687 E5.00091
G1 X236.235 Y115.640 E5.06467
G1 X236.764 Y117.503 E5.12396
G1 X237.227 Y119.838 E5.19685
G1 X237.447 Y121.729 E5.25515
G1 X237.527 Y123.722 E5.31624
G1 X237.527 Y166.219 E6.61746
G1 X237.455 Y168.138 E6.67628
G1 X237.173 Y170.501 E6.74915
G1 X236.798 Y172.367 E6.80743
G1 X236.244 Y174.330 E6.86989
G1 X235.449 Y176.456 E6.93940
G1 X234.654 Y178.170 E6.99723
G1 X233.644 Y179.972 E7.06049
G1 X232.511 Y181.668 E7.12294
G1 X231.342 Y183.157 E7.18090
G1 X229.819 Y184.821 E7.24996
G1 X228.157 Y186.342 E7.31897
G1 X226.671 Y187.508 E7.37680
G1 X224.971 Y188.644 E7.43941
G1 X222.990 Y189.742 E7.50876
G1 X221.273 Y190.529 E7.56660
G1 X219.360 Y191.235 E7.62903
G1 X217.186 Y191.838 E7.69810
G1 X215.329 Y192.204 E7.75607
G1 X213.427 Y192.432 E7.81470
G1 X211.218 Y192.527 E7.88242
G1 X168.781 Y192.527 E9.18182
G1 X166.786 Y192.451 E9.24296
G1 X164.488 Y192.171 E9.31384
G1 X162.633 Y191.798 E9.37180
G1 X160.660 Y191.241 E9.43457
G1 X158.731 Y190.530 E9.49750
G1 X157.010 Y189.742 E9.55546
G1 X155.028 Y188.644 E9.62485
G1 X153.328 Y187.508 E9.68746
G1 X151.843 Y186.342 E9.74526
G1 X150.179 Y184.820 E9.81431
G1 X148.660 Y183.160 E9.88322
G1 X147.492 Y181.671 E9.94117
G1 X146.358 Y179.976 E10.00361
G1 X145.260 Y177.993 E10.07301
G1 X144.471 Y176.273 E10.13096
G1 X143.765 Y174.359 E10.19340
G1 X143.162 Y172.186 E10.26246
G1 X142.796 Y170.329 E10.32043
G1 X142.568 Y168.428 E10.37905
G1 X142.473 Y166.218 E10.44678
G1 X142.473 Y123.781 E11.74619
G1 X142.549 Y121.786 E11.80732
G1 X142.828 Y119.494 E11.87804
G1 X143.202 Y117.633 E11.93616
G1 X143.759 Y115.660 E11.99894
G1 X144.470 Y113.731 E12.06187
G1 X145.258 Y112.010 E12.11983
G1 X146.356 Y110.028 E12.18921
G1 X147.569 Y108.230 E12.25562
G1 X147.906 Y108.458 F5400.000
G1 F1200
G1 X149.086 Y106.963 E12.31393
G1 X150.358 Y105.581 E12.37144
G1 X151.960 Y104.088 E12.43849
G1 X153.693 Y102.734 E12.50585
G1 X155.249 Y101.698 E12.56306
G1 X156.882 Y100.780 E12.62043
G1 X158.876 Y99.851 E12.68778
G1 X160.938 Y99.100 E12.75499
G1 X162.742 Y98.595 E12.81235
G1 X164.594 Y98.223 E12.87020
G1 X166.737 Y97.961 E12.93630
G1 X168.754 Y97.880 E12.99810
G1 X211.218 Y97.880 E14.29836
G1 X213.244 Y97.959 E14.36044
G1 X215.269 Y98.199 E14.42288
G1 X217.264 Y98.596 E14.48516
G1 X219.232 Y99.152 E14.54778
G1 X221.130 Y99.853 E14.60974
G1 X222.992 Y100.712 E14.67251
G1 X224.766 Y101.707 E14.73479
G1 X226.572 Y102.926 E14.80152
G1 X228.061 Y104.106 E14.85968
G1 X229.652 Y105.593 E14.92637
G1 X230.912 Y106.960 E14.98330
G1 X232.068 Y108.421 E15.04034
G1 X233.209 Y110.105 E15.10263
G1 X234.289 Y112.010 E15.16967
G1 X235.137 Y113.847 E15.23163
G1 X235.848 Y115.769 E15.29440
G1 X236.375 Y117.621 E15.35335
G1 X236.823 Y119.887 E15.42406
G1 X237.041 Y121.758 E15.48175
G1 X237.120 Y123.728 E15.54211
G1 X237.120 Y166.218 E16.84317
G1 X237.048 Y168.120 E16.90143
G1 X236.774 Y170.422 E16.97243
G1 X236.403 Y172.269 E17.03011
G1 X235.856 Y174.208 E17.09178
G1 X235.153 Y176.116 E17.15407
G1 X234.372 Y177.819 E17.21143
G1 X233.293 Y179.766 E17.27958
G1 X232.180 Y181.431 E17.34092
G1 X231.023 Y182.905 E17.39829
G1 X229.533 Y184.531 E17.46580
G1 X227.905 Y186.023 E17.53342
G1 X226.434 Y187.177 E17.59068
G1 X224.760 Y188.296 E17.65234
G1 X222.822 Y189.371 E17.72018
G1 X221.120 Y190.151 E17.77753
G1 X219.231 Y190.848 E17.83919
G1 X217.106 Y191.439 E17.90671
G1 X215.268 Y191.801 E17.96408
G1 X213.381 Y192.028 E18.02226
G1 X211.213 Y192.120 E18.08871
G1 X168.782 Y192.120 E19.38796
G1 X166.818 Y192.045 E19.44812
G1 X164.573 Y191.773 E19.51738
G1 X162.731 Y191.403 E19.57491
G1 X160.783 Y190.853 E19.63689
G1 X158.884 Y190.153 E19.69885
G1 X157.181 Y189.372 E19.75622
G1 X155.234 Y188.293 E19.82436
G1 X153.569 Y187.180 E19.88570
G1 X152.095 Y186.023 E19.94308
G1 X150.469 Y184.534 E20.01059
G1 X148.977 Y182.905 E20.07822
G1 X147.820 Y181.430 E20.13563
G1 X146.704 Y179.760 E20.19713
G1 X145.628 Y177.819 E20.26508
G1 X144.849 Y176.120 E20.32233
G1 X144.151 Y174.230 E20.38399
G1 X143.560 Y172.101 E20.45166
G1 X143.198 Y170.263 E20.50903
G1 X142.972 Y168.377 E20.56719
G1 X142.880 Y166.213 E20.63350
G1 X142.880 Y123.782 E21.93275
G1 X142.955 Y121.818 E21.99292
G1 X143.227 Y119.573 E22.06218
G1 X143.597 Y117.731 E22.11970
G1 X144.146 Y115.788 E22.18152
G1 X144.847 Y113.884 E22.24364
G1 X145.628 Y112.181 E22.30101
G1 X146.707 Y110.234 E22.36916
G1 X147.873 Y108.508 E22.43295
G1 F4320
G1 X149.086 Y106.963 E20.87800
G1 F4320
G1 X149.381 Y106.642 E20.53295
G1 E20.43295 F3600.00000
G92 E0
G1 X206.534 Y110.045 F5400.000
G1 E2.00000 F3600.00000
G1 F1200
G1 X207.918 Y110.045 E2.04239
G1 X223.709 Y123.139 E2.67050
G1 X223.709 Y125.520 E2.74342
G1 X223.009 Y125.520 E2.76485
G1 X223.009 Y123.070 E2.83987
G1 X222.789 Y123.070 E2.84660
G1 X207.934 Y110.939 E3.43388
G1 X207.934 Y110.745 E3.43979
G1 X206.534 Y110.745 E3.48266
G1 X206.534 Y110.105 E3.50226
G1 X206.929 Y110.107 F5400.000
G1 X206.737 Y110.395 F5400.000
G1 F1200
G1 X208.021 Y110.395 E3.52581
G1 X208.137 Y110.492 F5400.000
G1 F1200
G1 X208.404 Y111.060 E3.52672
G1 X208.137 Y110.667 F5400.000
G1 F1200
G1 X213.079 Y114.734 E3.63230
G1 F1200
G1 X222.962 Y122.867 E3.74920
G1 X223.359 Y123.113 F5400.000
G1 F1200
G1 X223.359 Y125.317 E3.78962
G1 F4320
G1 X223.359 Y123.113 E2.04500
G1 E1.78962 F3600.00000
G92 E0
G1 X218.769 Y171.077 F5400.000
G1 E2.00000 F3600.00000
G1 F1200
G1 X218.549 Y171.077 E2.00673
G1 X203.694 Y158.945 E2.59401
G1 X203.694 Y158.752 E2.59992
G1 X202.294 Y158.752 E2.64279
G1 X202.294 Y158.052 E2.66423
G1 X203.678 Y158.052 E2.70661
G1 X219.469 Y171.146 E3.33472
G1 X219.469 Y173.527 E3.40764
G1 X218.769 Y173.527 E3.42908
G1 X218.769 Y171.137 E3.50226
G1 X218.748 Y170.858 F5400.000
G1 X218.722 Y170.874 F5400.000
G1 F1200
G1 X208.839 Y162.741 E3.61916
G1 F1200
G1 X203.897 Y158.674 E3.72474
G1 X203.897 Y158.498 F5400.000
G1 F1200
G1 X204.164 Y159.067 E3.72565
G1 X203.781 Y158.402 F5400.000
G1 F1200
G1 X202.497 Y158.402 E3.74920
G1 F4320
G1 X203.781 Y158.402 E2.73272
G1 E1.74920 F3600.00000
G92 E0
G1 X219.119 Y171.120 F5400.000
G1 E2.00000 F3600.00000
G1 F1200
G1 X219.119 Y173.324 E2.04042
G1 F4320
G1 X219.119 Y171.120 E0.29580
G1 E0.04042 F3600.00000
G92 E0
G1 X175.653 Y171.768 F5400.000
G1 E2.00000 F3600.00000
G1 F1200
G1 X175.433 Y171.768 E2.00673
G1 X160.578 Y159.636 E2.59401
G1 X160.578 Y159.443 E2.59992
G1 X159.178 Y159.443 E2.64279
G1 X159.178 Y158.743 E2.66423
G1 X160.563 Y158.743 E2.70661
G1 X176.353 Y171.836 E3.33472
G1 X176.353 Y174.218 E3.40764
G1 X175.653 Y174.218 E3.42908
G1 X175.653 Y171.828 E3.50226
G1 X175.633 Y171.549 F5400.000
G1 X175.607 Y171.564 F5400.000
G1 F1200
G1 X165.723 Y163.431 E3.61916
G1 F1200
G1 X160.782 Y159.365 E3.72474
G1 X160.782 Y159.189 F5400.000
G1 F1200
G1 X161.049 Y159.758 E3.72565
G1 X160.666 Y159.093 F5400.000
G1 F1200
G1 X159.382 Y159.093 E3.74920
G1 F4320
G1 X160.666 Y159.093 E2.73272
G1 E1.74920 F3600.00000
G92 E0
G1 X176.003 Y171.810 F5400.000
G1 E2.00000 F3600.00000
G1 F1200
G1 X176.003 Y174.014 E2.04042
G1 F4320
G1 X176.003 Y171.810 E0.29580
G1 E0.04042 F3600.00000
G92 E0
G1 X170.648 Y135.346 F5400.000
G1 E2.00000 F3600.00000
G1 F1200
G1 X169.948 Y135.346 E2.02143
G1 X169.948 Y132.896 E2.09645
G1 X169.728 Y132.896 E2.10318
G1 X154.873 Y120.764 E2.69046
G1 X154.873 Y120.571 E2.69638
G1 X153.473 Y120.571 E2.73924
G1 X153.473 Y119.871 E2.76068
G1 X154.857 Y119.871 E2.80307
G1 X170.648 Y132.965 E3.43117
G1 X170.648 Y135.286 E3.50226
G1 X170.261 Y135.244 F5400.000
G1 X170.298 Y135.143 F5400.000
G1 F1200
G1 X170.298 Y132.939 E3.54268
G1 X169.901 Y132.693 F5400.000
G1 F1200
G1 X160.018 Y124.560 E3.65958
G1 F1200
G1 X155.076 Y120.493 E3.76517
G1 X155.076 Y120.317 F5400.000
G1 F1200
G1 X155.343 Y120.886 E3.76607
G1 X154.960 Y120.221 F5400.000
G1 F1200
G1 X153.676 Y120.221 E3.78962
G1 F4320
G1 X154.960 Y120.221 E2.77314
G1 E1.78962 F3600.00000
G92 E0
G1 X178.038 Y125.212 F5400.000
G1 E2.00000 F3600.00000
G1 F1200
G1 X178.038 Y140.758 E2.41526
G1 X178.606 Y140.758 E2.43043
G1 X178.752 Y140.676 E2.43491
G1 X178.752 Y125.373 E2.84369
G1 X179.466 Y125.373 E2.86276
G1 X179.466 Y140.230 E3.25962
G1 X180.181 Y139.753 E3.28257
G1 X180.181 Y125.373 E3.66668
G1 X180.895 Y125.373 E3.68576
G1 X180.895 Y139.207 E4.05528
G1 X181.609 Y138.633 E4.07975
G1 X181.609 Y125.373 E4.43394
G1 X182.323 Y125.373 E4.45302
G1 X182.323 Y137.973 E4.78957
G1 X182.661 Y137.661 E4.80185
G1 X183.037 Y137.253 E4.81667
G1 X183.037 Y125.373 E5.13401
G1 X183.751 Y125.373 E5.15309
G1 X183.751 Y136.472 E5.44957
G1 X184.466 Y135.566 E5.48038
G1 X184.466 Y125.373 E5.75266
G1 X185.180 Y125.373 E5.77174
G1 X185.180 Y134.542 E6.01665
G1 X185.516 Y134.039 E6.03283
G1 X185.894 Y133.364 E6.05348
G1 X185.894 Y125.373 E6.26693
G1 X186.608 Y125.373 E6.28601
G1 X186.608 Y131.959 E6.46192
G1 X186.914 Y131.295 E6.48143
G1 X187.322 Y130.188 E6.51294
G1 X187.322 Y125.373 E6.64157
G1 X188.036 Y125.373 E6.66065
G1 X188.036 Y128.331 E6.73965
G1 F4320
G1 X188.036 Y125.931 E4.83965
G1 E4.73965 F3600.00000
G92 E0
G1 X192.321 Y129.620 F5400.000
G1 E2.00000 F3600.00000
G1 F1200
G1 X192.321 Y125.373 E2.11346
G1 X193.035 Y125.373 E2.13253
G1 X193.035 Y131.158 E2.28705
G1 X193.750 Y132.727 E2.33311
G1 X193.750 Y125.373 E2.52956
G1 X194.464 Y125.373 E2.54863
G1 X194.464 Y134.003 E2.77914
G1 X195.178 Y135.077 E2.81361
G1 X195.178 Y125.373 E3.07282
G1 X195.892 Y125.373 E3.09190
G1 X195.892 Y136.020 E3.37629
G1 X196.294 Y136.529 E3.39362
G1 X196.606 Y136.868 E3.40592
G1 X196.606 Y125.373 E3.71296
G1 X197.320 Y125.373 E3.73204
G1 X197.320 Y137.640 E4.05971
G1 X198.035 Y138.303 E4.08574
G1 X198.035 Y125.373 E4.43113
G1 X198.749 Y125.373 E4.45021
G1 X198.749 Y138.926 E4.81222
G1 X199.463 Y139.489 E4.83651
G1 X199.463 Y125.373 E5.21356
G1 X200.177 Y125.373 E5.23264
G1 X200.177 Y139.992 E5.62313
G1 X200.891 Y140.469 E5.64608
G1 X200.891 Y125.373 E6.04932
G1 X201.605 Y125.373 E6.06840
G1 X201.605 Y140.919 E6.48366
G1 F4320
G1 X201.605 Y138.519 E4.58366
G1 E4.48366 F3600.00000
G92 E0
G1 X195.892 Y140.919 F5400.000
G1 E2.00000 F3600.00000
G1 F1200
G1 X195.892 Y140.485 E2.01159
G1 X195.178 Y139.824 E2.03759
G1 X195.178 Y140.758 E2.06255
G1 X194.464 Y140.758 E2.08163
G1 X194.464 Y139.053 E2.12719
G1 X193.983 Y138.533 E2.14610
G1 X193.750 Y138.239 E2.15612
G1 X193.750 Y140.758 E2.22341
G1 X193.035 Y140.758 E2.24248
G1 X193.035 Y139.120 E2.28626
G1 X192.321 Y140.336 E2.32394
G1 X192.321 Y140.919 E2.33951
G1 F4320
G1 X192.321 Y140.336 E1.87807
G1 F4320
G1 X193.035 Y139.120 E0.76122
G1 F4320
G1 X193.035 Y139.526 E0.43951
G1 E0.33951 F3600.00000
G92 E0
G1 X187.322 Y140.919 F5400.000
G1 E2.00000 F3600.00000
G1 F1200
G1 X187.322 Y139.729 E2.03179
G1 X186.608 Y138.512 E2.06948
G1 X186.608 Y140.758 E2.12948
G1 X185.894 Y140.758 E2.14856
G1 X185.894 Y138.666 E2.20445
G1 X185.180 Y139.438 E2.23255
G1 X185.180 Y140.758 E2.26781
G1 X184.466 Y140.758 E2.28689
G1 X184.466 Y139.936 E2.30886
G1 F4320
G1 X184.466 Y140.758 E1.65764
G1 F4320
G1 X185.180 Y140.758 E1.09227
G1 F4320
G1 X185.180 Y139.895 E0.40886
G1 E0.30886 F3600.00000
G92 E0
G1 X179.772 Y148.286 F5400.000
G1 E2.00000 F3600.00000
G1 F1200
G1 X181.145 Y149.203 E2.05055
G1 X182.416 Y150.205 E2.10009
G1 X183.654 Y151.346 E2.15165
G1 X184.795 Y152.584 E2.20320
G1 X185.797 Y153.855 E2.25274
G1 X186.714 Y155.228 E2.30329
G1 X187.520 Y156.668 E2.35384
G1 X188.212 Y158.167 E2.40439
G1 X188.783 Y159.716 E2.45494
G1 X189.231 Y161.305 E2.50549
G1 X189.553 Y162.924 E2.55604
G1 X189.747 Y164.564 E2.60660
G1 X189.812 Y166.213 E2.65715
G1 X189.743 Y167.895 E2.70870
G1 X189.553 Y169.502 E2.75824
G1 X189.231 Y171.121 E2.80879
G1 X188.783 Y172.710 E2.85934
G1 X188.212 Y174.259 E2.90989
G1 X187.520 Y175.759 E2.96045
G1 X186.695 Y177.226 E3.01199
G1 X185.797 Y178.571 E3.06154
G1 X184.774 Y179.868 E3.11209
G1 X183.654 Y181.080 E3.16264
G1 X182.442 Y182.201 E3.21319
G1 X181.145 Y183.223 E3.26374
G1 X179.772 Y184.140 E3.31429
G1 X178.332 Y184.947 E3.36484
G1 X176.833 Y185.638 E3.41539
G1 X175.284 Y186.209 E3.46594
G1 X173.695 Y186.657 E3.51649
G1 X172.076 Y186.979 E3.56704
G1 X170.436 Y187.174 E3.61759
G1 X168.787 Y187.238 E3.66814
G1 X167.137 Y187.174 E3.71869
G1 X165.498 Y186.979 E3.76924
G1 X163.879 Y186.657 E3.81979
G1 X162.290 Y186.209 E3.87034
G1 X160.741 Y185.638 E3.92089
G1 X159.242 Y184.947 E3.97144
G1 X157.801 Y184.140 E4.02199
G1 X156.429 Y183.223 E4.07254
G1 X155.132 Y182.201 E4.12309
G1 X153.920 Y181.080 E4.17364
G1 X152.799 Y179.868 E4.22419
G1 X151.777 Y178.571 E4.27475
G1 X150.844 Y177.170 E4.32629
G1 X150.053 Y175.758 E4.37584
G1 X149.362 Y174.259 E4.42639
G1 X148.791 Y172.710 E4.47694
G1 X148.343 Y171.121 E4.52749
G1 X148.020 Y169.502 E4.57804
G1 X147.826 Y167.863 E4.62859
G1 X147.762 Y166.213 E4.67914
G1 X147.826 Y164.564 E4.72969
G1 X148.020 Y162.924 E4.78024
G1 X148.343 Y161.305 E4.83079
G1 X148.791 Y159.716 E4.88134
G1 X149.362 Y158.167 E4.93189
G1 X150.053 Y156.668 E4.98244
G1 X150.860 Y155.228 E5.03299
G1 X151.777 Y153.855 E5.08354
G1 X152.799 Y152.558 E5.13409
G1 X153.920 Y151.346 E5.18464
G1 X155.132 Y150.226 E5.23519
G1 X156.429 Y149.203 E5.28574
G1 X157.801 Y148.286 E5.33629
G1 X159.242 Y147.480 E5.38684
G1 X160.741 Y146.788 E5.43739
G1 X162.290 Y146.217 E5.48794
G1 X163.879 Y145.769 E5.53849
G1 X165.498 Y145.447 E5.58904
G1 X167.137 Y145.253 E5.63959
G1 X168.754 Y145.189 E5.68913
G1 X170.436 Y145.253 E5.74068
G1 X172.076 Y145.447 E5.79123
G1 X173.695 Y145.769 E5.84179
G1 X175.284 Y146.217 E5.89234
G1 X176.833 Y146.788 E5.94288
G1 X178.332 Y147.480 E5.99343
G1 X179.720 Y148.257 E6.04215
G1 X180.124 Y148.095 F5400.000
G1 X180.323 Y148.165 F5400.000
G1 F1200
G1 X179.985 Y147.939 E6.05458
G1 X178.517 Y147.117 E6.10611
G1 X176.989 Y146.412 E6.15764
G1 X175.410 Y145.830 E6.20917
G1 X173.790 Y145.373 E6.26070
G1 X172.420 Y145.100 E6.30349
G1 X172.420 Y144.900 E6.30962
G1 X173.790 Y144.627 E6.35241
G1 X175.410 Y144.170 E6.40394
G1 X176.989 Y143.588 E6.45547
G1 X178.517 Y142.883 E6.50700
G1 X179.985 Y142.061 E6.55853
G1 X180.323 Y141.835 E6.57096
G1 X183.556 Y143.733 E6.68576
G1 X183.292 Y143.868 E6.69485
G1 X183.055 Y144.055 E6.70409
G1 X182.868 Y144.292 E6.71332
G1 X182.768 Y144.489 E6.72012
G1 X182.699 Y144.700 E6.72691
G1 X182.664 Y145.000 E6.73614
G1 X182.699 Y145.300 E6.74538
G1 X182.768 Y145.511 E6.75217
G1 X182.868 Y145.708 E6.75897
G1 X183.048 Y145.936 E6.76784
G1 X183.229 Y146.090 E6.77512
G1 X183.551 Y146.270 E6.78642
G1 X180.375 Y148.134 E6.89920
G1 F4320
G1 X179.985 Y147.939 E6.55440
G1 F4320
G1 X178.517 Y147.117 E5.22210
G1 F4320
G1 X178.261 Y146.999 E4.99920
G1 E4.89920 F3600.00000
G92 E0
G1 X183.145 Y145.354 F5400.000
G1 E2.00000 F3600.00000
G1 F1200
