; generated by Slic3r 1.36.2-prusa3d-win64 on 2017-12-15 at 15:31:48

; 

; external perimeters extrusion width = 0.45mm
; perimeters extrusion width = 0.45mm
; infill extrusion width = 0.45mm
; solid infill extrusion width = 0.45mm
; top infill extrusion width = 0.40mm

M107
M80 ; turn on PSU
M140 S50
M104 S200 ; start E heating
M17; enable motors
G28 X Y ; Z ; Home
M190 S50
M109 S200
G91
G1 E5 F200
G90
; Filament gcode

G21 ; set units to millimeters
G90 ; use absolute coordinates
M82 ; use absolute distances for extrusion
G92 E0
G1 E-2.00000 F3600.00000
G92 E0
G1 Z0.200 F5400.000
G1 X177.688 Y136.601 F5400.000
G1 E2.00000 F3600.00000
G1 F1200
G1 X178.353 Y135.700 E2.03428
G1 X180.856 Y133.214 E2.14232
G1 X181.785 Y132.589 E2.17660
G1 X182.827 Y132.196 E2.21071
G1 X183.938 Y132.054 E2.24499
G1 X196.016 Y132.054 E2.61481
G1 X196.841 Y132.126 E2.64018
G1 X197.642 Y132.339 E2.66554
G1 X198.394 Y132.686 E2.69090
G1 X199.080 Y133.160 E2.71643
G1 X201.852 Y135.935 E2.83655
G1 X202.386 Y136.737 E2.86605
G1 X202.750 Y137.629 E2.89554
G1 X202.945 Y138.922 E2.93559
G1 X202.944 Y151.146 E3.30989
G1 X202.767 Y152.311 E3.34598
G1 X202.312 Y153.399 E3.38208
G1 X201.643 Y154.303 E3.41652
G1 X199.078 Y156.842 E3.52704
G1 X198.060 Y157.488 E3.56395
G1 X196.908 Y157.862 E3.60103
G1 X196.040 Y157.946 E3.62772
G1 X183.816 Y157.943 E4.00202
G1 X182.673 Y157.762 E4.03746
G1 X181.601 Y157.312 E4.07306
G1 X180.693 Y156.640 E4.10767
G1 X178.154 Y154.074 E4.21818
G1 X177.510 Y153.055 E4.25510
G1 X177.137 Y151.902 E4.29218
G1 X177.054 Y151.040 E4.31870
G1 X177.057 Y138.816 E4.69300
G1 X177.238 Y137.673 E4.72844
G1 X177.665 Y136.657 E4.76220
G1 X178.040 Y136.817 F5400.000
G1 F1200
G1 X178.660 Y135.968 E4.79440
G1 X181.125 Y133.520 E4.90076
G1 X181.984 Y132.944 E4.93245
G1 X182.960 Y132.583 E4.96429
G1 X183.946 Y132.461 E4.99472
G1 X196.016 Y132.461 E5.36429
G1 X196.779 Y132.529 E5.38776
G1 X197.520 Y132.728 E5.41123
G1 X198.210 Y133.049 E5.43455
G1 X198.838 Y133.488 E5.45802
G1 X201.534 Y136.188 E5.57484
G1 X202.035 Y136.943 E5.60258
G1 X202.369 Y137.779 E5.63017
G1 X202.538 Y138.936 E5.66595
G1 X202.537 Y151.130 E6.03933
G1 X202.371 Y152.214 E6.07291
G1 X201.940 Y153.228 E6.10665
G1 X201.333 Y154.040 E6.13770
G1 X198.816 Y156.530 E6.24612
G1 X197.871 Y157.127 E6.28033
G1 X196.807 Y157.466 E6.31454
G1 X196.033 Y157.539 E6.33833
G1 X183.834 Y157.536 E6.71187
G1 X182.766 Y157.366 E6.74497
G1 X181.772 Y156.940 E6.77808
G1 X180.960 Y156.333 E6.80914
G1 X178.470 Y153.816 E6.91756
G1 X177.873 Y152.871 E6.95177
G1 X177.534 Y151.807 E6.98598
G1 X177.461 Y151.033 E7.00977
G1 X177.464 Y138.834 E7.38330
G1 X177.634 Y137.766 E7.41641
G1 X178.017 Y136.872 E7.44618
G1 F4320
G1 X178.660 Y135.968 E6.56726
G1 F4320
G1 X179.575 Y135.059 E5.54618
G1 E5.44618 F3600.00000
G92 E0
G1 X195.359 Y150.398 F5400.000
G1 E2.00000 F3600.00000
G1 F1200
G1 X195.626 Y150.205 E2.01009
G1 X195.938 Y150.124 E2.01995
G1 X196.164 Y150.139 E2.02690
G1 X196.380 Y150.209 E2.03385
G1 X196.641 Y150.398 E2.04372
G1 X196.817 Y150.676 E2.05380
G1 X196.879 Y151.000 E2.06389
G1 X196.817 Y151.324 E2.07398
G1 X196.641 Y151.602 E2.08407
G1 X196.374 Y151.795 E2.09415
G1 X196.055 Y151.877 E2.10424
G1 X195.728 Y151.836 E2.11433
G1 X195.440 Y151.677 E2.12442
G1 X195.234 Y151.429 E2.13428
G1 X195.151 Y151.218 E2.14123
G1 X195.122 Y150.993 E2.14818
G1 X195.183 Y150.676 E2.15805
G1 X195.327 Y150.449 E2.16630
G1 X195.264 Y150.083 F5400.000
G1 F4320
G1 X195.626 Y150.205 E1.86083
G1 F4320
G1 X195.938 Y150.124 E1.60578
G1 F4320
G1 X196.164 Y150.139 E1.42608
G1 F4320
G1 X196.380 Y150.209 E1.24637
G1 F4320
G1 X196.641 Y150.398 E0.99134
G1 F4320
G1 X196.817 Y150.676 E0.73054
G1 F4320
G1 X196.879 Y151.000 E0.46973
G1 F4320
G1 X196.831 Y151.252 E0.26630
G1 E0.16630 F3600.00000
G92 E0
G1 X190.652 Y145.000 F5400.000
G1 E2.00000 F3600.00000
G1 F1200
G1 X195.176 Y149.525 E2.19593
G1 X194.755 Y149.831 E2.21188
G1 X194.531 Y150.183 E2.22466
G1 X190.000 Y145.652 E2.42088
G1 X185.469 Y150.183 E2.61711
G1 X185.245 Y149.831 E2.62988
G1 X184.824 Y149.525 E2.64583
G1 X189.348 Y145.000 E2.84177
G1 X184.824 Y140.475 E3.03770
G1 X185.245 Y140.169 E3.05365
G1 X185.469 Y139.817 E3.06643
G1 X190.000 Y144.348 E3.26265
G1 X194.531 Y139.817 E3.45888
G1 X194.755 Y140.169 E3.47165
G1 X195.176 Y140.475 E3.48760
G1 X190.694 Y144.958 E3.68170
G1 X191.227 Y145.000 F5400.000
G1 F1200
G1 X195.933 Y149.705 E3.88546
G1 X195.449 Y149.830 E3.90075
G1 X195.057 Y150.115 E3.91559
G1 X194.797 Y150.524 E3.93043
G1 X194.717 Y150.945 E3.94355
G1 X190.000 Y146.227 E4.14781
G1 X185.283 Y150.945 E4.35208
G1 X185.203 Y150.524 E4.36519
G1 X184.943 Y150.115 E4.38003
G1 X184.567 Y149.842 E4.39425
G1 X184.087 Y149.686 E4.40971
G1 X188.773 Y145.000 E4.61261
G1 X184.067 Y140.295 E4.81637
G1 X184.551 Y140.170 E4.83166
G1 X184.943 Y139.885 E4.84651
G1 X185.203 Y139.476 E4.86135
G1 X185.283 Y139.055 E4.87446
G1 X190.000 Y143.773 E5.07873
G1 X194.717 Y139.055 E5.28299
G1 X194.797 Y139.476 E5.29611
G1 X195.057 Y139.885 E5.31095
G1 X195.433 Y140.158 E5.32517
G1 X195.913 Y140.314 E5.34063
G1 X191.270 Y144.958 E5.54169
G1 F4320
G1 X192.952 Y146.670 E3.64169
G1 E3.54169 F3600.00000
G92 E0
G1 X195.359 Y139.602 F5400.000
G1 E2.00000 F3600.00000
G1 F1200
G1 X195.183 Y139.324 E2.01009
G1 X195.121 Y139.000 E2.02017
G1 X195.183 Y138.676 E2.03026
G1 X195.359 Y138.398 E2.04035
G1 X195.626 Y138.205 E2.05044
G1 X195.938 Y138.124 E2.06030
G1 X196.164 Y138.139 E2.06725
G1 X196.380 Y138.209 E2.07420
G1 X196.641 Y138.398 E2.08407
G1 X196.817 Y138.676 E2.09415
G1 X196.879 Y139.000 E2.10424
G1 X196.817 Y139.324 E2.11433
G1 X196.641 Y139.602 E2.12442
G1 X196.374 Y139.795 E2.13450
G1 X196.062 Y139.876 E2.14437
G1 X195.836 Y139.861 E2.15132
G1 X195.620 Y139.791 E2.15827
G1 X195.408 Y139.637 E2.16630
G1 X195.037 Y139.671 F5400.000
G1 F4320
G1 X195.183 Y139.324 E1.86083
G1 F4320
G1 X195.121 Y139.000 E1.60003
G1 F4320
G1 X195.183 Y138.676 E1.33922
G1 F4320
G1 X195.359 Y138.398 E1.07843
G1 F4320
G1 X195.626 Y138.205 E0.81762
G1 F4320
G1 X195.938 Y138.124 E0.56257
G1 F4320
G1 X196.164 Y138.139 E0.38286
G1 F4320
G1 X196.304 Y138.184 E0.26630
G1 E0.16630 F3600.00000
G92 E0
G1 X195.132 Y139.477 F5400.000
G1 X194.525 Y139.813 F5400.000
G1 X194.480 Y140.520 F5400.000
G1 X190.354 Y144.646 F5400.000
G1 X190.000 Y144.293 F5400.000
G1 X189.646 Y144.646 F5400.000
G1 X185.520 Y140.520 F5400.000
G1 X185.475 Y139.813 F5400.000
G1 X184.817 Y139.324 F5400.000
G1 E2.00000 F3600.00000
G1 F1200
G1 X184.641 Y139.602 E2.01009
G1 X184.374 Y139.795 E2.02017
G1 X184.062 Y139.876 E2.03004
G1 X183.836 Y139.861 E2.03699
G1 X183.620 Y139.791 E2.04394
G1 X183.359 Y139.602 E2.05380
G1 X183.183 Y139.324 E2.06389
G1 X183.121 Y139.000 E2.07398
G1 X183.183 Y138.676 E2.08407
G1 X183.359 Y138.398 E2.09415
G1 X183.626 Y138.205 E2.10424
G1 X183.945 Y138.123 E2.11433
G1 X184.272 Y138.164 E2.12442
G1 X184.560 Y138.323 E2.13450
G1 X184.766 Y138.571 E2.14437
G1 X184.849 Y138.782 E2.15132
G1 X184.878 Y139.007 E2.15827
G1 X184.829 Y139.265 E2.16630
G1 X185.017 Y139.586 F5400.000
G1 F4320
G1 X184.641 Y139.602 E1.86083
G1 F4320
G1 X184.374 Y139.795 E1.60002
G1 F4320
G1 X184.062 Y139.876 E1.34498
G1 F4320
G1 X183.836 Y139.861 E1.16528
G1 F4320
G1 X183.620 Y139.791 E0.98557
G1 F4320
G1 X183.359 Y139.602 E0.73054
G1 F4320
G1 X183.183 Y139.324 E0.46973
G1 F4320
G1 X183.135 Y139.071 E0.26629
G1 E0.16630 F3600.00000
G92 E0
G1 X184.868 Y139.477 F5400.000
G1 X185.475 Y139.813 F5400.000
G1 X185.520 Y140.520 F5400.000
G1 X189.646 Y144.646 F5400.000
G1 X189.293 Y145.000 F5400.000
G1 X189.646 Y145.354 F5400.000
G1 X185.520 Y149.480 F5400.000
G1 X185.475 Y150.187 F5400.000
G1 X184.868 Y150.523 F5400.000
G1 X183.626 Y150.205 F5400.000
G1 E2.00000 F3600.00000
G1 F1200
G1 X183.938 Y150.124 E2.00986
G1 X184.164 Y150.139 E2.01682
G1 X184.380 Y150.209 E2.02377
G1 X184.641 Y150.398 E2.03363
G1 X184.817 Y150.676 E2.04372
G1 X184.879 Y151.000 E2.05380
G1 X184.817 Y151.324 E2.06389
G1 X184.641 Y151.602 E2.07398
G1 X184.374 Y151.795 E2.08407
G1 X184.062 Y151.876 E2.09393
G1 X183.836 Y151.861 E2.10088
G1 X183.620 Y151.791 E2.10783
G1 X183.359 Y151.602 E2.11770
G1 X183.183 Y151.324 E2.12778
G1 X183.121 Y151.000 E2.13787
G1 X183.183 Y150.676 E2.14796
G1 X183.359 Y150.398 E2.15805
G1 X183.577 Y150.240 E2.16630
G1 X183.653 Y149.884 F5400.000
G1 F4320
G1 X183.938 Y150.124 E1.86657
G1 F4320
G1 X184.164 Y150.139 E1.68687
G1 F4320
G1 X184.380 Y150.209 E1.50717
G1 F4320
G1 X184.641 Y150.398 E1.25213
G1 F4320
G1 X184.817 Y150.676 E0.99133
G1 F4320
G1 X184.879 Y151.000 E0.73053
G1 F4320
G1 X184.817 Y151.324 E0.46971
G1 F4320
G1 X184.680 Y151.541 E0.26630
G1 E0.16630 F3600.00000
G92 E0
G1 X191.803 Y145.000 F5400.000
G1 E2.00000 F3600.00000
G1 F1200
G1 X197.814 Y151.010 E2.26027
G1 X196.010 Y152.814 E2.33835
G1 X190.000 Y146.803 E2.59862
G1 X183.990 Y152.814 E2.85889
G1 X182.186 Y151.010 E2.93697
G1 X188.197 Y145.000 E3.19724
G1 X182.186 Y138.990 E3.45751
G1 X183.990 Y137.186 E3.53559
G1 X190.000 Y143.197 E3.79586
G1 X196.010 Y137.186 E4.05613
G1 X197.814 Y138.990 E4.13421
G1 X191.846 Y144.958 E4.39264
G1 X191.549 Y145.309 F5400.000
G1 X190.182 Y144.818 F5400.000
G1 F1200
G1 X190.109 Y144.891 E4.39665
G1 F1200
G1 X190.036 Y144.964 E4.40135
G1 F1200
G1 X190.000 Y145.000 E4.40405
G1 F1200
G1 X189.927 Y144.927 E4.40943
G1 F1200
G1 X189.854 Y144.854 E4.41413
G1 F1200
G1 X185.531 Y140.531 E4.65260
G1 X185.533 Y140.500 E4.65381
G1 F1200
G1 X185.532 Y140.278 E4.66091
G1 F1200
G1 X185.531 Y140.167 E4.66362
G1 X185.088 Y138.868 F5400.000
G1 F1200
G1 X185.078 Y138.563 E4.66522
G1 X184.529 Y138.047 F5400.000
G1 F1200
G1 X184.361 Y137.921 E4.66557
G1 X183.853 Y137.611 E4.66658
G1 X184.099 Y137.584 F5400.000
G1 F1200
G1 X183.447 Y138.052 E4.66725
G1 X183.072 Y138.426 F5400.000
G1 F1200
G1 X182.952 Y138.576 E4.66773
G1 X182.599 Y139.115 E4.66935
G1 X182.597 Y138.867 F5400.000
G1 F1200
G1 X183.036 Y139.517 E4.67040
G1 X182.944 Y139.459 F5400.000
G1 F1200
G1 X182.732 Y138.990 E4.68273
G1 X182.977 Y138.487 E4.69611
G1 X183.599 Y140.114 F5400.000
G1 F1200
G1 X183.937 Y140.094 E4.69695
G1 F4320
G1 X183.599 Y140.114 E4.42883
G1 E2.69695 F3600.00000
G92 E0
G1 X189.854 Y145.146 F5400.000
G1 E2.00000 F3600.00000
G1 F1200
G1 X185.531 Y149.469 E2.23847
G1 X185.533 Y149.500 E2.23968
G1 F1200
G1 X185.532 Y149.722 E2.24677
G1 F1200
G1 X185.531 Y149.833 E2.24949
G1 X185.086 Y151.117 F5400.000
G1 F1200
G1 X185.086 Y151.429 E2.25117
G1 X184.964 Y151.517 F5400.000
G1 F1200
G1 X185.138 Y151.273 E2.25172
G1 X184.471 Y152.044 F5400.000
G1 F1200
G1 X183.815 Y152.351 E2.26544
G1 X184.092 Y152.423 F5400.000
G1 F1200
G1 X183.447 Y151.948 E2.26590
G1 X183.463 Y151.999 F5400.000
G1 F1200
G1 X184.152 Y152.363 E2.27567
G1 X183.072 Y151.574 F5400.000
G1 F1200
G1 X182.952 Y151.424 E2.27615
G1 X182.599 Y150.885 E2.27777
G1 X182.597 Y151.133 F5400.000
G1 F1200
G1 X183.036 Y150.483 E2.27882
G1 X182.944 Y150.541 F5400.000
G1 F1200
G1 X182.732 Y151.010 E2.29115
G1 X182.977 Y151.513 E2.30453
G1 X183.633 Y149.852 F5400.000
G1 F1200
G1 X184.018 Y149.902 E2.30495
G1 F4320
G1 X183.633 Y149.852 E1.99769
G1 E0.30495 F3600.00000
G92 E0
G1 X189.854 Y145.146 F5400.000
G1 E2.00000 F3600.00000
G1 F1200
G1 X189.927 Y145.073 E2.00470
G1 F1200
G1 X190.000 Y145.000 E2.01009
G1 F1200
G1 X190.036 Y145.036 E2.01278
G1 F1200
G1 X190.109 Y145.109 E2.01748
G1 F1200
G1 X190.182 Y145.182 E2.02149
G1 F1200
G1 X194.469 Y149.469 E2.21537
G1 X194.467 Y149.611 E2.21991
G1 F1200
G1 X194.469 Y149.833 E2.22534
G1 X194.912 Y151.132 F5400.000
G1 F1200
G1 X194.922 Y151.437 E2.22694
G1 X195.471 Y151.953 F5400.000
G1 F1200
G1 X195.639 Y152.079 E2.22788
G1 X196.147 Y152.389 E2.23056
G1 X195.901 Y152.416 F5400.000
G1 F1200
G1 X196.553 Y151.948 E2.23095
G1 X196.928 Y151.574 F5400.000
G1 F1200
G1 X197.048 Y151.424 E2.23154
G1 X197.401 Y150.885 E2.23353
G1 X197.403 Y151.133 F5400.000
G1 F1200
G1 X196.964 Y150.483 E2.23496
G1 X197.056 Y150.541 F5400.000
G1 F1200
G1 X197.268 Y151.010 E2.24729
G1 X197.023 Y151.513 E2.26067
G1 X196.401 Y149.886 F5400.000
G1 F1200
G1 X196.063 Y149.906 E2.26165
G1 F4320
G1 X196.401 Y149.886 E1.99353
G1 E0.26165 F3600.00000
G92 E0
G1 X190.182 Y144.818 F5400.000
G1 E2.00000 F3600.00000
G1 F1200
G1 X194.469 Y140.531 E2.19387
G1 X194.467 Y140.389 E2.19841
G1 F1200
G1 X194.469 Y140.167 E2.20384
G1 X194.914 Y138.883 F5400.000
G1 F1200
G1 X194.914 Y138.571 E2.20552
G1 X195.036 Y138.483 F5400.000
G1 F1200
G1 X194.862 Y138.727 E2.20592
G1 X195.529 Y137.956 F5400.000
G1 F1200
G1 X196.185 Y137.649 E2.21964
G1 X195.908 Y137.577 F5400.000
G1 F1200
G1 X196.553 Y138.052 E2.21990
G1 X196.537 Y138.001 F5400.000
G1 F1200
G1 X195.848 Y137.637 E2.22967
G1 X196.928 Y138.426 F5400.000
G1 F1200
G1 X197.048 Y138.576 E2.23027
G1 X197.401 Y139.115 E2.23225
G1 X197.403 Y138.867 F5400.000
G1 F1200
G1 X196.964 Y139.517 E2.23368
G1 X197.056 Y139.459 F5400.000
G1 F1200
G1 X197.268 Y138.990 E2.24601
G1 X197.023 Y138.487 E2.25939
G1 X196.367 Y140.148 F5400.000
G1 F1200
G1 X195.982 Y140.098 E2.25995
M106 S255
G1 F4320
G1 X196.367 Y140.148 E1.95270
G1 E0.25995 F3600.00000
G92 E0
G1 Z0.350 F5400.000
M104 S185 ; set temperature
G1 X184.649 Y150.314 F5400.000
G1 E2.00000 F3600.00000
G1 F720
G1 X184.764 Y150.445 E2.00567
G1 X184.886 Y150.659 E2.01370
G1 X184.949 Y151.009 E2.02527
G1 X184.880 Y151.356 E2.03676
G1 X184.770 Y151.547 E2.04396
G1 X184.649 Y151.686 E2.04994
G1 X184.514 Y151.792 E2.05552
G1 X184.351 Y151.876 E2.06150
G1 X184.186 Y151.926 E2.06709
G1 X184.022 Y151.944 E2.07246
G1 X183.831 Y151.934 E2.07868
G1 X183.596 Y151.859 E2.08673
G1 X183.351 Y151.686 E2.09647
G1 X183.232 Y151.549 E2.10237
G1 X183.144 Y151.399 E2.10804
G1 X183.086 Y151.235 E2.11371
G1 X183.051 Y150.993 E2.12165
G1 X183.120 Y150.644 E2.13323
G1 X183.275 Y150.396 E2.14276
G1 X183.405 Y150.267 E2.14873
G1 X183.548 Y150.171 E2.15432
G1 X183.708 Y150.102 E2.15999
G1 X183.949 Y150.052 E2.16801
G1 X184.140 Y150.066 E2.17424
G1 X184.292 Y150.100 E2.17930
G1 X184.452 Y150.171 E2.18498
G1 X184.604 Y150.275 E2.19097
G1 X184.815 Y150.263 F5400.000
G1 F4320
G1 X184.764 Y150.445 E2.00584
G1 F4320
G1 X184.886 Y150.659 E1.81054
G1 F4320
G1 X184.949 Y151.009 E1.52887
G1 F4320
G1 X184.880 Y151.356 E1.24926
G1 F4320
G1 X184.770 Y151.547 E1.07424
G1 F4320
G1 X184.649 Y151.686 E0.92874
G1 F4320
G1 X184.514 Y151.792 E0.79286
G1 F4320
G1 X184.351 Y151.876 E0.64735
G1 F4320
G1 X184.186 Y151.926 E0.51148
G1 F4320
G1 X184.022 Y151.944 E0.38067
G1 F4320
G1 X183.909 Y151.938 E0.29097
G1 E0.19097 F3600.00000
G92 E0
G1 X183.931 Y139.944 F5400.000
G1 E2.00000 F3600.00000
G1 F720
G1 X183.831 Y139.934 E2.00326
G1 X183.596 Y139.859 E2.01130
G1 X183.398 Y139.727 E2.01903
G1 X183.275 Y139.605 E2.02469
G1 X183.177 Y139.463 E2.03029
G1 X183.103 Y139.295 E2.03626
G1 X183.051 Y138.993 E2.04623
G1 X183.120 Y138.644 E2.05780
G1 X183.230 Y138.453 E2.06500
G1 X183.351 Y138.314 E2.07098
G1 X183.488 Y138.206 E2.07665
G1 X183.649 Y138.123 E2.08254
G1 X183.949 Y138.052 E2.09258
G1 X184.293 Y138.098 E2.10386
G1 X184.598 Y138.263 E2.11514
G1 X184.764 Y138.445 E2.12317
G1 X184.845 Y138.578 E2.12823
G1 X184.917 Y138.755 E2.13445
G1 X184.949 Y139.009 E2.14280
G1 X184.880 Y139.356 E2.15429
G1 X184.770 Y139.547 E2.16149
G1 X184.649 Y139.686 E2.16747
G1 X184.514 Y139.792 E2.17305
G1 X184.351 Y139.876 E2.17903
G1 X184.186 Y139.926 E2.18461
G1 X183.991 Y139.944 E2.19100
G1 X183.880 Y140.030 F5400.000
G1 F4320
G1 X183.831 Y139.934 E2.06436
G1 F4320
G1 X183.596 Y139.859 E1.86861
G1 F4320
G1 X183.398 Y139.727 E1.68068
G1 F4320
G1 X183.275 Y139.605 E1.54284
G1 F4320
G1 X183.177 Y139.463 E1.40668
G1 F4320
G1 X183.103 Y139.295 E1.26147
G1 F4320
G1 X183.051 Y138.993 E1.01890
G1 F4320
G1 X183.120 Y138.644 E0.73725
G1 F4320
G1 X183.230 Y138.453 E0.56222
G1 F4320
G1 X183.351 Y138.314 E0.41672
G1 F4320
G1 X183.476 Y138.216 E0.29100
G1 E0.19100 F3600.00000
G92 E0
G1 X195.063 Y138.882 F5400.000
G1 E2.00000 F3600.00000
G1 F720
G1 X195.103 Y138.705 E2.00590
G1 X195.177 Y138.537 E2.01188
G1 X195.275 Y138.396 E2.01747
G1 X195.406 Y138.266 E2.02345
G1 X195.548 Y138.171 E2.02904
G1 X195.708 Y138.102 E2.03471
G1 X195.949 Y138.052 E2.04273
