;Project QuadMicroCNC - Copy
;Created by Estlcam version 10 build 10,037
;Machining time about 00:06:18 hours

G90
M03 S24000
G1 X55 Y25 F4000
G1 Z0 ; premove
M84 Z
M00; wait to confirm everything is aligned
M17
;G92 X Y Z
G0 Z1.0000 F500


;No. 1: Hole 14
G0 X71.9711 Y42.7016 F3000
G0 Z0.5000 F500
G1 Z-0.8000 F120 S24000
G1 X71.9845 Y42.7007 F180
G1 X72.0516 Y42.6671
G1 X72.6394 Y42.0426
G1 X72.6524 Y42.0231
G1 X72.6498 Y42.0020
G1 X60.2658 Y29.5758
G1 X60.2586 Y29.5668
G1 X60.2496 Y29.5597
G1 X60.2391 Y29.5550
G1 X60.2278 Y29.5529
G1 X60.2163 Y29.5535
G1 X60.2053 Y29.5569
G1 X60.1955 Y29.5627
G1 X60.1872 Y29.5707
G1 X59.5526 Y30.1680
G1 X59.5440 Y30.1853
G1 X59.5369 Y30.2501
G1 X59.5561 Y30.2885
G1 X71.9711 Y42.7016
G1 Z-1.8000 F120
G1 X71.9845 Y42.7007 F180
G1 X72.0516 Y42.6671
G1 X72.6394 Y42.0426
G1 X72.6524 Y42.0231
G1 X72.6498 Y42.0020
G1 X60.2658 Y29.5758
G1 X60.2586 Y29.5668
G1 X60.2496 Y29.5597
G1 X60.2391 Y29.5550
G1 X60.2278 Y29.5529
G1 X60.2163 Y29.5535
G1 X60.2053 Y29.5569
G1 X60.1955 Y29.5627
G1 X60.1872 Y29.5707
G1 X59.5526 Y30.1680
G1 X59.5440 Y30.1853
G1 X59.5369 Y30.2501
G1 X59.5561 Y30.2885
G1 X71.9711 Y42.7016
G1 Z-2.2000 F120
G1 X71.9845 Y42.7007 F180
G1 X72.0516 Y42.6671
G1 X72.6394 Y42.0426
G1 X72.6524 Y42.0231
G1 X72.6498 Y42.0020
G1 X60.2658 Y29.5758
G1 X60.2586 Y29.5668
G1 X60.2496 Y29.5597
G1 X60.2391 Y29.5550
G1 X60.2278 Y29.5529
G1 X60.2163 Y29.5535
G1 X60.2053 Y29.5569
G1 X60.1955 Y29.5627
G1 X60.1872 Y29.5707
G1 X59.5526 Y30.1680
G1 X59.5440 Y30.1853
G1 X59.5369 Y30.2501
G1 X59.5561 Y30.2885
G1 X71.9711 Y42.7016
G0 Z1.0000 F500


;No. 2: Hole 16
G0 X74.9717 Y47.2191 Z1.0000 F3000
G0 Z0.5000 F500
G1 Z-0.8000 F120
G1 Y54.8070 F180
G1 X74.9745 Y54.8266
G1 X74.9879 Y54.8702
G1 X75.0054 Y54.8656
G1 X75.0223 Y54.8571
G1 X78.8027 Y51.0767
G1 X78.8175 Y51.0711
G1 X78.8303 Y51.0617
G1 X78.8402 Y51.0493
G1 X78.8463 Y51.0347
G1 X78.8484 Y51.0190
G1 X78.8462 Y51.0033
G1 X78.8400 Y50.9887
G1 X78.8300 Y50.9763
G1 X75.0634 Y47.1683
G1 X75.0556 Y47.1615
G1 X75.0467 Y47.1560
G1 X75.0371 Y47.1520
G1 X75.0270 Y47.1496
G1 X75.0166 Y47.1489
G1 X75.0062 Y47.1499
G1 X74.9962 Y47.1525
G1 X74.9867 Y47.1568
G1 X74.9717 Y47.2191
G1 Z-1.8000 F120
G1 Y54.8070 F180
G1 X74.9745 Y54.8266
G1 X74.9879 Y54.8702
G1 X75.0054 Y54.8656
G1 X75.0223 Y54.8571
G1 X78.8027 Y51.0767
G1 X78.8175 Y51.0711
G1 X78.8303 Y51.0617
G1 X78.8402 Y51.0493
G1 X78.8463 Y51.0347
G1 X78.8484 Y51.0190
G1 X78.8462 Y51.0033
G1 X78.8400 Y50.9887
G1 X78.8300 Y50.9763
G1 X75.0634 Y47.1683
G1 X75.0556 Y47.1615
G1 X75.0467 Y47.1560
G1 X75.0371 Y47.1520
G1 X75.0270 Y47.1496
G1 X75.0166 Y47.1489
G1 X75.0062 Y47.1499
G1 X74.9962 Y47.1525
G1 X74.9867 Y47.1568
G1 X74.9717 Y47.2191
G1 Z-2.2000 F120
G1 Y54.8070 F180
G1 X74.9745 Y54.8266
G1 X74.9879 Y54.8702
G1 X75.0054 Y54.8656
G1 X75.0223 Y54.8571
G1 X78.8027 Y51.0767
G1 X78.8175 Y51.0711
G1 X78.8303 Y51.0617
G1 X78.8402 Y51.0493
G1 X78.8463 Y51.0347
G1 X78.8484 Y51.0190
G1 X78.8462 Y51.0033
G1 X78.8400 Y50.9887
G1 X78.8300 Y50.9763
G1 X75.0634 Y47.1683
G1 X75.0556 Y47.1615
G1 X75.0467 Y47.1560
G1 X75.0371 Y47.1520
G1 X75.0270 Y47.1496
G1 X75.0166 Y47.1489
G1 X75.0062 Y47.1499
G1 X74.9962 Y47.1525
G1 X74.9867 Y47.1568
G1 X74.9717 Y47.2191
G0 Z1.0000 F500


;No. 3: Hole 15
G0 X77.1498 Y45.0263 Z1.0000 F3000
G0 Z0.5000 F500
G1 Z-0.8000 F120
G1 X77.1689 Y45.0646 F180
G1 X80.9697 Y48.8627
G1 X80.9961 Y48.8642
G1 X81.0344 Y48.8451
G1 X84.8148 Y45.0647
G1 X84.8205 Y45.0621
G1 X84.8254 Y45.0583
G1 X84.8293 Y45.0534
G1 X84.8319 Y45.0478
G1 X84.8330 Y45.0416
G1 X84.8327 Y45.0354
G1 X84.8309 Y45.0295
G1 X84.8277 Y45.0241
G1 X84.8233 Y45.0197
G1 X84.8180 Y45.0164
G1 X84.8121 Y45.0145
G1 X84.8059 Y45.0141
G1 X77.1779
G1 X77.1498 Y45.0263
G1 Z-1.8000 F120
G1 X77.1689 Y45.0646 F180
G1 X80.9697 Y48.8627
G1 X80.9961 Y48.8642
G1 X81.0344 Y48.8451
G1 X84.8148 Y45.0647
G1 X84.8205 Y45.0621
G1 X84.8254 Y45.0583
G1 X84.8293 Y45.0534
G1 X84.8319 Y45.0478
G1 X84.8330 Y45.0416
G1 X84.8327 Y45.0354
G1 X84.8309 Y45.0295
G1 X84.8277 Y45.0241
G1 X84.8233 Y45.0197
G1 X84.8180 Y45.0164
G1 X84.8121 Y45.0145
G1 X84.8059 Y45.0141
G1 X77.1779
G1 X77.1498 Y45.0263
G1 Z-2.2000 F120
G1 X77.1689 Y45.0646 F180
G1 X80.9697 Y48.8627
G1 X80.9961 Y48.8642
G1 X81.0344 Y48.8451
G1 X84.8148 Y45.0647
G1 X84.8205 Y45.0621
G1 X84.8254 Y45.0583
G1 X84.8293 Y45.0534
G1 X84.8319 Y45.0478
G1 X84.8330 Y45.0416
G1 X84.8327 Y45.0354
G1 X84.8309 Y45.0295
G1 X84.8277 Y45.0241
G1 X84.8233 Y45.0197
G1 X84.8180 Y45.0164
G1 X84.8121 Y45.0145
G1 X84.8059 Y45.0141
G1 X77.1779
G1 X77.1498 Y45.0263
G0 Z1.0000 F500


;No. 4: Hole 18
G0 X83.1391 Y50.9945 Z1.0000 F3000
G0 Z0.5000 F500
G1 Z-0.8000 F120
G1 X83.1388 Y51.0246 F180
G1 X83.1587 Y51.0544
G1 X86.9592 Y54.8537
G1 X86.9669 Y54.8266
G1 X86.9697 Y54.8070
G1 Y47.2191
G1 X86.9669 Y47.1995
G1 X86.9537 Y47.1531
G1 X86.9204 Y47.1683
G1 X83.1537 Y50.9763
G1 X83.1391 Y50.9945
G1 Z-1.8000 F120
G1 X83.1388 Y51.0246 F180
G1 X83.1587 Y51.0544
G1 X86.9592 Y54.8537
G1 X86.9669 Y54.8266
G1 X86.9697 Y54.8070
G1 Y47.2191
G1 X86.9669 Y47.1995
G1 X86.9537 Y47.1531
G1 X86.9204 Y47.1683
G1 X83.1537 Y50.9763
G1 X83.1391 Y50.9945
G1 Z-2.2000 F120
G1 X83.1388 Y51.0246 F180
G1 X83.1587 Y51.0544
G1 X86.9592 Y54.8537
G1 X86.9669 Y54.8266
G1 X86.9697 Y54.8070
G1 Y47.2191
G1 X86.9669 Y47.1995
G1 X86.9537 Y47.1531
G1 X86.9204 Y47.1683
G1 X83.1537 Y50.9763
G1 X83.1391 Y50.9945
G0 Z1.0000 F500


;No. 5: Hole 17
G0 X80.9493 Y53.1810 Z1.0000 F3000
G0 Z0.5000 F500
G1 Z-0.8000 F120
G1 X77.1689 Y56.9614 F180
G1 X77.1498 Y56.9998
G1 X77.1600 Y57.0061
G1 X77.1779 Y57.0120
G1 X84.8059
G1 X84.8128 Y57.0127
G1 X84.8196 Y57.0114
G1 X84.8259 Y57.0084
G1 X84.8311 Y57.0038
G1 X84.8349 Y56.9980
G1 X84.8370 Y56.9914
G1 X84.8373 Y56.9845
G1 X84.8357 Y56.9778
G1 X84.8324 Y56.9717
G1 X84.8275 Y56.9667
G1 X84.8215 Y56.9632
G1 X84.8148 Y56.9614
G1 X81.0344 Y53.1810
G1 X81.0254 Y53.1732
G1 X81.0150 Y53.1674
G1 X81.0037 Y53.1639
G1 X80.9919 Y53.1626
G1 X80.9800 Y53.1639
G1 X80.9687 Y53.1674
G1 X80.9583 Y53.1732
G1 X80.9493 Y53.1810
G1 Z-1.8000 F120
G1 X77.1689 Y56.9614 F180
G1 X77.1498 Y56.9998
G1 X77.1600 Y57.0061
G1 X77.1779 Y57.0120
G1 X84.8059
G1 X84.8128 Y57.0127
G1 X84.8196 Y57.0114
G1 X84.8259 Y57.0084
G1 X84.8311 Y57.0038
G1 X84.8349 Y56.9980
G1 X84.8370 Y56.9914
G1 X84.8373 Y56.9845
G1 X84.8357 Y56.9778
G1 X84.8324 Y56.9717
G1 X84.8275 Y56.9667
G1 X84.8215 Y56.9632
G1 X84.8148 Y56.9614
G1 X81.0344 Y53.1810
G1 X81.0254 Y53.1732
G1 X81.0150 Y53.1674
G1 X81.0037 Y53.1639
G1 X80.9919 Y53.1626
G1 X80.9800 Y53.1639
G1 X80.9687 Y53.1674
G1 X80.9583 Y53.1732
G1 X80.9493 Y53.1810
G1 Z-2.2000 F120
G1 X77.1689 Y56.9614 F180
G1 X77.1498 Y56.9998
G1 X77.1600 Y57.0061
G1 X77.1779 Y57.0120
G1 X84.8059
G1 X84.8128 Y57.0127
G1 X84.8196 Y57.0114
G1 X84.8259 Y57.0084
G1 X84.8311 Y57.0038
G1 X84.8349 Y56.9980
G1 X84.8370 Y56.9914
G1 X84.8373 Y56.9845
G1 X84.8357 Y56.9778
G1 X84.8324 Y56.9717
G1 X84.8275 Y56.9667
G1 X84.8215 Y56.9632
G1 X84.8148 Y56.9614
G1 X81.0344 Y53.1810
G1 X81.0254 Y53.1732
G1 X81.0150 Y53.1674
G1 X81.0037 Y53.1639
G1 X80.9919 Y53.1626
G1 X80.9800 Y53.1639
G1 X80.9687 Y53.1674
G1 X80.9583 Y53.1732
G1 X80.9493 Y53.1810
G0 Z1.0000 F500


;No. 6: Hole 12
G0 X89.3201 Y59.9675 Z1.0000 F3000
G0 Z0.5000 F500
G1 Z-0.8000 F120
G1 X89.3021 Y60.0035 F180
G1 X89.3054 Y60.0230
G1 X89.3201 Y60.0525
G1 X101.6953 Y72.4277
G1 X101.7017 Y72.4419
G1 X101.7114 Y72.4541
G1 X101.7239 Y72.4635
G1 X101.7383 Y72.4694
G1 X101.7537 Y72.4716
G1 X101.7692 Y72.4699
G1 X101.7838 Y72.4644
G1 X101.7965 Y72.4554
G1 X102.4312 Y71.8580
G1 X102.4395 Y71.8442
G1 X102.4455 Y71.8292
G1 X102.4489 Y71.8134
G1 X102.4498 Y71.7972
G1 X102.4480 Y71.7812
G1 X102.4436 Y71.7656
G1 X102.4368 Y71.7509
G1 X102.4277 Y71.7376
G1 X90.0234 Y59.3334
G1 X90.0103 Y59.3279
G1 X89.9964 Y59.3250
G1 X89.9822
G1 X89.9683 Y59.3276
G1 X89.9551 Y59.3330
G1 X89.9433 Y59.3408
G1 X89.9331 Y59.3507
G1 X89.9251 Y59.3625
G1 X89.3201 Y59.9675
G1 Z-1.8000 F120
G1 X89.3021 Y60.0035 F180
G1 X89.3054 Y60.0230
G1 X89.3201 Y60.0525
G1 X101.6953 Y72.4277
G1 X101.7017 Y72.4419
G1 X101.7114 Y72.4541
G1 X101.7239 Y72.4635
G1 X101.7383 Y72.4694
G1 X101.7537 Y72.4716
G1 X101.7692 Y72.4699
G1 X101.7838 Y72.4644
G1 X101.7965 Y72.4554
G1 X102.4312 Y71.8580
G1 X102.4395 Y71.8442
G1 X102.4455 Y71.8292
G1 X102.4489 Y71.8134
G1 X102.4498 Y71.7972
G1 X102.4480 Y71.7812
G1 X102.4436 Y71.7656
G1 X102.4368 Y71.7509
G1 X102.4277 Y71.7376
G1 X90.0234 Y59.3334
G1 X90.0103 Y59.3279
G1 X89.9964 Y59.3250
G1 X89.9822
G1 X89.9683 Y59.3276
G1 X89.9551 Y59.3330
G1 X89.9433 Y59.3408
G1 X89.9331 Y59.3507
G1 X89.9251 Y59.3625
G1 X89.3201 Y59.9675
G1 Z-2.2000 F120
G1 X89.3021 Y60.0035 F180
G1 X89.3054 Y60.0230
G1 X89.3201 Y60.0525
G1 X101.6953 Y72.4277
G1 X101.7017 Y72.4419
G1 X101.7114 Y72.4541
G1 X101.7239 Y72.4635
G1 X101.7383 Y72.4694
G1 X101.7537 Y72.4716
G1 X101.7692 Y72.4699
G1 X101.7838 Y72.4644
G1 X101.7965 Y72.4554
G1 X102.4312 Y71.8580
G1 X102.4395 Y71.8442
G1 X102.4455 Y71.8292
G1 X102.4489 Y71.8134
G1 X102.4498 Y71.7972
G1 X102.4480 Y71.7812
G1 X102.4436 Y71.7656
G1 X102.4368 Y71.7509
G1 X102.4277 Y71.7376
G1 X90.0234 Y59.3334
G1 X90.0103 Y59.3279
G1 X89.9964 Y59.3250
G1 X89.9822
G1 X89.9683 Y59.3276
G1 X89.9551 Y59.3330
G1 X89.9433 Y59.3408
G1 X89.9331 Y59.3507
G1 X89.9251 Y59.3625
G1 X89.3201 Y59.9675
G0 Z1.0000 F500


;No. 7: Hole 11
G0 X71.9827 Y59.3245 Z1.0000 F3000
G0 Z0.5000 F500
G1 Z-0.8000 F120
G1 X71.9711 F180
G1 X71.9603 Y59.3334
G1 X59.5561 Y71.7376
G1 X59.5357 Y71.7831
G1 X59.5440 Y71.8408
G1 X59.6995 Y72.0059
G1 X59.8610 Y72.1652
G1 X60.0282 Y72.3185
G1 X60.2009 Y72.4656
G1 X60.2144 Y72.4647
G1 X60.2881 Y72.4279
G1 X72.6562 Y60.0167
G1 X72.6495 Y59.9986
G1 X72.6394 Y59.9835
G1 X72.0516 Y59.3590
G1 X71.9827 Y59.3245
G1 Z-1.8000 F120
G1 X71.9711 F180
G1 X71.9603 Y59.3334
G1 X59.5561 Y71.7376
G1 X59.5357 Y71.7831
G1 X59.5440 Y71.8408
G1 X59.6995 Y72.0059
G1 X59.8610 Y72.1652
G1 X60.0282 Y72.3185
G1 X60.2009 Y72.4656
G1 X60.2144 Y72.4647
G1 X60.2881 Y72.4279
G1 X72.6562 Y60.0167
G1 X72.6495 Y59.9986
G1 X72.6394 Y59.9835
G1 X72.0516 Y59.3590
G1 X71.9827 Y59.3245
G1 Z-2.2000 F120
G1 X71.9711 F180
G1 X71.9603 Y59.3334
G1 X59.5561 Y71.7376
G1 X59.5357 Y71.7831
G1 X59.5440 Y71.8408
G1 X59.6995 Y72.0059
G1 X59.8610 Y72.1652
G1 X60.0282 Y72.3185
G1 X60.2009 Y72.4656
G1 X60.2144 Y72.4647
G1 X60.2881 Y72.4279
G1 X72.6562 Y60.0167
G1 X72.6495 Y59.9986
G1 X72.6394 Y59.9835
G1 X72.0516 Y59.3590
G1 X71.9827 Y59.3245
G0 Z1.0000 F500


;No. 8: Hole 13
G0 X89.3050 Y42.0054 Z1.0000 F3000
G0 Z0.5000 F500
G1 Z-0.8000 F120
G1 X89.3021 Y42.0226 F180
G1 X89.3201 Y42.0586
G1 X89.9251 Y42.6636
G1 X89.9301 Y42.6786
G1 X89.9390 Y42.6916
G1 X89.9510 Y42.7017
G1 X89.9654 Y42.7082
G1 X89.9810 Y42.7106
G1 X89.9966 Y42.7087
G1 X90.0111 Y42.7025
G1 X90.0234 Y42.6927
G1 X102.4277 Y30.2885
G1 X102.4419 Y30.2601
G1 X102.4474 Y30.2288
G1 X102.4437 Y30.1972
G1 X102.4312 Y30.1680
G1 X101.7965 Y29.5707
G1 X101.7879 Y29.5635
G1 X101.7779 Y29.5583
G1 X101.7671 Y29.5554
G1 X101.7558 Y29.5549
G1 X101.7448 Y29.5569
G1 X101.7344 Y29.5612
G1 X101.7252 Y29.5677
G1 X101.7176 Y29.5760
G1 X89.3201 Y41.9736
G1 X89.3050 Y42.0054
G1 Z-1.8000 F120
G1 X89.3021 Y42.0226 F180
G1 X89.3201 Y42.0586
G1 X89.9251 Y42.6636
G1 X89.9301 Y42.6786
G1 X89.9390 Y42.6916
G1 X89.9510 Y42.7017
G1 X89.9654 Y42.7082
G1 X89.9810 Y42.7106
G1 X89.9966 Y42.7087
G1 X90.0111 Y42.7025
G1 X90.0234 Y42.6927
G1 X102.4277 Y30.2885
G1 X102.4419 Y30.2601
G1 X102.4474 Y30.2288
G1 X102.4437 Y30.1972
G1 X102.4312 Y30.1680
G1 X101.7965 Y29.5707
G1 X101.7879 Y29.5635
G1 X101.7779 Y29.5583
G1 X101.7671 Y29.5554
G1 X101.7558 Y29.5549
G1 X101.7448 Y29.5569
G1 X101.7344 Y29.5612
G1 X101.7252 Y29.5677
G1 X101.7176 Y29.5760
G1 X89.3201 Y41.9736
G1 X89.3050 Y42.0054
G1 Z-2.2000 F120
G1 X89.3021 Y42.0226 F180
G1 X89.3201 Y42.0586
G1 X89.9251 Y42.6636
G1 X89.9301 Y42.6786
G1 X89.9390 Y42.6916
G1 X89.9510 Y42.7017
G1 X89.9654 Y42.7082
G1 X89.9810 Y42.7106
G1 X89.9966 Y42.7087
G1 X90.0111 Y42.7025
G1 X90.0234 Y42.6927
G1 X102.4277 Y30.2885
G1 X102.4419 Y30.2601
G1 X102.4474 Y30.2288
G1 X102.4437 Y30.1972
G1 X102.4312 Y30.1680
G1 X101.7965 Y29.5707
G1 X101.7879 Y29.5635
G1 X101.7779 Y29.5583
G1 X101.7671 Y29.5554
G1 X101.7558 Y29.5549
G1 X101.7448 Y29.5569
G1 X101.7344 Y29.5612
G1 X101.7252 Y29.5677
G1 X101.7176 Y29.5760
G1 X89.3201 Y41.9736
G1 X89.3050 Y42.0054
G0 Z1.0000 F500

G0 X57.0148 Y33.4124 Z1.0000 F3000
G0 Z0.5000 F500
G1 Z-0.1000 F120
G1 X56.8013 Y33.2225 F300
G1 X56.4853 Y33.0536
G1 X55.1402 Y32.7173
G1 X54.7794 Y32.5831
G1 X54.4277 Y32.4265
G1 X54.0865 Y32.2482
G1 X53.7571 Y32.0489
G1 X53.4409 Y31.8293
G1 X53.1391 Y31.5904
G1 X52.8528 Y31.3330
G1 X52.5832 Y31.0582
G1 X52.3313 Y30.7671
G1 X52.0982 Y30.4607
G1 X51.8847 Y30.1403
G1 X51.6917 Y29.8072
G1 X51.5200 Y29.4626
G1 X51.3702 Y29.1080
G1 X51.2429 Y28.7447
G1 X51.1386 Y28.3741
G1 X51.0790 Y28.1104
G1 X51.0356 Y27.8436
G1 X51.0086 Y27.5747
G1 X50.9980 Y27.3046
G1 Y26.4355
G1 X51.0457 Y26.0978
G1 X51.1111 Y25.7632
G1 X51.1939 Y25.4324
G1 X51.2940 Y25.1064
G1 X51.4110 Y24.7862
G1 X51.5447 Y24.4725
G1 X51.6946 Y24.1662
G1 X51.8604 Y23.8683
G1 X52.3564 Y23.2068
G1 X52.6722 Y22.8479
G1 X53.0156 Y22.5154
G1 X53.3844 Y22.2114
G1 X53.7764 Y21.9378
G1 X54.1890 Y21.6963
G1 X54.6195 Y21.4887
G1 X55.0653 Y21.3160
G1 X55.5234 Y21.1796
G1 X56.3927 Y21.0554
G1 X56.8408 Y21.0254
G1 X57.2898 Y21.0295
G1 X57.7373 Y21.0675
G1 X58.1806 Y21.1394
G1 X58.6172 Y21.2446
G1 X59.0445 Y21.3827
G1 X59.4602 Y21.5527
G1 X59.8618 Y21.7537
G1 X60.2470 Y21.9845
G1 X60.6136 Y22.2439
G1 X60.9595 Y22.5303
G1 X61.2827 Y22.8421
G1 X61.5814 Y23.1775
G1 X61.8537 Y23.5345
G1 X62.0983 Y23.9112
G1 X62.3136 Y24.3053
G1 X62.4982 Y24.6998
G1 X62.6542 Y25.1065
G1 X62.7806 Y25.5234
G1 X62.8769 Y25.9482
G1 X63.0314 Y26.4746
G1 X63.1149 Y26.6473
G1 X63.2106 Y26.8135
G1 X63.3179 Y26.9724
G1 X63.4364 Y27.1232
G1 X76.6305 Y40.2762
G1 X76.6653 Y40.1998
G1 X76.7038 Y40.1252
G1 X76.7458 Y40.0525
G1 X76.7912 Y39.9819
G1 X76.8951 Y39.8032
G1 X77.0196 Y39.6382
G1 X77.1628 Y39.4892
G1 X77.3229 Y39.3584
G1 X77.4973 Y39.2476
G1 X77.6838 Y39.1584
G1 X77.8795 Y39.0921
G1 X78.0818 Y39.0496
G1 X78.1880 Y39.0235
G1 X78.2958 Y39.0051
G1 X78.4046 Y38.9945
G1 X78.5139 Y38.9919
G1 X83.4899
G1 X83.7282 Y39.0105
G1 X83.9626 Y39.0575
G1 X84.1897 Y39.1321
G1 X84.4062 Y39.2334
G1 X84.6091 Y39.3598
G1 X84.7954 Y39.5096
G1 X84.9625 Y39.6806
G1 X85.1079 Y39.8703
G1 X85.1796 Y39.9652
G1 X85.2446 Y40.0648
G1 X85.3026 Y40.1686
G1 X85.3533 Y40.2762
G1 X98.5474 Y27.1232
G1 X98.6592 Y26.9704
G1 X98.7635 Y26.8125
G1 X98.8602 Y26.6498
G1 X98.9490 Y26.4826
G1 X99.0945 Y25.9914
G1 X99.1372 Y25.7077
G1 X99.1967 Y25.4270
G1 X99.2726 Y25.1504
G1 X99.3648 Y24.8787
G1 X99.4730 Y24.6130
G1 X99.5966 Y24.3541
G1 X99.7354 Y24.1030
G1 X99.8888 Y23.8606
G1 X100.0999 Y23.5367
G1 X100.3318 Y23.2274
G1 X100.5836 Y22.9340
G1 X100.8541 Y22.6578
G1 X101.1421 Y22.4000
G1 X101.4465 Y22.1617
G1 X101.7659 Y21.9439
G1 X102.0990 Y21.7476
G1 X102.4442 Y21.5736
G1 X102.8001 Y21.4226
G1 X103.1652 Y21.2955
G1 X103.5378 Y21.1925
G1 X104.3650 Y21.0271
G1 X104.8431 Y21.0045
G1 X105.3216 Y21.0186
G1 X105.7976 Y21.0691
G1 X106.2683 Y21.1558
G1 X106.7311 Y21.2782
G1 X107.1831 Y21.4356
G1 X107.6218 Y21.6271
G1 X108.0446 Y21.8515
G1 X108.3903 Y22.0652
G1 X108.7195 Y22.3036
G1 X109.0304 Y22.5653
G1 X109.3214 Y22.8490
G1 X109.5911 Y23.1531
G1 X109.8378 Y23.4760
G1 X110.0604 Y23.8161
G1 X110.2576 Y24.1715
G1 X110.4743 Y24.5991
G1 X110.6550 Y25.0431
G1 X110.7987 Y25.5004
G1 X110.9044 Y25.9680
G1 X110.9713 Y26.4427
G1 X110.9989 Y26.9213
G1 X110.9872 Y27.4005
G1 X110.9361 Y27.8772
G1 X110.8319 Y28.3552
G1 X110.6936 Y28.8245
G1 X110.5220 Y29.2826
G1 X110.3178 Y29.7272
G1 X110.1237 Y30.0863
G1 X109.9050 Y30.4310
G1 X109.6629 Y30.7597
G1 X109.3985 Y31.0708
G1 X109.1131 Y31.3627
G1 X108.8081 Y31.6340
G1 X108.4850 Y31.8835
G1 X108.1453 Y32.1099
G1 X107.7907 Y32.3121
G1 X107.4229 Y32.4891
G1 X107.0436 Y32.6402
G1 X106.6548 Y32.7645
G1 X105.4985 Y33.0536
G1 X105.1852 Y33.2207
G1 X104.9680 Y33.4131
G1 X91.4785 Y46.8606
G1 X91.3802 Y46.9703
G1 X91.2917 Y47.0882
G1 X91.2140 Y47.2133
G1 X91.1474 Y47.3447
G1 X91.0925 Y47.4815
G1 X91.0498 Y47.6225
G1 X91.0196 Y47.7667
G1 X91.0020 Y47.9130
G1 X91.0028 Y53.9534
G1 X91.0160 Y54.1197
G1 X91.0433 Y54.2842
G1 X91.0844 Y54.4458
G1 X91.1391 Y54.6034
G1 X91.2069 Y54.7558
G1 X91.2874 Y54.9018
G1 X91.3800 Y55.0406
G1 X91.4840 Y55.1709
G1 X104.9680 Y68.6129
G1 X105.1825 Y68.8036
G1 X105.4985 Y68.9725
G1 X106.8435 Y69.3088
G1 X107.2244 Y69.4531
G1 X107.5951 Y69.6220
G1 X107.9538 Y69.8149
G1 X108.2992 Y70.0308
G1 X108.6296 Y70.2689
G1 X108.9438 Y70.5282
G1 X109.2403 Y70.8075
G1 X109.5179 Y71.1056
G1 X109.7753 Y71.4212
G1 X110.0115 Y71.7531
G1 X110.2254 Y72.0997
G1 X110.4162 Y72.4595
G1 X110.5993 Y72.9320
G1 X110.7509 Y73.4155
G1 X110.8702 Y73.9080
G1 X110.9566 Y74.4073
G1 X110.9721 Y74.7170
G1 X110.9744 Y75.0270
G1 X110.9634 Y75.3369
G1 X110.9393 Y75.6460
G1 X110.9021 Y75.9538
G1 X110.8517 Y76.2597
G1 X110.7884 Y76.5632
G1 X110.7122 Y76.8638
G1 X110.5763 Y77.2296
G1 X110.4177 Y77.5862
G1 X110.2368 Y77.9321
G1 X110.0346 Y78.2659
G1 X109.8117 Y78.5863
G1 X109.5690 Y78.8920
G1 X109.3076 Y79.1818
G1 X109.0285 Y79.4545
G1 X108.7327 Y79.7091
G1 X108.4214 Y79.9446
G1 X108.0959 Y80.1600
G1 X107.7575 Y80.3545
G1 X107.6209 Y80.4162
G1 X106.7212 Y80.7322
G1 X106.3539 Y80.8357
G1 X105.9807 Y80.9153
G1 X105.6031 Y80.9708
G1 X105.2228 Y81.0017
G1 X104.8412 Y81.0081
G1 X104.4600 Y80.9899
G1 X104.0808 Y80.9472
G1 X103.7051 Y80.8801
G1 X103.3345 Y80.7889
G1 X102.9706 Y80.6741
G1 X102.6149 Y80.5360
G1 X102.2687 Y80.3753
G1 X101.9337 Y80.1926
G1 X101.6111 Y79.9888
G1 X101.3023 Y79.7645
G1 X101.0086 Y79.5208
G1 X100.6693 Y79.1761
G1 X100.3527 Y78.8104
G1 X100.0601 Y78.4252
G1 X99.7926 Y78.0222
G1 X99.6583 Y77.7874
G1 X99.5368 Y77.5458
G1 X99.4284 Y77.2980
G1 X99.3334 Y77.0448
G1 X99.2521 Y76.7868
G1 X99.1847 Y76.5249
G1 X99.1315 Y76.2598
G1 X99.0925 Y75.9921
G1 X99.0194 Y75.7056
G1 X98.9086 Y75.4314
G1 X98.7623 Y75.1744
G1 X98.5829 Y74.9392
G1 X85.3533 Y61.7499
G1 X85.3008 Y61.8622
G1 X85.2400 Y61.9702
G1 X85.1713 Y62.0734
G1 X85.0951 Y62.1711
G1 X84.9621 Y62.3507
G1 X84.8079 Y62.5122
G1 X84.6348 Y62.6534
G1 X84.4454 Y62.7719
G1 X84.2428 Y62.8659
G1 X84.0301 Y62.9340
G1 X83.8105 Y62.9752
G1 X83.5876 Y62.9887
G1 X83.4699 Y62.9919
G1 X78.4939
G1 X78.3441 Y62.9844
G1 X78.2619 Y62.9739
G1 X78.0316 Y62.9543
G1 X77.8061 Y62.9032
G1 X77.5899 Y62.8215
G1 X77.3869 Y62.7108
G1 X77.2011 Y62.5732
G1 X77.0360 Y62.4113
G1 X76.8948 Y62.2283
G1 X76.7801 Y62.0276
G1 X76.7033 Y61.8988
G1 X76.6397 Y61.7630
G1 X76.6305 Y61.7499
G1 X63.4080 Y74.9311
G1 X63.2237 Y75.1807
G1 X63.0721 Y75.4514
G1 X62.9556 Y75.7390
G1 X62.8761 Y76.0389
G1 X62.8301 Y76.3053
G1 X62.7677 Y76.5684
G1 X62.6890 Y76.8270
G1 X62.5944 Y77.0802
G1 X62.4348 Y77.4895
G1 X62.2448 Y77.8855
G1 X62.0254 Y78.2661
G1 X61.7779 Y78.6290
G1 X61.5037 Y78.9721
G1 X61.2043 Y79.2936
G1 X60.8816 Y79.5916
G1 X60.5373 Y79.8644
G1 X60.1733 Y80.1104
G1 X59.7919 Y80.3282
G1 X59.3951 Y80.5166
G1 X58.9852 Y80.6745
G1 X58.5645 Y80.8010
G1 X58.1355 Y80.8953
G1 X57.7006 Y80.9571
G1 X57.2622 Y80.9858
G1 X56.4355
G1 X56.1270 Y80.9419
G1 X55.8208 Y80.8841
G1 X55.5176 Y80.8125
G1 X55.2179 Y80.7271
G1 X54.9224 Y80.6283
G1 X54.6317 Y80.5161
G1 X54.3464 Y80.3909
G1 X54.0671 Y80.2528
G1 X53.6466 Y79.9870
G1 X53.2489 Y79.6882
G1 X52.8766 Y79.3584
G1 X52.5320 Y78.9998
G1 X52.2173 Y78.6145
G1 X51.9347 Y78.2052
G1 X51.6859 Y77.7745
G1 X51.4726 Y77.3251
G1 X51.2961 Y76.8601
G1 X51.1576 Y76.3824
G1 X51.0580 Y75.8950
G1 X50.9980 Y75.4013
G1 Y74.5321
G1 X51.0498 Y74.0644
G1 X51.1398 Y73.6026
G1 X51.2675 Y73.1497
G1 X51.4319 Y72.7088
G1 X51.6319 Y72.2828
G1 X51.8662 Y71.8748
G1 X52.1332 Y71.4873
G1 X52.4312 Y71.1231
G1 X53.0103 Y70.5026
G1 X53.3377 Y70.2415
G1 X53.6818 Y70.0028
G1 X54.0411 Y69.7876
G1 X54.4138 Y69.5967
G1 X54.7985 Y69.4310
G1 X55.1933 Y69.2913
G1 X55.5965 Y69.1783
G1 X56.0064 Y69.0923
G1 X56.1483 Y69.0762
G1 X56.2881 Y69.0469
G1 X56.4246 Y69.0045
G1 X56.5564 Y68.9494
G1 X56.6824 Y68.8822
G1 X56.8015 Y68.8033
G1 X56.9127 Y68.7136
G1 X57.0148 Y68.6137
G1 X70.5875 Y55.0411
G1 X70.6759 Y54.9232
G1 X70.7540 Y54.7983
G1 X70.8213 Y54.6672
G1 X70.8772 Y54.5309
G1 X70.9215 Y54.3904
G1 X70.9536 Y54.2466
G1 X70.9735 Y54.1006
G1 X70.9810 Y53.9534
G1 X70.9818 Y47.9141
G1 X70.9657 Y47.7688
G1 X70.9357 Y47.6258
G1 X70.8921 Y47.4863
G1 X70.8353 Y47.3516
G1 X70.7657 Y47.2230
G1 X70.6841 Y47.1017
G1 X70.5913 Y46.9889
G1 X70.4879 Y46.8855
G1 X57.0148 Y33.4124
G0 Z1.0000 F500
G0 X0.0000 Y0.0000 F3000

M05
;M84; disable steppers
