;Project QuadMicroCNC - Copy
;Created by Estlcam version 10 build 10,037
;Machining time about 00:10:32 hours

G90
M03 S24000
G1 X55 Y25 F4000
G1 Z0 ; premove
M84 Z
M00; wait to confirm everything is aligned
M17
;G92 X Y Z
G0 Z1.0000 F500

;No. 1: Part 1
G0 X48.9042 Y19.5130 F3000
G0 Z0.5000 F500
G1 Z-0.7000 F120 S24000
G1 X113.0789 F240
G1 X113.1837 Y21.6130
G1 X48.8000
G1 Y23.7130
G1 X113.1837
G1 Y25.8130
G1 X48.8000
G1 Y27.9130
G1 X113.1837
G1 Y30.0130
G1 X48.8000
G1 Y32.1130
G1 X113.1837
G1 Y34.2130
G1 X48.8000
G1 Y36.3130
G1 X113.1837
G1 Y38.4130
G1 X48.8000
G1 Y40.5130
G1 X113.1837
G1 Y42.6130
G1 X48.8000
G1 Y44.7130
G1 X113.1837
G1 Y46.8130
G1 X48.8000
G1 Y48.9130
G1 X113.1837
G1 Y51.0130
G1 X48.8000
G1 Y53.1130
G1 X113.1837
G1 Y55.2130
G1 X48.8000
G1 Y57.3130
G1 X113.1837
G1 Y59.4130
G1 X48.8000
G1 Y61.5130
G1 X113.1837
G1 Y63.6130
G1 X48.8000
G1 Y65.7130
G1 X113.1837
G1 Y67.8130
G1 X48.8000
G1 Y69.9130
G1 X113.1837
G1 Y72.0130
G1 X48.8000
G1 Y74.1130
G1 X113.1837
G1 Y76.2130
G1 X48.8000
G1 Y78.3130
G1 X113.1837
G1 Y80.4130
G1 X48.8000
G1 X48.9049 Y82.5130
G1 X113.0795
G0 Z1.0000 F500
G0 Z0.5000
G1 Z-0.7000 F120
G1 X113.3493 Y82.6434 F340
G1 X113.2461 Y82.8345
G1 X113.1164 Y83.0087
G1 X112.9628 Y83.1622
G1 X112.7885 Y83.2919
G1 X112.5974 Y83.3950
G1 X112.3933 Y83.4693
G1 X112.1806 Y83.5133
G1 X111.9637 Y83.5261
G1 X50.0000
G1 X49.8130 Y83.5144
G1 X49.6289 Y83.4794
G1 X49.4506 Y83.4218
G1 X49.2809 Y83.3425
G1 X49.1224 Y83.2425
G1 X48.9775 Y83.1236
G1 X48.8487 Y82.9876
G1 X48.7378 Y82.8365
G1 X48.6466 Y82.6728
G1 X48.5765 Y82.4991
G1 X48.5287 Y82.3179
G1 X48.5038 Y82.1322
G1 X48.5000 Y82.0061
G1 Y20.0000
G1 X48.5075 Y19.8502
G1 X48.5374 Y19.6673
G1 X48.5896 Y19.4894
G1 X48.6634 Y19.3193
G1 X48.7576 Y19.1596
G1 X48.8707 Y19.0127
G1 X49.0011 Y18.8810
G1 X49.1468 Y18.7663
G1 X49.3055 Y18.6704
G1 X49.4748 Y18.5949
G1 X49.6522 Y18.5408
G1 X49.8348 Y18.5090
G1 X50.0200 Y18.5000
G1 X111.9837
G1 X112.1812 Y18.5131
G1 X112.3752 Y18.5520
G1 X112.5624 Y18.6161
G1 X112.7395 Y18.7043
G1 X112.9035 Y18.8151
G1 X113.0515 Y18.9465
G1 X113.1809 Y19.0962
G1 X113.2894 Y19.2616
G1 X113.3753 Y19.4399
G1 X113.4369 Y19.6279
G1 X113.4733 Y19.8224
G1 X113.4837 Y20.0200
G1 Y82.0261
G1 X113.4759 Y82.1850
G1 X113.4506 Y82.3421
G1 X113.4082 Y82.4955
G1 X113.3493 Y82.6434
G1 X113.0795 Y82.5130
G0 Z1.0000 F500
G0 X0.0000 Y0.0000 F3000

M05
;M84; disable steppers
